; generated by PrusaSlicer 2.5.0+MacOS-x64 on 2023-02-05 at 18:47:41 UTC


;
;

;
;
; 

; external perimeters extrusion width = 0.45mm
; perimeters extrusion width = 0.45mm
; infill extrusion width = 0.45mm
; solid infill extrusion width = 0.45mm
; top infill extrusion width = 0.40mm
; first layer extrusion width = 0.42mm

M73 P0 R24
M201 X2500 Y2500 Z400 E5000 ; sets maximum accelerations, mm/sec^2
M203 X180 Y180 Z12 E80 ; sets maximum feedrates, mm / sec
M204 P1250 R1250 T2500 ; sets acceleration (P, T) and retract acceleration (R), mm/sec^2
M205 X8.00 Y8.00 Z2.00 E10.00 ; sets the jerk limits, mm/sec
M205 S0 T0 ; sets the minimum extruding and travel feed rate, mm/sec
M107
;TYPE:Custom
M862.3 P "MINI" ; printer model check
G90 ; use absolute coordinates
M83 ; extruder relative mode
M104 S170 ; set extruder temp for bed leveling
M140 S60 ; set bed temp
M109 R170 ; wait for bed leveling temp
M190 S60 ; wait for bed temp
M204 T1250 ; set travel acceleration
G28 ; home all without mesh bed level
G29 ; mesh bed leveling 
M204 T2500 ; restore travel acceleration
M104 S215 ; set extruder temp
G92 E0
G1 Y-2 X179 F2400
G1 Z3 F720
M109 S215 ; wait for extruder temp

; intro line
G1 X170 F1000
G1 Z0.2 F720
G1 X110 E8 F900
G1 X40 E10 F700
G92 E0

M221 S95 ; set flow
G21 ; set units to millimeters
G90 ; use absolute coordinates
M83 ; use relative distances for extrusion
M900 K0.2 ; Filament gcode LA 1.5
; ; Filament gcode LA 1.0
M107
;LAYER_CHANGE
;Z:0.2
;HEIGHT:0.2
;BEFORE_LAYER_CHANGE
G92 E0.0
;0.2


G1 E-3.2 F4200
M73 P1 R24
G1 Z.2 F720
;AFTER_LAYER_CHANGE
;0.2
G1 Z.4
G1 X68.378 Y52.215 F9000
G1 Z.2 F720
G1 E3.2 F2400
M204 P800
;TYPE:Skirt/Brim
;WIDTH:0.42
G1 F1200
G1 X68.816 Y51.644 E.02257
G1 X69.394 Y51.066 E.02563
G1 X69.965 Y50.628 E.02257
G1 X70.673 Y50.219 E.02563
G1 X71.338 Y49.944 E.02256
G1 X72.332 Y49.696 E.03211
G1 X73.146 Y49.625 E.02563
G1 X81.354 Y49.625 E.25734
G1 X82.67 Y49.799 E.04164
G1 X83.827 Y50.219 E.03859
G1 X84.947 Y50.933 E.04163
G1 X85.817 Y51.804 E.03861
G1 X94.051 Y63.111 E.43857
G1 X111.551 Y87.611 E.94402
G1 X112.031 Y88.423 E.02957
G1 X112.3 Y89.072 E.02202
G1 X112.554 Y90.082 E.03265
G1 X112.627 Y90.99 E.02857
G1 X112.593 Y125.116 E1.06999
G1 X112.451 Y125.92 E.02563
G1 X112.118 Y126.889 E.0321
G1 X111.786 Y127.528 E.02259
G1 X111.318 Y128.196 E.0256
G1 X110.823 Y128.734 E.0229
G1 X110.204 Y129.253 E.02534
G1 X109.327 Y129.78 E.03208
G1 X108.662 Y130.056 E.02258
G1 X107.668 Y130.304 E.0321
G1 X106.75 Y130.377 E.02889
G1 X81.25 Y130.377 E.79954
G1 X80.332 Y130.304 E.02889
G1 X79.338 Y130.056 E.0321
G1 X78.673 Y129.78 E.02258
G1 X77.796 Y129.253 E.03209
G1 X77.169 Y128.727 E.02565
G1 X76.683 Y128.197 E.02257
G1 X68.461 Y116.906 E.43794
G1 X67.969 Y116.077 E.0302
G1 X67.694 Y115.412 E.02257
G1 X67.446 Y114.418 E.03212
G1 X67.373 Y113.5 E.02887
G1 X67.373 Y55.5 E1.81855
G1 X67.482 Y54.378 E.03535
G1 X67.962 Y52.939 E.04755
G1 X68.348 Y52.267 E.0243
M204 P1000
; printing object PoEPiArduCam_AP10Adapter_Snake.stl id:0 copy 0
G1 E-2.24 F4200
;WIPE_START
G1 F7200
G1 X68.816 Y51.644 E-.43185
G1 X69.394 Y51.066 E-.45294
G1 X69.433 Y51.036 E-.02721
;WIPE_END
G1 E-.048 F4200
G1 Z.4 F720
G1 X83.077 Y123.633 F9000
G1 Z.2 F720
G1 E3.2 F2400
M204 P800
;TYPE:Perimeter
;WIDTH:0.419999
G1 F1200
G1 X83.239 Y124.074 E.01471
G1 X83.265 Y124.756 E.0214
G1 X83.124 Y125.292 E.01737
G1 X82.754 Y125.865 E.02139
M73 P1 R23
G1 X82.196 Y126.297 E.02213
;WIDTH:0.458509
G1 X82.033 Y126.378 E.00629
;WIDTH:0.497018
G1 X81.87 Y126.46 E.00687
;WIDTH:0.535527
G1 X81.707 Y126.541 E.00745
;WIDTH:0.581803
G1 X81.522 Y126.593 E.00865
G1 X80.997 Y126.589 E.02349
;WIDTH:0.567575
G1 X80.436 Y126.444 E.02528
;WIDTH:0.574086
G1 X79.881 Y126.095 E.02894
G1 X79.655 Y125.869 E.01414
G1 X79.339 Y125.391 E.02532
;WIDTH:0.567401
G1 X79.171 Y124.867 E.02399
G1 X79.161 Y124.244 E.02716
G1 X79.306 Y123.686 E.02513
;WIDTH:0.566725
G1 X79.523 Y123.29 E.01964
;WIDTH:0.574105
G1 X79.917 Y122.875 E.02529
G1 X80.179 Y122.691 E.01415
G1 X80.705 Y122.463 E.02531
;WIDTH:0.563541
G1 X81.235 Y122.391 E.02317
;WIDTH:0.596981
G1 X81.652 Y122.436 E.01934
G1 X81.728 Y122.474 E.00388
;WIDTH:0.552736
G1 X81.803 Y122.512 E.00357
;WIDTH:0.50849
G1 X81.878 Y122.55 E.00326
;WIDTH:0.464245
G1 X81.954 Y122.588 E.00295
;WIDTH:0.419999
G1 X82.457 Y122.861 E.01796
G1 X82.754 Y123.135 E.01267
G1 X83.056 Y123.577 E.01679
M204 P1000
G1 X82.759 Y123.834 F9000
M204 P800
;TYPE:External perimeter
G1 F1200
G1 X82.888 Y124.244 E.01348
G1 X82.888 Y124.756 E.01606
G1 X82.739 Y125.23 E.01557
G1 X82.445 Y125.649 E.01604
G1 X81.98 Y125.989 E.01807
G1 X81.519 Y126.135 E.01515
G1 X80.995 Y126.138 E.01644
G1 X80.52 Y125.989 E.0156
G1 X80.101 Y125.695 E.01605
G1 X79.79 Y125.271 E.0165
G1 X79.615 Y124.789 E.01607
G1 X79.612 Y124.244 E.01708
G1 X79.753 Y123.784 E.01508
G1 X79.946 Y123.488 E.0111
G1 X80.326 Y123.124 E.01651
G1 X80.79 Y122.907 E.01604
G1 X81.269 Y122.843 E.01514
G1 X81.786 Y122.931 E.01644
G1 X82.215 Y123.15 E.0151
G1 X82.445 Y123.351 E.00959
G1 X82.741 Y123.777 E.01624
M204 P1000
G1 X83.157 Y123.872 F9000
G1 E-2.24 F4200
;WIPE_START
G1 F7200
G1 X82.888 Y124.244 E-.27148
G1 X82.888 Y124.756 E-.28379
M73 P2 R23
G1 X82.739 Y125.23 E-.27524
G1 X82.654 Y125.35 E-.0815
;WIPE_END
G1 E-.048 F4200
G1 Z.4 F720
G1 X104.013 Y121.308 F9000
G1 Z.2 F720
G1 E3.2 F2400
M204 P800
;TYPE:Perimeter
G1 F1200
G1 X104.037 Y121.221 E.00282
G1 X104.037 Y94.279 E.84477
G1 X103.957 Y93.988 E.00944
G1 X103.762 Y93.793 E.00866
G1 X103.471 Y93.713 E.00944
G1 X89.267 Y93.713 E.44537
G1 X88.751 Y93.7 E.01618
G1 X88.52 Y93.786 E.00773
G1 X88.361 Y93.942 E.00699
G1 X88.263 Y94.259 E.0104
G1 X88.258 Y96.348 E.0655
G1 X88.076 Y96.13 E.0089
G1 X87.648 Y95.844 E.01614
G1 X87.439 Y95.773 E.00692
G1 X86.996 Y95.717 E.01401
G1 X86.419 Y95.862 E.01866
G1 X86.226 Y95.968 E.00692
G1 X85.98 Y96.174 E.01004
G1 X85.839 Y96.352 E.00712
G1 X85.844 Y93.254 E.09712
G1 X85.918 Y92.775 E.0152
G1 X86.071 Y92.496 E.01
G1 X86.444 Y92.091 E.01726
G1 X86.587 Y91.834 E.0092
G1 X86.601 Y91.643 E.00603
G1 X86.537 Y90.968 E.02124
G1 X86.537 Y69.779 E.66439
G1 X86.457 Y69.488 E.00944
G1 X86.262 Y69.293 E.00864
G1 X85.973 Y69.213 E.00941
G1 X82.171 Y69.203 E.1192
;WIDTH:0.460759
G1 X82.047 Y69.183 E.00438
;WIDTH:0.501518
G1 X81.922 Y69.162 E.00481
;WIDTH:0.542277
G1 X81.798 Y69.141 E.00524
;WIDTH:0.583036
G1 X81.674 Y69.12 E.00566
G1 X81.044 Y69.123 E.02828
;WIDTH:0.57431
G1 X80.546 Y69.036 E.02231
;WIDTH:0.572512
G1 X79.98 Y68.8 E.02703
;WIDTH:0.567409
G1 X79.524 Y68.48 E.0243
G1 X79.27 Y68.226 E.01565
G1 X78.91 Y67.702 E.02772
;WIDTH:0.572526
G1 X78.714 Y67.204 E.02361
G1 X78.637 Y66.797 E.01821
;WIDTH:0.575289
G1 X78.627 Y66.294 E.02228
G1 X78.713 Y65.796 E.02235
;WIDTH:0.572093
G1 X78.91 Y65.298 E.0236
;WIDTH:0.567425
G1 X79.206 Y64.85 E.0234
G1 X79.659 Y64.405 E.02771
;WIDTH:0.578607
G1 X80.118 Y64.127 E.02386
G1 X80.546 Y63.961 E.02046
;WIDTH:0.572495
G1 X81.052 Y63.873 E.02261
;WIDTH:0.581917
G1 X81.58 Y63.868 E.02366
G1 X81.663 Y63.851 E.00379
;WIDTH:0.548197
G1 X81.745 Y63.834 E.00355
;WIDTH:0.514477
G1 X81.828 Y63.817 E.00331
;WIDTH:0.480756
G1 X82.084 Y63.802 E.00933
;WIDTH:0.450378
G1 X82.34 Y63.787 E.00868
;WIDTH:0.419999
G1 X89.101 Y63.787 E.212
G1 X89.721 Y63.831 E.01947
G1 X90.177 Y63.953 E.01482
G1 X90.605 Y64.152 E.0148
G1 X90.993 Y64.424 E.01484
G1 X91.326 Y64.757 E.01478
G1 X91.598 Y65.145 E.01484
G1 X91.797 Y65.573 E.0148
G1 X91.919 Y66.029 E.01481
G1 X91.963 Y66.529 E.01574
G1 X91.963 Y87.721 E.66446
G1 X92.043 Y88.012 E.00944
G1 X92.238 Y88.207 E.00866
G1 X92.529 Y88.287 E.00944
G1 X106.721 Y88.287 E.44498
G1 X107.221 Y88.331 E.01574
G1 X107.677 Y88.453 E.01481
G1 X108.105 Y88.652 E.0148
G1 X108.493 Y88.924 E.01484
G1 X108.826 Y89.257 E.01478
G1 X109.098 Y89.645 E.01484
G1 X109.297 Y90.073 E.0148
G1 X109.419 Y90.529 E.01481
G1 X109.463 Y91.029 E.01574
G1 X109.463 Y124.471 E1.04852
G1 X109.419 Y124.971 E.01574
G1 X109.297 Y125.427 E.01481
G1 X109.098 Y125.855 E.0148
G1 X108.826 Y126.243 E.01484
G1 X108.493 Y126.576 E.01478
G1 X108.105 Y126.848 E.01484
G1 X107.677 Y127.047 E.0148
G1 X107.221 Y127.169 E.01481
G1 X106.721 Y127.213 E.01574
G1 X82.174 Y127.213 E.76965
;WIDTH:0.46045
G1 X82.011 Y127.193 E.00569
;WIDTH:0.500901
G1 X81.848 Y127.172 E.00624
;WIDTH:0.541352
G1 X81.686 Y127.152 E.0068
;WIDTH:0.581803
G1 X80.893 Y127.106 E.03557
;WIDTH:0.57251
G1 X80.371 Y126.981 E.02362
G1 X79.999 Y126.813 E.018
;WIDTH:0.574087
G1 X79.576 Y126.531 E.02245
G1 X79.283 Y126.245 E.01808
G1 X78.983 Y125.836 E.02242
G1 X78.819 Y125.503 E.01637
;WIDTH:0.567401
G1 X78.659 Y124.98 E.02385
;WIDTH:0.578598
G1 X78.621 Y124.477 E.02249
G1 X78.689 Y123.906 E.02562
;WIDTH:0.566091
G1 X78.901 Y123.319 E.02715
;WIDTH:0.569787
G1 X79.189 Y122.866 E.02352
;WIDTH:0.574093
G1 X79.541 Y122.499 E.02242
G1 X79.954 Y122.21 E.0223
G1 X80.57 Y121.961 E.02933
;WIDTH:0.5674
G1 X81.116 Y121.873 E.0241
;WIDTH:0.596981
G1 X81.698 Y121.886 E.02684
G1 X81.797 Y121.865 E.00467
;WIDTH:0.552736
G1 X81.896 Y121.845 E.00429
;WIDTH:0.50849
G1 X81.996 Y121.824 E.00392
;WIDTH:0.464245
G1 X82.095 Y121.803 E.00355
;WIDTH:0.419999
G1 X85.362 Y121.78 E.10244
G1 X85.619 Y121.667 E.00881
G1 X85.791 Y121.444 E.00883
G1 X85.837 Y121.223 E.00709
G1 X85.837 Y119.247 E.06196
G1 X86.024 Y119.47 E.00913
G1 X86.452 Y119.756 E.01614
G1 X86.661 Y119.827 E.00692
G1 X87.105 Y119.883 E.01403
G1 X87.681 Y119.738 E.01864
G1 X87.874 Y119.632 E.00692
G1 X88.12 Y119.426 E.01004
G1 X88.258 Y119.254 E.00692
G1 X88.263 Y121.092 E.05763
G1 X88.309 Y121.444 E.01114
G1 X88.399 Y121.589 E.00534
G1 X88.543 Y121.71 E.00589
G1 X88.829 Y121.787 E.00929
G1 X103.471 Y121.787 E.45912
G1 X103.762 Y121.707 E.00944
G1 X103.957 Y121.512 E.00866
G1 X103.997 Y121.366 E.00474
M204 P1000
G1 X103.66 Y121.221 F9000
M204 P800
;TYPE:External perimeter
G1 F1200
G1 X103.66 Y94.279 E.84477
G1 X103.605 Y94.145 E.00452
G1 X103.471 Y94.09 E.00452
G1 X89.419 Y94.09 E.44062
G1 X88.837 Y94.072 E.01825
G1 X88.726 Y94.102 E.00361
G1 X88.64 Y94.26 E.00563
G1 X88.635 Y96.59 E.07306
;WIDTH:0.450314
M73 P3 R23
G1 X88.619 Y96.963 E.01264
;WIDTH:0.480629
G1 X88.603 Y97.336 E.01358
G1 X88.488 Y97.802 E.01749
;WIDTH:0.471015
G1 X88.244 Y98.202 E.01668
;WIDTH:0.467801
G1 X87.913 Y98.492 E.01555
;WIDTH:0.479598
G1 X87.48 Y98.694 E.01736
G1 X87.102 Y98.755 E.01389
;WIDTH:0.474515
G1 X86.674 Y98.711 E.01544
G1 X86.442 Y98.628 E.00884
;WIDTH:0.465833
G1 X86.073 Y98.407 E.01513
;WIDTH:0.467763
G1 X85.758 Y98.063 E.01648
;WIDTH:0.479615
G1 X85.556 Y97.63 E.01734
G1 X85.506 Y97.362 E.00991
;WIDTH:0.500754
G1 X85.481 Y96.572 E.03009
;WIDTH:0.460377
G1 X85.461 Y96.32 E.00879
;WIDTH:0.419999
G1 X85.467 Y93.066 E.10203
G1 X85.558 Y92.653 E.01325
G1 X85.762 Y92.279 E.01335
G1 X86.173 Y91.828 E.01915
G1 X86.226 Y91.678 E.00496
G1 X86.16 Y90.986 E.0218
G1 X86.16 Y69.779 E.66495
G1 X86.105 Y69.645 E.00452
G1 X85.972 Y69.59 E.00451
G1 X80.919 Y69.567 E.15842
G1 X80.391 Y69.462 E.01687
G1 X79.89 Y69.268 E.01685
G1 X79.43 Y68.99 E.01688
G1 X79.026 Y68.637 E.01683
G1 X78.688 Y68.217 E.01689
G1 X78.429 Y67.747 E.01683
G1 X78.255 Y67.238 E.01687
G1 X78.173 Y66.706 E.01686
G1 X78.184 Y66.169 E.01686
G1 X78.288 Y65.641 E.01685
G1 X78.482 Y65.14 E.01684
G1 X78.76 Y64.68 E.01685
G1 X79.114 Y64.275 E.01689
G1 X79.532 Y63.938 E.01682
G1 X80.004 Y63.679 E.01689
G1 X80.626 Y63.485 E.02041
G1 X81.259 Y63.41 E.01999
G1 X89.243 Y63.41 E.25033
G1 X89.786 Y63.458 E.01711
G1 X90.307 Y63.597 E.01689
G1 X90.794 Y63.825 E.01687
G1 X91.236 Y64.134 E.01691
G1 X91.616 Y64.514 E.01685
G1 X91.925 Y64.956 E.01691
G1 X92.153 Y65.443 E.01687
G1 X92.292 Y65.964 E.01688
G1 X92.34 Y66.513 E.01729
G1 X92.34 Y87.721 E.66497
G1 X92.395 Y87.855 E.00452
G1 X92.529 Y87.91 E.00452
G1 X106.737 Y87.91 E.44549
G1 X107.286 Y87.958 E.01729
G1 X107.807 Y88.097 E.01688
G1 X108.294 Y88.325 E.01687
G1 X108.736 Y88.634 E.01691
G1 X109.116 Y89.014 E.01685
G1 X109.425 Y89.456 E.01691
G1 X109.653 Y89.943 E.01687
G1 X109.792 Y90.464 E.01688
G1 X109.84 Y91.013 E.01729
G1 X109.84 Y124.487 E1.04955
G1 X109.792 Y125.036 E.01729
G1 X109.653 Y125.557 E.01688
G1 X109.425 Y126.044 E.01687
G1 X109.116 Y126.486 E.01691
G1 X108.736 Y126.866 E.01685
G1 X108.294 Y127.175 E.01691
G1 X107.807 Y127.403 E.01687
G1 X107.286 Y127.542 E.01688
G1 X106.737 Y127.59 E.01729
G1 X81.803 Y127.59 E.78179
G1 X81.232 Y127.587 E.01792
G1 X80.653 Y127.526 E.01824
G1 X80.136 Y127.376 E.01687
G1 X79.654 Y127.139 E.01686
G1 X79.22 Y126.822 E.01686
G1 X78.848 Y126.434 E.01686
G1 X78.548 Y125.987 E.01686
G1 X78.331 Y125.496 E.01685
G1 X78.202 Y124.974 E.01684
G1 X78.166 Y124.437 E.01689
G1 X78.224 Y123.903 E.01683
G1 X78.374 Y123.387 E.01687
G1 X78.611 Y122.904 E.01685
G1 X78.928 Y122.47 E.01687
G1 X79.316 Y122.097 E.01686
G1 X79.763 Y121.798 E.01686
G1 X80.254 Y121.581 E.01685
G1 X80.764 Y121.451 E.01651
G1 X81.387 Y121.421 E.01955
G1 X82.094 Y121.422 E.02215
G1 X85.272 Y121.41 E.09966
G1 X85.387 Y121.37 E.00383
G1 X85.46 Y121.222 E.00517
G1 X85.46 Y119.012 E.06929
;WIDTH:0.446522
G1 X85.473 Y118.746 E.00893
;WIDTH:0.473045
G1 X85.487 Y118.48 E.00952
G1 X85.552 Y117.973 E.01828
;WIDTH:0.473832
G1 X85.758 Y117.53 E.01752
;WIDTH:0.476361
G1 X86.028 Y117.226 E.01464
G1 X86.345 Y117.013 E.01378
;WIDTH:0.474524
G1 X86.761 Y116.869 E.01577
;WIDTH:0.475503
G1 X87.069 Y116.841 E.01114
G1 X87.567 Y116.926 E.01817
;WIDTH:0.470384
G1 X87.979 Y117.149 E.01665
;WIDTH:0.474039
G1 X88.316 Y117.49 E.0172
;WIDTH:0.475533
G1 X88.471 Y117.758 E.01114
G1 X88.608 Y118.264 E.01885
;WIDTH:0.498172
G1 X88.595 Y118.774 E.01932
G1 X88.615 Y119.026 E.00956
;WIDTH:0.459086
G1 X88.635 Y119.278 E.00874
;WIDTH:0.419999
G1 X88.64 Y121.218 E.06083
G1 X88.685 Y121.344 E.00421
G1 X88.829 Y121.41 E.00495
G1 X103.471 Y121.41 E.45912
G1 X103.605 Y121.355 E.00452
G1 X103.637 Y121.277 E.00264
M204 P1000
G1 X104.046 Y121.118 F9000
G1 E-2.24 F4200
;WIPE_START
G1 F7200
G1 X103.638 Y119.631 E-.912
;WIPE_END
G1 E-.048 F4200
G1 Z.4 F720
G1 X86.543 Y119.369 F9000
G1 Z.2 F720
G1 E3.2 F2400
M204 P800
G1 F1200
G1 X86.313 Y119.227 E.00848
G1 X86.072 Y118.918 E.01231
;WIDTH:0.46814
G1 X85.929 Y118.544 E.01414
;WIDTH:0.471378
G1 X85.971 Y118.057 E.01743
G1 X86.189 Y117.665 E.01595
;WIDTH:0.474493
G1 X86.547 Y117.389 E.01624
;WIDTH:0.475503
G1 X87.022 Y117.27 E.0176
G1 X87.472 Y117.349 E.01644
;WIDTH:0.47037
G1 X87.805 Y117.557 E.01397
;WIDTH:0.475533
G1 X88.062 Y117.897 E.01532
G1 X88.181 Y118.348 E.01676
;WIDTH:0.499582
G1 X88.141 Y118.754 E.0155
G1 X88.009 Y118.946 E.00883
;WIDTH:0.459791
G1 X87.877 Y119.137 E.00806
;WIDTH:0.419999
G1 X87.568 Y119.378 E.01231
G1 X87.106 Y119.505 E.01502
G1 X86.641 Y119.429 E.01478
G1 X86.594 Y119.401 E.0017
M204 P1000
G1 X86.32 Y119.522 F9000
G1 E-2.24 F4200
;WIPE_START
G1 F7200
G1 X86.313 Y119.227 E-.18316
G1 X86.072 Y118.918 E-.21753
G1 X85.929 Y118.544 E-.22155
G1 X85.971 Y118.057 E-.27115
G1 X85.988 Y118.027 E-.01861
;WIPE_END
G1 E-.048 F4200
G1 Z.4 F720
G1 X86.287 Y96.413 F9000
G1 Z.2 F720
G1 E3.2 F2400
M204 P800
G1 F1200
G1 X86.532 Y96.222 E.00976
G1 X86.994 Y96.095 E.01502
G1 X87.46 Y96.171 E.01478
G1 X87.787 Y96.373 E.01206
G1 X88.028 Y96.682 E.01231
;WIDTH:0.4698
G1 X88.182 Y97.12 E.01647
;WIDTH:0.471015
G1 X88.102 Y97.622 E.01809
;WIDTH:0.473974
G1 X87.869 Y97.979 E.01527
G1 X87.575 Y98.201 E.01321
;WIDTH:0.471326
G1 X87.102 Y98.331 E.01745
G1 X86.629 Y98.249 E.0171
;WIDTH:0.473804
G1 X86.265 Y98.011 E.01559
G1 X86.049 Y97.725 E.01285
;WIDTH:0.46837
G1 X85.929 Y97.344 E.01412
;WIDTH:0.500754
G1 X85.957 Y96.855 E.01865
G1 X86.09 Y96.659 E.00901
;WIDTH:0.460377
G1 X86.223 Y96.463 E.00822
;WIDTH:0.419999
G1 X86.24 Y96.45 E.00067
M204 P1000
G1 E-2.24 F4200
;WIPE_START
G1 F7200
G1 X86.532 Y96.222 E-.20573
G1 X86.994 Y96.095 E-.26549
G1 X87.46 Y96.171 E-.26117
G1 X87.735 Y96.341 E-.17961
;WIPE_END
G1 E-.048 F4200
G1 Z.4 F720
G1 X79.815 Y68.017 F9000
G1 Z.2 F720
G1 E3.2 F2400
M204 P800
;TYPE:Perimeter
;WIDTH:0.578562
G1 F1200
G1 X79.686 Y67.907 E.00757
;WIDTH:0.567409
G1 X79.392 Y67.488 E.02231
G1 X79.191 Y66.948 E.02513
;WIDTH:0.575289
G1 X79.16 Y66.295 E.02894
G1 X79.214 Y65.967 E.01472
;WIDTH:0.572093
