; generated by PrusaSlicer 2.5.0+MacOS-x64 on 2023-02-08 at 14:28:41 UTC


;
;
; 

; external perimeters extrusion width = 0.45mm
; perimeters extrusion width = 0.45mm
; infill extrusion width = 0.45mm
; solid infill extrusion width = 0.45mm
; top infill extrusion width = 0.40mm
; first layer extrusion width = 0.42mm

M73 P0 R17
M73 Q0 S18
M201 X1000 Y1000 Z200 E5000 ; sets maximum accelerations, mm/sec^2
M203 X200 Y200 Z12 E120 ; sets maximum feedrates, mm / sec
M204 P1250 R1250 T1250 ; sets acceleration (P, T) and retract acceleration (R), mm/sec^2
M205 X8.00 Y8.00 Z0.40 E4.50 ; sets the jerk limits, mm/sec
M205 S0 T0 ; sets the minimum extruding and travel feed rate, mm/sec
M107
;TYPE:Custom
M862.3 P "MK3S" ; printer model check
M862.1 P0.4 ; nozzle diameter check
M115 U3.11.0 ; tell printer latest fw version
G90 ; use absolute coordinates
M83 ; extruder relative mode
M104 S240 ; set extruder temp
M140 S50 ; set bed temp
M190 S50 ; wait for bed temp
M109 S240 ; wait for extruder temp
G28 W ; home all without mesh bed level
G80 ; mesh bed leveling

G1 Z0.2 F720
G1 Y-3 F1000 ; go outside print area
G92 E0
G1 X60 E9 F1000 ; intro line
G1 X100 E12.5 F1000 ; intro line

G92 E0
M221 S95

; Don't change E values below. Excessive value can damage the printer.
M907 E430 ; set extruder motor current
G21 ; set units to millimeters
G90 ; use absolute coordinates
M83 ; use relative distances for extrusion
M900 K0
M107
;LAYER_CHANGE
;Z:0.2
;HEIGHT:0.2
;BEFORE_LAYER_CHANGE
G92 E0.0
;0.2


M73 Q0 S17
G1 E-.4 F2100
M73 P0 R16
G1 Z.2 F720
;AFTER_LAYER_CHANGE
;0.2
G1 X101.697 Y85.514 F10800
G1 E.4 F2100
M204 S800
;TYPE:Skirt/Brim
;WIDTH:0.42
G1 F1200
G1 X102.569 Y84.516 E.04986
G1 X104.44 Y82.639 E.09971
G1 X106.549 Y80.869 E.1036
G1 X108.723 Y79.353 E.09971
G1 X111.02 Y78.032 E.0997
G1 X112.209 Y77.448 E.04987
G1 X114.562 Y76.473 E.09581
G1 X117.088 Y75.672 E.09971
G1 X119.776 Y75.076 E.1036
G1 X122.404 Y74.735 E.09971
G1 X123.727 Y74.65 E.04987
G1 X126.273 Y74.65 E.0958
G1 X128.914 Y74.877 E.09971
G1 X131.625 Y75.355 E.10361
G1 X134.184 Y76.045 E.09971
G1 X136.159 Y76.753 E.07894
G1 X137.791 Y77.448 E.06672
G1 X140.233 Y78.719 E.1036
G1 X142.466 Y80.147 E.09971
G1 X144.486 Y81.697 E.09581
G1 X145.484 Y82.569 E.04986
G1 X147.361 Y84.44 E.09971
G1 X149.131 Y86.549 E.1036
G1 X150.647 Y88.723 E.09971
G1 X151.968 Y91.02 E.0997
G1 X152.552 Y92.209 E.04987
G1 X153.527 Y94.562 E.09581
G1 X154.328 Y97.088 E.09971
G1 X154.924 Y99.776 E.1036
M73 P1 R16
G1 X155.265 Y102.404 E.09971
G1 X155.35 Y103.727 E.04987
M73 Q1 S17
G1 X155.35 Y106.273 E.0958
G1 X155.123 Y108.914 E.09971
G1 X154.645 Y111.625 E.10361
G1 X153.955 Y114.184 E.09971
G1 X153.247 Y116.159 E.07894
G1 X152.552 Y117.791 E.06672
G1 X151.281 Y120.233 E.1036
G1 X149.853 Y122.466 E.09971
G1 X148.303 Y124.486 E.09581
G1 X147.431 Y125.484 E.04986
G1 X145.56 Y127.361 E.09971
G1 X143.451 Y129.131 E.1036
G1 X141.277 Y130.647 E.09971
G1 X138.98 Y131.968 E.0997
G1 X137.791 Y132.552 E.04987
G1 X135.438 Y133.527 E.09581
G1 X132.912 Y134.328 E.09971
G1 X130.224 Y134.924 E.1036
G1 X127.596 Y135.265 E.09971
G1 X126.273 Y135.35 E.04987
G1 X123.727 Y135.35 E.0958
G1 X121.086 Y135.123 E.09971
G1 X118.375 Y134.645 E.10361
G1 X115.816 Y133.955 E.09971
G1 X113.841 Y133.247 E.07894
G1 X112.209 Y132.552 E.06672
G1 X109.767 Y131.281 E.1036
G1 X107.534 Y129.853 E.09971
G1 X105.514 Y128.303 E.09581
G1 X104.516 Y127.431 E.04986
G1 X102.639 Y125.56 E.09971
G1 X100.869 Y123.451 E.1036
G1 X99.353 Y121.277 E.09971
G1 X98.032 Y118.98 E.0997
G1 X97.448 Y117.791 E.04987
G1 X96.473 Y115.438 E.09581
G1 X95.672 Y112.912 E.09971
G1 X95.076 Y110.224 E.1036
G1 X94.735 Y107.596 E.09971
G1 X94.65 Y106.273 E.04987
G1 X94.65 Y103.727 E.0958
G1 X94.877 Y101.086 E.09971
G1 X95.355 Y98.375 E.10361
G1 X96.045 Y95.816 E.09971
G1 X96.753 Y93.841 E.07894
G1 X97.448 Y92.209 E.06672
G1 X98.719 Y89.767 E.1036
G1 X100.147 Y87.534 E.09971
G1 X101.66 Y85.562 E.09355
M204 S1000
; printing object AP9_Pixel_Tube.stl id:0 copy 0
;WIPE_START
G1 F8640
G1 X102.569 Y84.516 E-.31982
G1 X102.753 Y84.332 E-.06018
;WIPE_END
G1 E-.02 F2100
G1 X100.197 Y101.735 F10800
G1 X100.079 Y102.82
G1 X100.007 Y103.909
G1 X99.983 Y105
G1 X100.007 Y106.091
G1 X100.079 Y107.18
G1 X100.197 Y108.265
G1 X100.284 Y108.83
G1 X100.348 Y109.247
G1 X99.428 Y114.307
G1 E.4 F2100
M204 S800
;TYPE:Perimeter
;WIDTH:0.419999
G1 F1200
G1 X99.047 Y113.183 E.04467
G1 X98.715 Y112.043 E.04467
G1 X98.432 Y110.89 E.04467
G1 X98.201 Y109.725 E.04467
G1 X98.02 Y108.552 E.04467
G1 X97.891 Y107.372 E.04467
G1 X97.813 Y106.187 E.04467
G1 X97.787 Y105 E.04467
G1 X97.813 Y103.813 E.04467
G1 X97.891 Y102.628 E.04467
G1 X98.02 Y101.448 E.04467
G1 X98.201 Y100.275 E.04467
G1 X98.432 Y99.11 E.04467
G1 X98.715 Y97.957 E.04467
G1 X99.047 Y96.817 E.04467
G1 X99.428 Y95.693 E.04467
G1 X99.859 Y94.586 E.04467
G1 X100.337 Y93.499 E.04468
G1 X100.862 Y92.435 E.04467
G1 X101.433 Y91.394 E.04467
G1 X102.049 Y90.379 E.04467
G1 X102.709 Y89.391 E.04467
G1 X103.411 Y88.434 E.04468
G1 X104.154 Y87.508 E.04467
G1 X104.937 Y86.615 E.04467
G1 X105.758 Y85.758 E.04467
G1 X106.615 Y84.937 E.04467
G1 X107.508 Y84.154 E.04467
G1 X108.434 Y83.411 E.04467
G1 X109.391 Y82.709 E.04468
G1 X110.379 Y82.049 E.04467
G1 X111.394 Y81.433 E.04467
G1 X112.435 Y80.862 E.04467
G1 X113.499 Y80.337 E.04467
G1 X114.586 Y79.859 E.04468
G1 X115.693 Y79.428 E.04467
G1 X116.817 Y79.047 E.04467
G1 X117.957 Y78.715 E.04467
G1 X119.11 Y78.432 E.04467
G1 X120.275 Y78.201 E.04467
G1 X121.448 Y78.02 E.04467
G1 X122.628 Y77.891 E.04467
G1 X123.813 Y77.813 E.04467
G1 X125 Y77.787 E.04467
G1 X126.187 Y77.813 E.04467
G1 X127.372 Y77.891 E.04467
G1 X128.552 Y78.02 E.04467
G1 X129.725 Y78.201 E.04467
G1 X130.89 Y78.432 E.04467
G1 X132.043 Y78.715 E.04467
G1 X133.183 Y79.047 E.04467
G1 X134.307 Y79.428 E.04467
G1 X135.414 Y79.859 E.04467
G1 X136.501 Y80.337 E.04468
G1 X137.565 Y80.862 E.04467
G1 X138.606 Y81.433 E.04467
G1 X139.621 Y82.049 E.04467
G1 X140.609 Y82.709 E.04467
G1 X141.566 Y83.411 E.04468
G1 X142.492 Y84.154 E.04467
M73 P2 R16
G1 X143.385 Y84.937 E.04467
G1 X144.242 Y85.758 E.04467
G1 X145.063 Y86.615 E.04467
G1 X145.846 Y87.508 E.04467
G1 X146.589 Y88.434 E.04467
G1 X147.291 Y89.391 E.04468
G1 X147.951 Y90.379 E.04467
G1 X148.567 Y91.394 E.04467
G1 X149.138 Y92.435 E.04467
M73 Q2 S17
G1 X149.663 Y93.499 E.04467
G1 X150.141 Y94.586 E.04468
G1 X150.572 Y95.693 E.04467
G1 X150.953 Y96.817 E.04467
G1 X151.285 Y97.957 E.04467
G1 X151.568 Y99.11 E.04467
G1 X151.799 Y100.275 E.04467
G1 X151.98 Y101.448 E.04467
G1 X152.109 Y102.628 E.04467
G1 X152.187 Y103.813 E.04467
G1 X152.213 Y105 E.04467
G1 X152.187 Y106.187 E.04467
G1 X152.109 Y107.372 E.04467
G1 X151.98 Y108.552 E.04467
G1 X151.799 Y109.725 E.04467
G1 X151.568 Y110.89 E.04467
G1 X151.285 Y112.043 E.04467
G1 X150.953 Y113.183 E.04467
G1 X150.572 Y114.307 E.04467
G1 X150.141 Y115.414 E.04467
G1 X149.663 Y116.501 E.04468
G1 X149.138 Y117.565 E.04467
G1 X148.567 Y118.606 E.04467
G1 X147.951 Y119.621 E.04467
G1 X147.291 Y120.609 E.04467
G1 X146.589 Y121.566 E.04468
G1 X145.846 Y122.492 E.04467
G1 X145.063 Y123.385 E.04467
G1 X144.242 Y124.242 E.04467
G1 X143.385 Y125.063 E.04467
G1 X142.492 Y125.846 E.04467
G1 X141.566 Y126.589 E.04467
G1 X140.609 Y127.291 E.04468
G1 X139.621 Y127.951 E.04467
G1 X138.606 Y128.567 E.04467
G1 X137.565 Y129.138 E.04467
G1 X136.501 Y129.663 E.04467
G1 X135.414 Y130.141 E.04468
G1 X134.307 Y130.572 E.04467
G1 X133.183 Y130.953 E.04467
G1 X132.043 Y131.285 E.04467
G1 X130.89 Y131.568 E.04467
G1 X129.725 Y131.799 E.04467
G1 X128.552 Y131.98 E.04467
G1 X127.372 Y132.109 E.04467
G1 X126.187 Y132.187 E.04467
G1 X125 Y132.213 E.04467
G1 X123.813 Y132.187 E.04467
G1 X122.628 Y132.109 E.04467
G1 X121.448 Y131.98 E.04467
G1 X120.275 Y131.799 E.04467
G1 X119.11 Y131.568 E.04467
G1 X117.957 Y131.285 E.04467
G1 X116.817 Y130.953 E.04467
G1 X115.693 Y130.572 E.04467
G1 X114.586 Y130.141 E.04467
G1 X113.499 Y129.663 E.04468
G1 X112.435 Y129.138 E.04467
G1 X111.394 Y128.567 E.04467
G1 X110.379 Y127.951 E.04467
G1 X109.391 Y127.291 E.04467
G1 X108.434 Y126.589 E.04468
G1 X107.508 Y125.846 E.04467
G1 X106.615 Y125.063 E.04467
G1 X105.758 Y124.242 E.04467
G1 X104.937 Y123.385 E.04467
G1 X104.154 Y122.492 E.04467
G1 X103.411 Y121.566 E.04467
G1 X102.709 Y120.609 E.04468
G1 X102.049 Y119.621 E.04467
G1 X101.433 Y118.606 E.04467
G1 X100.862 Y117.565 E.04467
G1 X100.337 Y116.501 E.04467
G1 X99.859 Y115.414 E.04468
G1 X99.45 Y114.363 E.04241
M204 S1000
G1 X99.074 Y114.436 F10800
M204 S800
;TYPE:External perimeter
G1 F1200
G1 X98.687 Y113.296 E.04529
G1 X98.35 Y112.141 E.04529
G1 X98.064 Y110.972 E.04529
G1 X97.829 Y109.791 E.04529
G1 X97.646 Y108.601 E.04529
G1 X97.515 Y107.405 E.04529
G1 X97.436 Y106.203 E.04529
G1 X97.41 Y105 E.04529
G1 X97.436 Y103.797 E.04529
G1 X97.515 Y102.595 E.04529
G1 X97.646 Y101.399 E.04529
G1 X97.829 Y100.209 E.04529
G1 X98.064 Y99.028 E.04529
G1 X98.35 Y97.859 E.04529
G1 X98.687 Y96.704 E.04529
G1 X99.074 Y95.564 E.04529
G1 X99.51 Y94.442 E.04529
G1 X99.995 Y93.34 E.0453
G1 X100.527 Y92.26 E.04529
G1 X101.106 Y91.205 E.04529
G1 X101.731 Y90.176 E.04529
G1 X102.4 Y89.175 E.04529
G1 X103.111 Y88.204 E.0453
G1 X103.865 Y87.266 E.04529
G1 X104.659 Y86.361 E.04529
G1 X105.491 Y85.491 E.04529
G1 X106.361 Y84.659 E.04529
G1 X107.266 Y83.865 E.04529
G1 X108.204 Y83.111 E.04529
G1 X109.175 Y82.4 E.04529
G1 X110.176 Y81.731 E.04529
G1 X111.205 Y81.106 E.04529
G1 X112.26 Y80.527 E.04529
G1 X113.34 Y79.995 E.04529
G1 X114.442 Y79.51 E.04529
G1 X115.564 Y79.074 E.04529
G1 X116.704 Y78.687 E.04529
G1 X117.859 Y78.35 E.04529
G1 X119.028 Y78.064 E.04529
G1 X120.209 Y77.829 E.04529
G1 X121.399 Y77.646 E.04529
G1 X122.595 Y77.515 E.04529
G1 X123.797 Y77.436 E.04529
G1 X125 Y77.41 E.04529
G1 X126.203 Y77.436 E.04529
G1 X127.405 Y77.515 E.04529
G1 X128.601 Y77.646 E.04529
G1 X129.791 Y77.829 E.04529
G1 X130.972 Y78.064 E.04529
G1 X132.141 Y78.35 E.04529
G1 X133.296 Y78.687 E.04529
G1 X134.436 Y79.074 E.04529
G1 X135.558 Y79.51 E.04529
G1 X136.66 Y79.995 E.0453
G1 X137.74 Y80.527 E.04529
G1 X138.795 Y81.106 E.04529
G1 X139.824 Y81.731 E.04529
G1 X140.825 Y82.4 E.04529
G1 X141.796 Y83.111 E.0453
G1 X142.734 Y83.865 E.04529
G1 X143.639 Y84.659 E.04529
G1 X144.509 Y85.491 E.04529
G1 X145.341 Y86.361 E.04529
G1 X146.135 Y87.266 E.04529
G1 X146.889 Y88.204 E.04529
G1 X147.6 Y89.175 E.0453
G1 X148.269 Y90.176 E.04529
G1 X148.894 Y91.205 E.04529
G1 X149.473 Y92.26 E.04529
G1 X150.005 Y93.34 E.04529
G1 X150.49 Y94.442 E.04529
G1 X150.926 Y95.564 E.04529
G1 X151.313 Y96.704 E.04529
G1 X151.65 Y97.859 E.04529
G1 X151.936 Y99.028 E.04529
G1 X152.171 Y100.209 E.04529
G1 X152.354 Y101.399 E.04529
G1 X152.485 Y102.595 E.04529
G1 X152.564 Y103.797 E.04529
G1 X152.59 Y105 E.04529
G1 X152.564 Y106.203 E.04529
G1 X152.485 Y107.405 E.04529
G1 X152.354 Y108.601 E.04529
G1 X152.171 Y109.791 E.04529
G1 X151.936 Y110.972 E.04529
G1 X151.65 Y112.141 E.04529
G1 X151.313 Y113.296 E.04529
M73 P3 R16
G1 X150.926 Y114.436 E.04529
G1 X150.49 Y115.558 E.04529
G1 X150.005 Y116.66 E.0453
G1 X149.473 Y117.74 E.04529
G1 X148.894 Y118.795 E.04529
G1 X148.269 Y119.824 E.04529
G1 X147.6 Y120.825 E.04529
G1 X146.889 Y121.796 E.0453
G1 X146.135 Y122.734 E.04529
G1 X145.341 Y123.639 E.04529
G1 X144.509 Y124.509 E.04529
G1 X143.639 Y125.341 E.04529
G1 X142.734 Y126.135 E.04529
G1 X141.796 Y126.889 E.04529
G1 X140.825 Y127.6 E.04529
G1 X139.824 Y128.269 E.04529
G1 X138.795 Y128.894 E.04529
G1 X137.74 Y129.473 E.04529
M73 Q3 S17
G1 X136.66 Y130.005 E.04529
G1 X135.558 Y130.49 E.04529
G1 X134.436 Y130.926 E.04529
G1 X133.296 Y131.313 E.04529
G1 X132.141 Y131.65 E.04529
G1 X130.972 Y131.936 E.04529
G1 X129.791 Y132.171 E.04529
G1 X128.601 Y132.354 E.04529
G1 X127.405 Y132.485 E.04529
G1 X126.203 Y132.564 E.04529
G1 X125 Y132.59 E.04529
G1 X123.797 Y132.564 E.04529
G1 X122.595 Y132.485 E.04529
G1 X121.399 Y132.354 E.04529
G1 X120.209 Y132.171 E.04529
G1 X119.028 Y131.936 E.04529
G1 X117.859 Y131.65 E.04529
G1 X116.704 Y131.313 E.04529
G1 X115.564 Y130.926 E.04529
G1 X114.442 Y130.49 E.04529
G1 X113.34 Y130.005 E.0453
G1 X112.26 Y129.473 E.04529
G1 X111.205 Y128.894 E.04529
G1 X110.176 Y128.269 E.04529
G1 X109.175 Y127.6 E.04529
G1 X108.204 Y126.889 E.0453
G1 X107.266 Y126.135 E.04529
G1 X106.361 Y125.341 E.04529
G1 X105.491 Y124.509 E.04529
G1 X104.659 Y123.639 E.04529
G1 X103.865 Y122.734 E.04529
G1 X103.111 Y121.796 E.04529
G1 X102.4 Y120.825 E.0453
G1 X101.731 Y119.824 E.04529
G1 X101.106 Y118.795 E.04529
G1 X100.527 Y117.74 E.04529
G1 X99.995 Y116.66 E.04529
G1 X99.51 Y115.558 E.04529
G1 X99.096 Y114.492 E.04303
M204 S1000
G1 X99.331 Y114.13 F10800
G1 E-.4 F2100
G1 X99.773 Y100.556 F10800
G1 E.4 F2100
M204 S800
;TYPE:Perimeter
G1 F1200
G1 X99.995 Y99.444 E.04267
G1 X100.261 Y98.358 E.04205
G1 X100.574 Y97.286 E.04205
G1 X100.934 Y96.228 E.04205
G1 X101.34 Y95.186 E.04205
G1 X101.78 Y94.186 E.04112
G1 X102.274 Y93.183 E.04205
G1 X102.811 Y92.203 E.04205
G1 X103.39 Y91.247 E.04205
G1 X104.01 Y90.318 E.04205
G1 X104.671 Y89.416 E.04205
G1 X105.37 Y88.544 E.04205
G1 X106.123 Y87.686 E.04298
G1 X106.896 Y86.879 E.04205
G1 X107.704 Y86.106 E.04205
G1 X108.526 Y85.386 E.04112
G1 X109.397 Y84.686 E.04205
G1 X110.298 Y84.025 E.04205
G1 X111.227 Y83.403 E.04205
G1 X112.182 Y82.823 E.04205
G1 X113.161 Y82.285 E.04205
G1 X114.186 Y81.78 E.04297
G1 X115.209 Y81.33 E.04205
G1 X116.251 Y80.926 E.04205
G1 X117.309 Y80.567 E.04205
G1 X118.382 Y80.255 E.04205
G1 X119.444 Y79.995 E.04112
G1 X120.54 Y79.776 E.04205
G1 X121.669 Y79.603 E.04298
G1 X122.78 Y79.482 E.04205
G1 X123.87 Y79.41 E.04112
G1 X124.805 Y79.389 E.03519
G1 X126.105 Y79.409 E.0489
G1 X127.22 Y79.482 E.04205
G1 X128.331 Y79.603 E.04205
G1 X129.436 Y79.772 E.04205
G1 X130.532 Y79.99 E.04205
G1 X131.618 Y80.255 E.04205
G1 X132.691 Y80.567 E.04205
G1 X133.772 Y80.934 E.04298
G1 X134.814 Y81.34 E.04205
G1 X135.814 Y81.78 E.04112
G1 X136.817 Y82.274 E.04205
G1 X137.797 Y82.811 E.04205
G1 X138.753 Y83.39 E.04205
G1 X139.682 Y84.01 E.04205
G1 X140.584 Y84.671 E.04205
G1 X141.456 Y85.37 E.04205
G1 X142.314 Y86.123 E.04298
G1 X143.121 Y86.896 E.04205
G1 X143.894 Y87.704 E.04205
G1 X144.614 Y88.526 E.04112
G1 X145.314 Y89.397 E.04205
G1 X145.975 Y90.298 E.04205
G1 X146.597 Y91.227 E.04205
G1 X147.177 Y92.182 E.04205
G1 X147.715 Y93.161 E.04205
G1 X148.22 Y94.186 E.04297
G1 X148.67 Y95.209 E.04205
G1 X149.074 Y96.251 E.04205
G1 X149.433 Y97.309 E.04205
G1 X149.739 Y98.358 E.04112
G1 X150.005 Y99.444 E.04205
G1 X150.224 Y100.54 E.04205
G1 X150.394 Y101.644 E.04205
G1 X150.518 Y102.78 E.04298
G1 X150.591 Y103.895 E.04205
G1 X150.615 Y105.012 E.04205
G1 X150.59 Y106.13 E.04205
G1 X150.516 Y107.245 E.04205
G1 X150.397 Y108.331 E.04112
G1 X150.228 Y109.436 E.04205
G1 X150.01 Y110.532 E.04205
G1 X149.745 Y111.618 E.04205
G1 X149.433 Y112.691 E.04205
G1 X149.066 Y113.772 E.04298
G1 X148.66 Y114.814 E.04205
G1 X148.22 Y115.814 E.04112
G1 X147.726 Y116.817 E.04205
G1 X147.189 Y117.797 E.04205
G1 X146.61 Y118.753 E.04205
G1 X145.99 Y119.682 E.04205
G1 X145.329 Y120.584 E.04205
G1 X144.63 Y121.456 E.04205
G1 X143.877 Y122.314 E.04298
G1 X143.104 Y123.121 E.04205
G1 X142.296 Y123.894 E.04205
G1 X141.474 Y124.614 E.04112
G1 X140.603 Y125.314 E.04205
G1 X139.702 Y125.975 E.04205
G1 X138.773 Y126.597 E.04205
G1 X137.797 Y127.189 E.04298
G1 X136.817 Y127.726 E.04205
G1 X135.814 Y128.22 E.04205
G1 X134.791 Y128.67 E.04205
G1 X133.749 Y129.074 E.04205
G1 X132.691 Y129.433 E.04205
G1 X131.642 Y129.739 E.04112
G1 X130.556 Y130.005 E.04205
G1 X129.46 Y130.224 E.04205
G1 X128.356 Y130.394 E.04205
G1 X127.22 Y130.518 E.04298
G1 X126.105 Y130.591 E.04205
G1 X124.988 Y130.615 E.04205
G1 X123.87 Y130.59 E.04205
G1 X122.78 Y130.518 E.04112
G1 X121.669 Y130.397 E.04205
G1 X120.564 Y130.228 E.04205
G1 X119.468 Y130.01 E.04205
G1 X118.382 Y129.745 E.04205
G1 X117.309 Y129.433 E.04205
G1 X116.228 Y129.066 E.04298
G1 X115.186 Y128.66 E.04205
G1 X114.163 Y128.21 E.04205
G1 X113.183 Y127.726 E.04112
G1 X112.203 Y127.189 E.04205
M73 P4 R16
G1 X111.247 Y126.61 E.04205
