; generated by PrusaSlicer 2.2.0+ on 2022-08-24 at 15:25:47 UTC


;
;

;
;
; 

; external perimeters extrusion width = 0.45mm
; perimeters extrusion width = 0.45mm
; infill extrusion width = 0.45mm
; solid infill extrusion width = 0.45mm
; top infill extrusion width = 0.40mm
; first layer extrusion width = 0.42mm

M73 P0 R54
M201 X1250 Y1250 Z400 E5000 ; sets maximum accelerations, mm/sec^2
M203 X180 Y180 Z12 E80 ; sets maximum feedrates, mm/sec
M204 P1250 R1250 T1250 ; sets acceleration (P, T) and retract acceleration (R), mm/sec^2
M205 X8.00 Y8.00 Z2.00 E10.00 ; sets the jerk limits, mm/sec
M205 S0 T0 ; sets the minimum extruding and travel feed rate, mm/sec
M107
G90 ; use absolute coordinates
M83 ; extruder relative mode
M104 S170 ; set extruder temp for bed leveling
M140 S60 ; set bed temp
M109 R170 ; wait for bed leveling temp
M190 S60 ; wait for bed temp
G28 ; home all without mesh bed level
G29 ; mesh bed leveling 
M104 S215 ; set extruder temp
G92 E0.0
G1 Y-2.0 X179 F2400
G1 Z3 F720
M109 S215 ; wait for extruder temp

; intro line
G1 X170 F1000
G1 Z0.2 F720
G1 X110.0 E8.0 F900
M73 P0 R54
G1 X40.0 E10.0 F700
G92 E0.0

M221 S95 ; set flow
G21 ; set units to millimeters
G90 ; use absolute coordinates
M83 ; use relative distances for extrusion
M900 K0.2 ; Filament gcode LA 1.5
; ; Filament gcode LA 1.0
;BEFORE_LAYER_CHANGE
G92 E0.0
;0.2


G1 Z0.200 F9000.000
;AFTER_LAYER_CHANGE
;0.2
G1 E-3.20000 F4200.00000
G1 Z0.400 F9000.000
G1 X68.066 Y104.812
G1 Z0.200
G1 E3.20000 F2400.00000
M204 S800
G1 F1200.000
G1 X67.285 Y104.272 E0.02977
G1 X66.809 Y103.547 E0.02720
G1 X66.624 Y102.696 E0.02731
G1 X66.628 Y81.994 E0.64910
G1 X66.775 Y80.703 E0.04073
G1 X67.057 Y79.684 E0.03315
G1 X67.486 Y78.742 E0.03247
G1 X68.269 Y77.560 E0.04446
G1 X69.087 Y76.719 E0.03678
G1 X70.205 Y75.909 E0.04329
G1 X71.330 Y75.377 E0.03902
G1 X72.567 Y75.038 E0.04021
G1 X73.704 Y74.927 E0.03580
G1 X97.854 Y74.923 E0.75721
G1 X99.293 Y75.074 E0.04537
G1 X100.331 Y75.362 E0.03378
G1 X101.379 Y75.844 E0.03616
G1 X112.227 Y81.964 E0.39054
G1 X112.745 Y82.386 E0.02095
G1 X113.124 Y82.932 E0.02083
G1 X113.309 Y83.435 E0.01680
G1 X113.377 Y83.971 E0.01692
G1 X113.376 Y102.680 E0.58661
G1 X113.175 Y103.585 E0.02907
G1 X112.646 Y104.341 E0.02896
G1 X111.903 Y104.825 E0.02778
G1 X111.035 Y105.003 E0.02778
G1 X68.996 Y105.003 E1.31811
G1 X68.125 Y104.824 E0.02789
M204 S1250
; printing object SwitchFixture_v1.stl id:2 copy 0
G1 E-2.24000 F4200.00000
G1 F7200.000
G1 X67.285 Y104.272 E-0.55700
G1 X66.933 Y103.737 E-0.35500
G1 E-0.04800 F4200.00000
G1 Z0.400 F9000.000
G1 X95.828 Y83.847
G1 Z0.200
G1 E3.20000 F2400.00000
M204 S800
G1 F1200.000
G1 X95.564 Y83.470 E0.01443
G1 X95.369 Y83.053 E0.01443
G1 X95.250 Y82.608 E0.01443
G1 X95.210 Y82.150 E0.01443
G1 X95.250 Y81.692 E0.01443
G1 X95.369 Y81.247 E0.01443
G1 X95.564 Y80.830 E0.01443
G1 X95.828 Y80.453 E0.01443
G1 X96.153 Y80.128 E0.01443
G1 X96.530 Y79.864 E0.01443
G1 X96.947 Y79.669 E0.01443
G1 X97.392 Y79.550 E0.01443
G1 X97.850 Y79.510 E0.01443
G1 X98.308 Y79.550 E0.01443
G1 X98.753 Y79.669 E0.01443
G1 X99.170 Y79.864 E0.01443
G1 X99.547 Y80.128 E0.01443
G1 X99.872 Y80.453 E0.01443
G1 X100.136 Y80.830 E0.01443
G1 X100.331 Y81.247 E0.01443
G1 X100.450 Y81.692 E0.01443
G1 X100.490 Y82.150 E0.01443
G1 X100.450 Y82.608 E0.01443
G1 X100.331 Y83.053 E0.01443
G1 X100.136 Y83.470 E0.01443
G1 X99.872 Y83.847 E0.01443
G1 X99.547 Y84.172 E0.01443
G1 X99.170 Y84.436 E0.01443
G1 X98.753 Y84.631 E0.01443
G1 X98.308 Y84.750 E0.01443
G1 X97.850 Y84.790 E0.01443
G1 X97.392 Y84.750 E0.01443
G1 X96.947 Y84.631 E0.01443
G1 X96.530 Y84.436 E0.01443
G1 X96.153 Y84.172 E0.01443
G1 X95.870 Y83.889 E0.01255
M204 S1250
G1 X96.137 Y83.623 F9000.000
M204 S800
G1 F1200.000
G1 X95.891 Y83.281 E0.01320
G1 X95.725 Y82.923 E0.01236
G1 X95.623 Y82.543 E0.01236
G1 X95.588 Y82.150 E0.01236
G1 X95.623 Y81.757 E0.01236
G1 X95.725 Y81.377 E0.01236
G1 X95.891 Y81.019 E0.01236
G1 X96.118 Y80.696 E0.01236
G1 X96.396 Y80.418 E0.01236
G1 X96.719 Y80.191 E0.01236
G1 X97.077 Y80.025 E0.01236
G1 X97.457 Y79.923 E0.01236
G1 X97.850 Y79.888 E0.01236
G1 X98.243 Y79.923 E0.01236
G1 X98.623 Y80.025 E0.01236
G1 X98.981 Y80.191 E0.01236
G1 X99.304 Y80.418 E0.01236
G1 X99.582 Y80.696 E0.01236
G1 X99.809 Y81.019 E0.01236
G1 X99.975 Y81.377 E0.01236
G1 X100.077 Y81.757 E0.01236
G1 X100.112 Y82.150 E0.01236
G1 X100.077 Y82.543 E0.01236
G1 X99.975 Y82.923 E0.01236
G1 X99.809 Y83.281 E0.01236
G1 X99.582 Y83.604 E0.01236
G1 X99.304 Y83.882 E0.01236
G1 X98.981 Y84.109 E0.01236
G1 X98.623 Y84.275 E0.01236
G1 X98.243 Y84.377 E0.01236
G1 X97.850 Y84.412 E0.01236
G1 X97.457 Y84.377 E0.01236
G1 X97.077 Y84.275 E0.01236
G1 X96.719 Y84.109 E0.01236
G1 X96.396 Y83.882 E0.01236
G1 X96.179 Y83.665 E0.00963
M204 S1250
G1 X95.743 Y83.696 F9000.000
G1 E-2.24000 F4200.00000
G1 F7200.000
G1 X95.891 Y83.281 E-0.26609
G1 X95.725 Y82.923 E-0.21846
G1 X95.623 Y82.543 E-0.21846
G1 X95.590 Y82.167 E-0.20899
G1 E-0.04800 F4200.00000
G1 Z0.400 F9000.000
G1 X93.787 Y86.213
G1 Z0.200
G1 E3.20000 F2400.00000
M204 S800
G1 F1200.000
G1 X93.787 Y82.184 E0.12631
G1 X93.852 Y81.445 E0.02327
G1 X94.035 Y80.761 E0.02219
G1 X94.334 Y80.120 E0.02219
G1 X94.740 Y79.540 E0.02219
G1 X95.240 Y79.040 E0.02219
G1 X95.820 Y78.634 E0.02219
G1 X96.461 Y78.335 E0.02219
G1 X97.145 Y78.152 E0.02219
G1 X97.850 Y78.090 E0.02219
G1 X98.555 Y78.152 E0.02219
G1 X99.239 Y78.335 E0.02219
G1 X99.915 Y78.650 E0.02339
G1 X110.213 Y84.460 E0.37073
G1 X110.213 Y86.213 E0.05497
G1 X93.847 Y86.213 E0.51314
M204 S1250
G1 X93.410 Y86.590 F9000.000
M204 S800
G1 F1200.000
G1 X93.410 Y82.168 E0.13865
G1 X93.479 Y81.379 E0.02482
G1 X93.679 Y80.632 E0.02426
G1 X94.006 Y79.931 E0.02426
G1 X94.450 Y79.297 E0.02426
G1 X94.997 Y78.750 E0.02426
G1 X95.631 Y78.306 E0.02426
G1 X96.332 Y77.979 E0.02426
G1 X97.079 Y77.779 E0.02426
G1 X97.850 Y77.712 E0.02426
G1 X98.621 Y77.779 E0.02426
G1 X99.368 Y77.979 E0.02426
G1 X100.087 Y78.315 E0.02489
G1 X110.590 Y84.239 E0.37809
G1 X110.590 Y86.590 E0.07370
G1 X93.470 Y86.590 E0.53679
M204 S1250
G1 X93.594 Y86.235 F9000.000
G1 X94.673 Y86.100
M204 S800
G1 F1200.000
G1 X94.070 Y85.496 E0.02713
G1 X94.070 Y84.956 E0.01719
G1 X95.044 Y85.930 E0.04381
G1 X95.585 Y85.930 E0.01719
G1 X94.070 Y84.415 E0.06811
G1 X94.070 Y83.874 E0.01719
G1 X96.126 Y85.930 E0.09242
G1 X96.666 Y85.930 E0.01719
G1 X94.070 Y83.334 E0.11672
G1 X94.070 Y82.793 E0.01719
G1 X97.377 Y86.100 E0.14865
M204 S1250
G1 E-2.24000 F4200.00000
G1 F7200.000
G1 X96.213 Y84.936 E-0.91200
G1 E-0.04800 F4200.00000
G1 Z0.400 F9000.000
G1 X97.611 Y78.225
G1 Z0.200
G1 E3.20000 F2400.00000
M204 S800
G1 F1200.000
G1 X98.766 Y79.380 E0.05194
G1 X98.358 Y79.270 E0.01345
G1 X98.093 Y79.247 E0.00844
G1 X97.270 Y78.425 E0.03698
G1 X96.833 Y78.528 E0.01428
G1 X97.557 Y79.252 E0.03253
G1 X97.342 Y79.270 E0.00685
G1 X97.100 Y79.335 E0.00797
G1 X96.427 Y78.663 E0.03023
G1 X96.059 Y78.835 E0.01293
G1 X96.697 Y79.474 E0.02871
G1 X96.337 Y79.654 E0.01281
G1 X95.727 Y79.044 E0.02740
G1 X95.411 Y79.269 E0.01232
G1 X96.019 Y79.876 E0.02731
G1 X95.741 Y80.139 E0.01216
G1 X95.141 Y79.539 E0.02698
G1 X94.957 Y79.723 E0.00826
G1 X94.886 Y79.825 E0.00395
G1 X95.496 Y80.434 E0.02740
G1 X95.283 Y80.762 E0.01243
G1 X94.663 Y80.143 E0.02786
G1 X94.580 Y80.262 E0.00463
G1 X94.472 Y80.492 E0.00808
G1 X95.111 Y81.131 E0.02871
G1 X94.994 Y81.555 E0.01397
G1 X94.301 Y80.862 E0.03116
G1 X94.187 Y81.288 E0.01403
G1 X94.936 Y82.037 E0.03368
G1 X94.926 Y82.150 E0.00360
G1 X94.966 Y82.608 E0.01462
G1 X94.109 Y81.751 E0.03854
G1 X94.070 Y82.252 E0.01599
G1 X97.748 Y85.930 E0.16533
G1 X98.288 Y85.930 E0.01719
G1 X97.392 Y85.034 E0.04029
G1 X97.850 Y85.074 E0.01462
G1 X97.963 Y85.064 E0.00360
G1 X98.829 Y85.930 E0.03893
G1 X99.370 Y85.930 E0.01719
G1 X98.445 Y85.006 E0.04154
G1 X98.869 Y84.889 E0.01397
G1 X99.910 Y85.930 E0.04681
G1 X100.451 Y85.930 E0.01719
G1 X99.238 Y84.717 E0.05454
G1 X99.566 Y84.504 E0.01243
G1 X100.991 Y85.930 E0.06409
G1 X101.532 Y85.930 E0.01719
G1 X99.861 Y84.259 E0.07514
G1 X100.124 Y83.981 E0.01216
G1 X102.073 Y85.930 E0.08762
G1 X102.613 Y85.930 E0.01719
G1 X100.346 Y83.663 E0.10191
G1 X100.526 Y83.303 E0.01281
G1 X103.154 Y85.930 E0.11812
G1 X103.695 Y85.930 E0.01719
G1 X100.665 Y82.900 E0.13621
G1 X100.730 Y82.658 E0.00797
G1 X100.748 Y82.443 E0.00685
G1 X104.235 Y85.930 E0.15676
G1 X104.776 Y85.930 E0.01719
G1 X100.753 Y81.907 E0.18086
G1 X100.730 Y81.642 E0.00844
G1 X100.620 Y81.234 E0.01345
G1 X105.317 Y85.930 E0.21113
G1 X105.857 Y85.930 E0.01719
G1 X98.344 Y78.417 E0.33774
G1 X98.506 Y78.431 E0.00515
G1 X99.043 Y78.575 E0.01768
G1 X106.398 Y85.930 E0.33063
G1 X106.939 Y85.930 E0.01719
G1 X100.072 Y79.064 E0.30868
G1 X101.312 Y79.763 E0.04527
G1 X107.479 Y85.930 E0.27722
G1 X108.020 Y85.930 E0.01719
G1 X102.553 Y80.463 E0.24577
G1 X103.793 Y81.163 E0.04527
G1 X108.560 Y85.930 E0.21431
G1 X109.101 Y85.930 E0.01719
G1 X105.034 Y81.863 E0.18286
G1 X106.274 Y82.562 E0.04527
G1 X109.642 Y85.930 E0.15140
G1 X109.930 Y85.930 E0.00917
G1 X109.930 Y85.678 E0.00802
G1 X107.514 Y83.262 E0.10861
G1 X108.755 Y83.962 E0.04527
G1 X110.100 Y85.307 E0.06047
M204 S1250
; stop printing object SwitchFixture_v1.stl id:2 copy 0
; printing object SwitchFixture_v1.stl id:3 copy 0
G1 E-2.24000 F4200.00000
G1 F7200.000
G1 X108.936 Y84.143 E-0.91200
G1 E-0.04800 F4200.00000
G1 Z0.400 F9000.000
G1 X99.547 Y95.754
G1 Z0.200
G1 E3.20000 F2400.00000
M204 S800
G1 F1200.000
G1 X99.872 Y96.079 E0.01443
G1 X100.136 Y96.456 E0.01443
G1 X100.331 Y96.873 E0.01443
G1 X100.450 Y97.318 E0.01443
G1 X100.490 Y97.776 E0.01443
G1 X100.450 Y98.235 E0.01443
G1 X100.331 Y98.679 E0.01443
G1 X100.136 Y99.096 E0.01443
G1 X99.872 Y99.473 E0.01443
G1 X99.547 Y99.799 E0.01443
G1 X99.170 Y100.063 E0.01443
G1 X98.753 Y100.257 E0.01443
G1 X98.308 Y100.376 E0.01443
G1 X97.850 Y100.416 E0.01443
G1 X97.392 Y100.376 E0.01443
G1 X96.947 Y100.257 E0.01443
G1 X96.530 Y100.063 E0.01443
G1 X96.153 Y99.799 E0.01443
G1 X95.828 Y99.473 E0.01443
G1 X95.564 Y99.096 E0.01443
G1 X95.369 Y98.679 E0.01443
G1 X95.250 Y98.235 E0.01443
G1 X95.210 Y97.776 E0.01443
G1 X95.250 Y97.318 E0.01443
G1 X95.369 Y96.873 E0.01443
G1 X95.564 Y96.456 E0.01443
G1 X95.828 Y96.079 E0.01443
G1 X96.153 Y95.754 E0.01443
G1 X96.530 Y95.490 E0.01443
G1 X96.947 Y95.295 E0.01443
G1 X97.392 Y95.176 E0.01443
G1 X97.850 Y95.136 E0.01443
G1 X98.308 Y95.176 E0.01443
G1 X98.753 Y95.295 E0.01443
G1 X99.170 Y95.490 E0.01443
G1 X99.498 Y95.719 E0.01255
M204 S1250
G1 X99.282 Y96.028 F9000.000
M204 S800
G1 F1200.000
G1 X99.582 Y96.323 E0.01319
G1 X99.809 Y96.646 E0.01236
G1 X99.975 Y97.003 E0.01236
G1 X100.077 Y97.384 E0.01236
G1 X100.112 Y97.776 E0.01236
G1 X100.077 Y98.169 E0.01236
G1 X99.975 Y98.550 E0.01236
G1 X99.809 Y98.907 E0.01236
G1 X99.582 Y99.230 E0.01236
G1 X99.304 Y99.509 E0.01236
G1 X98.981 Y99.735 E0.01236
G1 X98.623 Y99.901 E0.01236
G1 X98.243 Y100.004 E0.01236
G1 X97.850 Y100.038 E0.01236
G1 X97.457 Y100.004 E0.01236
G1 X97.077 Y99.901 E0.01236
G1 X96.719 Y99.735 E0.01236
G1 X96.396 Y99.509 E0.01236
G1 X96.118 Y99.230 E0.01236
G1 X95.891 Y98.907 E0.01236
G1 X95.725 Y98.550 E0.01236
G1 X95.623 Y98.169 E0.01236
G1 X95.588 Y97.776 E0.01236
G1 X95.623 Y97.384 E0.01236
G1 X95.725 Y97.003 E0.01236
G1 X95.891 Y96.646 E0.01236
G1 X96.118 Y96.323 E0.01236
G1 X96.396 Y96.044 E0.01236
G1 X96.719 Y95.818 E0.01236
G1 X97.077 Y95.651 E0.01236
G1 X97.457 Y95.549 E0.01236
G1 X97.850 Y95.515 E0.01236
G1 X98.243 Y95.549 E0.01236
G1 X98.623 Y95.651 E0.01236
G1 X98.981 Y95.818 E0.01236
G1 X99.232 Y95.994 E0.00963
M204 S1250
G1 X99.656 Y95.888 F9000.000
G1 E-2.24000 F4200.00000
G1 F7200.000
G1 X99.582 Y96.323 E-0.26607
G1 X99.809 Y96.646 E-0.21847
G1 X99.975 Y97.003 E-0.21846
G1 X100.073 Y97.367 E-0.20900
G1 E-0.04800 F4200.00000
G1 Z0.400 F9000.000
G1 X110.213 Y100.086
G1 Z0.200
G1 E3.20000 F2400.00000
M204 S800
G1 F1200.000
G1 X110.213 Y101.839 E0.05497
G1 X93.787 Y101.839 E0.51502
G1 X93.787 Y97.811 E0.12631
G1 X93.852 Y97.071 E0.02327
G1 X94.035 Y96.388 E0.02219
G1 X94.334 Y95.746 E0.02219
G1 X94.740 Y95.167 E0.02219
G1 X94.988 Y94.918 E0.01102
G1 X95.240 Y94.666 E0.01117
G1 X95.820 Y94.260 E0.02219
G1 X96.461 Y93.961 E0.02219
G1 X97.145 Y93.778 E0.02219
G1 X97.850 Y93.716 E0.02219
G1 X98.555 Y93.778 E0.02219
G1 X99.239 Y93.961 E0.02219
G1 X99.915 Y94.277 E0.02339
G1 X110.161 Y100.057 E0.36884
M204 S1250
G1 X110.590 Y99.866 F9000.000
M204 S800
G1 F1200.000
G1 X110.590 Y102.216 E0.07370
G1 X93.410 Y102.216 E0.53867
G1 X93.410 Y97.794 E0.13865
G1 X93.479 Y97.006 E0.02482
G1 X93.679 Y96.258 E0.02426
G1 X94.006 Y95.557 E0.02426
G1 X94.450 Y94.923 E0.02426
G1 X94.997 Y94.376 E0.02426
G1 X95.631 Y93.933 E0.02426
G1 X96.332 Y93.606 E0.02426
G1 X97.079 Y93.405 E0.02426
G1 X97.850 Y93.338 E0.02426
G1 X98.621 Y93.405 E0.02426
G1 X99.368 Y93.606 E0.02426
G1 X100.087 Y93.941 E0.02489
G1 X110.538 Y99.836 E0.37621
M204 S1250
G1 X110.334 Y100.173 F9000.000
G1 X110.100 Y100.933
M204 S800
G1 F1200.000
G1 X108.755 Y99.588 E0.06047
G1 X107.514 Y98.888 E0.04527
G1 X109.930 Y101.304 E0.10861
G1 X109.930 Y101.556 E0.00802
G1 X109.642 Y101.556 E0.00917
G1 X106.274 Y98.189 E0.15140
G1 X105.034 Y97.489 E0.04527
G1 X109.101 Y101.556 E0.18286
G1 X108.560 Y101.556 E0.01719
G1 X103.793 Y96.789 E0.21431
G1 X102.553 Y96.089 E0.04527
G1 X108.020 Y101.556 E0.24577
G1 X107.479 Y101.556 E0.01719
G1 X101.312 Y95.390 E0.27722
G1 X100.072 Y94.690 E0.04527
G1 X106.939 Y101.556 E0.30868
G1 X106.398 Y101.556 E0.01719
G1 X99.043 Y94.202 E0.33063
G1 X98.506 Y94.058 E0.01768
G1 X98.344 Y94.044 E0.00515
G1 X105.857 Y101.556 E0.33774
G1 X105.317 Y101.556 E0.01719
G1 X100.620 Y96.860 E0.21113
G1 X100.730 Y97.269 E0.01345
G1 X100.753 Y97.533 E0.00844
G1 X104.776 Y101.556 E0.18086
G1 X104.235 Y101.556 E0.01719
G1 X100.748 Y98.069 E0.15676
G1 X100.730 Y98.284 E0.00685
G1 X100.665 Y98.526 E0.00797
G1 X103.695 Y101.556 E0.13621
G1 X103.154 Y101.556 E0.01719
G1 X100.526 Y98.929 E0.11812
G1 X100.346 Y99.289 E0.01281
G1 X102.613 Y101.556 E0.10191
G1 X102.073 Y101.556 E0.01719
G1 X100.124 Y99.607 E0.08762
G1 X99.861 Y99.885 E0.01216
G1 X101.532 Y101.556 E0.07514
G1 X100.991 Y101.556 E0.01719
G1 X99.566 Y100.131 E0.06409
G1 X99.238 Y100.343 E0.01243
G1 X100.451 Y101.556 E0.05454
G1 X99.910 Y101.556 E0.01719
G1 X98.869 Y100.515 E0.04681
G1 X98.445 Y100.632 E0.01397
G1 X99.370 Y101.556 E0.04154
G1 X98.829 Y101.556 E0.01719
G1 X97.963 Y100.690 E0.03893
G1 X97.850 Y100.700 E0.00360
G1 X97.392 Y100.660 E0.01462
G1 X98.288 Y101.556 E0.04029
G1 X97.748 Y101.556 E0.01719
G1 X94.070 Y97.879 E0.16533
G1 X94.109 Y97.377 E0.01599
G1 X94.966 Y98.234 E0.03854
G1 X94.926 Y97.776 E0.01462
G1 X94.936 Y97.663 E0.00360
G1 X94.187 Y96.914 E0.03368
G1 X94.301 Y96.488 E0.01403
G1 X94.994 Y97.181 E0.03116
G1 X95.111 Y96.757 E0.01397
G1 X94.472 Y96.119 E0.02871
G1 X94.580 Y95.888 E0.00808
G1 X94.663 Y95.769 E0.00463
G1 X95.283 Y96.389 E0.02786
G1 X95.496 Y96.061 E0.01243
G1 X94.886 Y95.451 E0.02740
G1 X94.957 Y95.349 E0.00395
G1 X95.141 Y95.165 E0.00826
G1 X95.741 Y95.766 E0.02698
G1 X96.019 Y95.503 E0.01216
G1 X95.411 Y94.895 E0.02731
G1 X95.727 Y94.670 E0.01232
G1 X96.337 Y95.280 E0.02740
G1 X96.697 Y95.100 E0.01281
G1 X96.059 Y94.461 E0.02871
G1 X96.427 Y94.289 E0.01293
G1 X97.100 Y94.962 E0.03023
G1 X97.342 Y94.897 E0.00797
G1 X97.557 Y94.878 E0.00685
G1 X96.833 Y94.154 E0.03253
G1 X97.270 Y94.051 E0.01428
G1 X98.093 Y94.874 E0.03698
G1 X98.358 Y94.897 E0.00844
G1 X98.766 Y95.006 E0.01345
G1 X97.611 Y93.851 E0.05194
M204 S1250
G1 E-2.24000 F4200.00000
G1 F7200.000
G1 X98.766 Y95.006 E-0.90552
G1 X98.755 Y95.003 E-0.00648
G1 E-0.04800 F4200.00000
G1 Z0.400 F9000.000
G1 X97.377 Y101.726
G1 Z0.200
G1 E3.20000 F2400.00000
M204 S800
G1 F1200.000
G1 X94.070 Y98.419 E0.14865
G1 X94.070 Y98.960 E0.01719
G1 X96.666 Y101.556 E0.11672
G1 X96.126 Y101.556 E0.01719
G1 X94.070 Y99.501 E0.09242
G1 X94.070 Y100.041 E0.01719
G1 X95.585 Y101.556 E0.06811
G1 X95.044 Y101.556 E0.01719
G1 X94.070 Y100.582 E0.04381
G1 X94.070 Y101.123 E0.01719
G1 X94.673 Y101.726 E0.02713
M204 S1250
