; generated by PrusaSlicer 2.2.0+ on 2022-02-19 at 18:54:16 UTC


;
;

;
;
; 

; external perimeters extrusion width = 0.45mm
; perimeters extrusion width = 0.45mm
; infill extrusion width = 0.45mm
; solid infill extrusion width = 0.45mm
; top infill extrusion width = 0.40mm
; first layer extrusion width = 0.42mm

M73 P0 R110
M201 X1250 Y1250 Z400 E5000 ; sets maximum accelerations, mm/sec^2
M203 X180 Y180 Z12 E80 ; sets maximum feedrates, mm/sec
M204 P1250 R1250 T1250 ; sets acceleration (P, T) and retract acceleration (R), mm/sec^2
M205 X8.00 Y8.00 Z2.00 E10.00 ; sets the jerk limits, mm/sec
M205 S0 T0 ; sets the minimum extruding and travel feed rate, mm/sec
M107
G90 ; use absolute coordinates
M83 ; extruder relative mode
M104 S170 ; set extruder temp for bed leveling
M140 S60 ; set bed temp
M109 R170 ; wait for bed leveling temp
M190 S60 ; wait for bed temp
G28 ; home all without mesh bed level
G29 ; mesh bed leveling 
M104 S215 ; set extruder temp
G92 E0.0
G1 Y-2.0 X179 F2400
G1 Z3 F720
M109 S215 ; wait for extruder temp

; intro line
G1 X170 F1000
G1 Z0.2 F720
G1 X110.0 E8.0 F900
M73 P0 R110
G1 X40.0 E10.0 F700
G92 E0.0

M221 S95 ; set flow
G21 ; set units to millimeters
G90 ; use absolute coordinates
M83 ; use relative distances for extrusion
M900 K0.2 ; Filament gcode LA 1.5
; ; Filament gcode LA 1.0
;BEFORE_LAYER_CHANGE
G92 E0.0
;0.2


G1 Z0.200 F9000.000
;AFTER_LAYER_CHANGE
;0.2
G1 E-3.20000 F4200.00000
G1 Z0.400 F9000.000
G1 X52.148 Y51.056
G1 Z0.200
G1 E3.20000 F2400.00000
M204 S800
G1 F1200.000
G1 X53.489 Y50.153 E0.05070
G1 X54.637 Y49.627 E0.03959
G1 X55.854 Y49.292 E0.03958
G1 X57.403 Y49.125 E0.04885
G1 X122.504 Y49.123 E2.04119
G1 X123.960 Y49.251 E0.04585
G1 X125.392 Y49.638 E0.04650
G1 X126.717 Y50.262 E0.04590
G1 X128.019 Y51.204 E0.05041
G1 X129.039 Y52.274 E0.04634
G1 X129.752 Y53.307 E0.03935
G1 X130.292 Y54.441 E0.03939
G1 X130.739 Y55.988 E0.05047
G1 X130.869 Y57.308 E0.04160
G1 X130.876 Y122.569 E2.04620
G1 X130.748 Y123.963 E0.04390
G1 X130.365 Y125.383 E0.04611
G1 X129.750 Y126.695 E0.04545
G1 X128.877 Y127.931 E0.04743
G1 X127.732 Y129.035 E0.04987
G1 X126.690 Y129.754 E0.03970
G1 X125.553 Y130.294 E0.03947
G1 X123.990 Y130.743 E0.05100
G1 X122.529 Y130.877 E0.04601
G1 X57.431 Y130.876 E2.04107
G1 X56.036 Y130.748 E0.04395
G1 X54.619 Y130.366 E0.04601
G1 X53.300 Y129.748 E0.04567
G1 X52.070 Y128.879 E0.04721
G1 X50.967 Y127.735 E0.04981
G1 X50.246 Y126.690 E0.03982
G1 X49.708 Y125.558 E0.03930
G1 X49.258 Y123.997 E0.05093
G1 X49.123 Y122.528 E0.04625
G1 X49.124 Y57.431 E2.04107
G1 X49.252 Y56.037 E0.04390
G1 X49.635 Y54.617 E0.04612
G1 X50.248 Y53.308 E0.04533
G1 X51.118 Y52.075 E0.04733
G1 X52.105 Y51.098 E0.04352
M204 S1250
; printing object OpenMVH7_AP9Adapter.stl id:0 copy 0
G1 E-2.24000 F4200.00000
G1 F7200.000
G1 X53.464 Y50.170 E-0.91200
G1 E-0.04800 F4200.00000
G1 Z0.400 F9000.000
G1 X94.713 Y101.213
G1 Z0.200
G1 E3.20000 F2400.00000
M204 S800
G1 F1200.000
G1 X112.787 Y101.213 E0.56670
G1 X112.787 Y114.787 E0.42561
G1 X94.713 Y114.787 E0.56670
G1 X94.713 Y101.273 E0.42373
M204 S1250
G1 X95.090 Y101.590 F9000.000
M204 S800
G1 F1200.000
G1 X112.410 Y101.590 E0.54306
G1 X112.410 Y114.410 E0.40196
G1 X95.090 Y114.410 E0.54306
G1 X95.090 Y101.650 E0.40008
M204 S1250
G1 X94.968 Y101.209 F9000.000
G1 E-2.24000 F4200.00000
G1 F7200.000
G1 X96.736 Y101.644 E-0.91200
G1 E-0.04800 F4200.00000
G1 Z0.400 F9000.000
G1 X81.287 Y89.287
G1 Z0.200
G1 E3.20000 F2400.00000
M204 S800
G1 F1200.000
G1 X76.713 Y89.287 E0.14342
G1 X76.713 Y84.713 E0.14342
G1 X81.287 Y84.713 E0.14342
G1 X81.287 Y89.227 E0.14154
M204 S1250
G1 X80.910 Y88.910 F9000.000
M204 S800
G1 F1200.000
G1 X77.090 Y88.910 E0.11977
G1 X77.090 Y85.090 E0.11977
G1 X80.910 Y85.090 E0.11977
G1 X80.910 Y88.850 E0.11789
M204 S1250
G1 X81.014 Y89.296 F9000.000
G1 E-2.24000 F4200.00000
G1 F7200.000
G1 X79.264 Y88.876 E-0.91200
G1 E-0.04800 F4200.00000
G1 Z0.400 F9000.000
G1 X77.374 Y74.126
G1 Z0.200
G1 E3.20000 F2400.00000
M204 S800
G1 F1200.000
G1 X75.500 Y74.290 E0.05897
G1 X73.626 Y74.126 E0.05897
G1 X71.810 Y73.639 E0.05897
G1 X70.105 Y72.845 E0.05897
G1 X68.564 Y71.766 E0.05897
G1 X67.234 Y70.436 E0.05897
G1 X66.155 Y68.895 E0.05897
G1 X65.361 Y67.190 E0.05897
G1 X64.874 Y65.374 E0.05897
G1 X64.710 Y63.500 E0.05897
G1 X64.874 Y61.626 E0.05897
G1 X65.361 Y59.810 E0.05897
G1 X66.155 Y58.105 E0.05897
G1 X67.234 Y56.564 E0.05897
G1 X68.564 Y55.234 E0.05897
G1 X70.105 Y54.156 E0.05897
G1 X71.810 Y53.361 E0.05897
G1 X73.626 Y52.874 E0.05897
G1 X75.457 Y52.714 E0.05761
G1 X77.373 Y52.874 E0.06028
G1 X79.190 Y53.361 E0.05901
G1 X80.895 Y54.156 E0.05897
G1 X82.436 Y55.234 E0.05897
G1 X83.766 Y56.564 E0.05897
G1 X84.845 Y58.105 E0.05897
G1 X85.639 Y59.810 E0.05897
G1 X86.126 Y61.626 E0.05897
G1 X86.290 Y63.500 E0.05897
G1 X86.126 Y65.374 E0.05897
G1 X85.639 Y67.190 E0.05897
G1 X84.845 Y68.895 E0.05897
G1 X83.766 Y70.436 E0.05897
G1 X82.436 Y71.766 E0.05897
G1 X80.895 Y72.845 E0.05897
G1 X79.190 Y73.639 E0.05897
G1 X77.432 Y74.111 E0.05709
M204 S1250
G1 X77.334 Y73.746 F9000.000
M204 S800
G1 F1200.000
G1 X75.500 Y73.912 E0.05774
G1 X73.692 Y73.753 E0.05690
G1 X71.939 Y73.284 E0.05690
G1 X70.294 Y72.517 E0.05690
G1 X68.808 Y71.476 E0.05691
G1 X67.524 Y70.192 E0.05690
G1 X66.483 Y68.706 E0.05691
G1 X65.716 Y67.061 E0.05690
G1 X65.247 Y65.308 E0.05690
G1 X65.088 Y63.500 E0.05690
G1 X65.247 Y61.692 E0.05690
G1 X65.716 Y59.939 E0.05690
G1 X66.483 Y58.294 E0.05690
G1 X67.524 Y56.808 E0.05691
G1 X68.808 Y55.524 E0.05690
G1 X70.294 Y54.483 E0.05690
G1 X71.939 Y53.716 E0.05690
G1 X73.692 Y53.247 E0.05690
G1 X75.457 Y53.092 E0.05556
G1 X77.308 Y53.246 E0.05821
G1 X79.061 Y53.716 E0.05692
G1 X80.706 Y54.483 E0.05690
G1 X82.192 Y55.524 E0.05690
G1 X83.476 Y56.808 E0.05690
G1 X84.517 Y58.294 E0.05691
G1 X85.284 Y59.939 E0.05690
G1 X85.753 Y61.692 E0.05690
G1 X85.912 Y63.500 E0.05690
G1 X85.753 Y65.308 E0.05690
G1 X85.284 Y67.061 E0.05690
G1 X84.517 Y68.706 E0.05690
G1 X83.476 Y70.192 E0.05691
G1 X82.192 Y71.476 E0.05690
G1 X80.706 Y72.517 E0.05691
G1 X79.061 Y73.284 E0.05690
G1 X77.392 Y73.731 E0.05418
M204 S1250
G1 X77.198 Y74.123 F9000.000
G1 E-2.24000 F4200.00000
G1 F7200.000
G1 X75.754 Y73.887 E-0.91200
G1 E-0.04800 F4200.00000
G1 Z0.400 F9000.000
G1 X94.361 Y67.190
G1 Z0.200
G1 E3.20000 F2400.00000
M204 S800
G1 F1200.000
G1 X93.874 Y65.374 E0.05897
G1 X93.710 Y63.500 E0.05897
G1 X93.874 Y61.626 E0.05897
G1 X94.361 Y59.810 E0.05897
G1 X95.155 Y58.105 E0.05897
G1 X96.234 Y56.564 E0.05897
G1 X97.564 Y55.234 E0.05897
G1 X99.105 Y54.156 E0.05897
G1 X100.810 Y53.361 E0.05897
G1 X102.626 Y52.874 E0.05897
G1 X104.457 Y52.714 E0.05761
G1 X106.373 Y52.874 E0.06028
G1 X108.190 Y53.361 E0.05901
G1 X109.895 Y54.156 E0.05897
G1 X111.436 Y55.234 E0.05897
G1 X112.766 Y56.564 E0.05897
G1 X113.845 Y58.105 E0.05897
G1 X114.639 Y59.810 E0.05897
G1 X115.126 Y61.626 E0.05897
G1 X115.290 Y63.500 E0.05897
G1 X115.126 Y65.374 E0.05897
G1 X114.639 Y67.190 E0.05897
G1 X113.845 Y68.895 E0.05897
G1 X112.766 Y70.436 E0.05897
G1 X111.436 Y71.766 E0.05897
G1 X109.895 Y72.845 E0.05897
G1 X108.190 Y73.639 E0.05897
G1 X106.374 Y74.126 E0.05897
G1 X104.500 Y74.290 E0.05897
G1 X102.626 Y74.126 E0.05897
G1 X100.810 Y73.639 E0.05897
G1 X99.105 Y72.845 E0.05897
G1 X97.564 Y71.766 E0.05897
G1 X96.234 Y70.436 E0.05897
G1 X95.155 Y68.895 E0.05897
G1 X94.386 Y67.245 E0.05709
M204 S1250
G1 X94.728 Y67.085 F9000.000
M204 S800
G1 F1200.000
G1 X94.247 Y65.308 E0.05774
G1 X94.088 Y63.500 E0.05690
G1 X94.247 Y61.692 E0.05690
G1 X94.716 Y59.939 E0.05690
G1 X95.483 Y58.294 E0.05690
G1 X96.524 Y56.808 E0.05691
G1 X97.808 Y55.524 E0.05690
G1 X99.294 Y54.483 E0.05690
G1 X100.939 Y53.716 E0.05690
G1 X102.692 Y53.247 E0.05690
G1 X104.457 Y53.092 E0.05556
G1 X106.308 Y53.246 E0.05821
G1 X108.061 Y53.716 E0.05692
G1 X109.706 Y54.483 E0.05690
G1 X111.192 Y55.524 E0.05690
G1 X112.476 Y56.808 E0.05690
G1 X113.517 Y58.294 E0.05691
G1 X114.284 Y59.939 E0.05690
G1 X114.753 Y61.692 E0.05690
G1 X114.912 Y63.500 E0.05690
G1 X114.753 Y65.308 E0.05690
G1 X114.284 Y67.061 E0.05690
G1 X113.517 Y68.706 E0.05690
G1 X112.476 Y70.192 E0.05691
G1 X111.192 Y71.476 E0.05690
G1 X109.706 Y72.517 E0.05691
G1 X108.061 Y73.284 E0.05690
G1 X106.308 Y73.753 E0.05690
G1 X104.500 Y73.912 E0.05690
G1 X102.692 Y73.753 E0.05690
G1 X100.939 Y73.284 E0.05690
G1 X99.294 Y72.517 E0.05690
G1 X97.808 Y71.476 E0.05691
G1 X96.524 Y70.192 E0.05690
G1 X95.483 Y68.706 E0.05691
G1 X94.753 Y67.140 E0.05417
M204 S1250
G1 X94.334 Y67.017 F9000.000
G1 E-2.24000 F4200.00000
G1 F7200.000
G1 X94.315 Y65.554 E-0.91200
G1 E-0.04800 F4200.00000
G1 Z0.400 F9000.000
G1 X94.753 Y52.287
G1 Z0.200
G1 E3.20000 F2400.00000
M204 S800
G1 F1200.000
G1 X122.466 Y52.287 E0.86891
G1 X123.405 Y52.369 E0.02956
G1 X124.282 Y52.604 E0.02847
G1 X125.105 Y52.988 E0.02847
G1 X125.849 Y53.509 E0.02847
G1 X126.491 Y54.151 E0.02848
G1 X127.012 Y54.895 E0.02847
G1 X127.396 Y55.718 E0.02847
G1 X127.631 Y56.595 E0.02847
G1 X127.713 Y57.534 E0.02956
G1 X127.713 Y122.466 E2.03587
G1 X127.631 Y123.405 E0.02956
G1 X127.396 Y124.282 E0.02847
G1 X127.012 Y125.105 E0.02847
G1 X126.491 Y125.849 E0.02847
G1 X125.849 Y126.491 E0.02848
G1 X125.105 Y127.012 E0.02847
G1 X124.282 Y127.396 E0.02847
G1 X123.405 Y127.631 E0.02847
G1 X122.466 Y127.713 E0.02956
G1 X57.534 Y127.713 E2.03587
G1 X56.595 Y127.631 E0.02956
G1 X55.718 Y127.396 E0.02847
G1 X54.895 Y127.012 E0.02847
G1 X54.151 Y126.491 E0.02847
G1 X53.509 Y125.849 E0.02848
G1 X52.988 Y125.105 E0.02847
G1 X52.604 Y124.282 E0.02847
G1 X52.369 Y123.405 E0.02847
G1 X52.287 Y122.466 E0.02956
G1 X52.287 Y57.534 E2.03587
G1 X52.369 Y56.595 E0.02956
G1 X52.604 Y55.718 E0.02847
G1 X52.988 Y54.895 E0.02847
G1 X53.509 Y54.151 E0.02847
G1 X54.151 Y53.509 E0.02847
G1 X54.895 Y52.988 E0.02847
G1 X55.718 Y52.604 E0.02847
G1 X56.595 Y52.369 E0.02847
G1 X57.534 Y52.287 E0.02956
G1 X94.693 Y52.287 E1.16509
M73 P1 R109
M204 S1250
G1 X94.693 Y51.910 F9000.000
M204 S800
G1 F1200.000
G1 X122.482 Y51.910 E0.87130
G1 X123.470 Y51.996 E0.03111
G1 X124.411 Y52.249 E0.03054
G1 X125.294 Y52.660 E0.03054
G1 X126.092 Y53.219 E0.03054
G1 X126.781 Y53.908 E0.03054
G1 X127.340 Y54.706 E0.03054
G1 X127.751 Y55.589 E0.03054
G1 X128.003 Y56.530 E0.03054
G1 X128.090 Y57.518 E0.03111
G1 X128.090 Y122.482 E2.03691
G1 X128.003 Y123.470 E0.03111
G1 X127.751 Y124.411 E0.03054
G1 X127.340 Y125.294 E0.03054
G1 X126.781 Y126.092 E0.03054
G1 X126.092 Y126.781 E0.03055
G1 X125.294 Y127.340 E0.03054
G1 X124.411 Y127.751 E0.03054
G1 X123.470 Y128.003 E0.03054
G1 X122.482 Y128.090 E0.03111
G1 X57.518 Y128.090 E2.03691
G1 X56.530 Y128.003 E0.03111
G1 X55.589 Y127.751 E0.03054
G1 X54.706 Y127.340 E0.03054
G1 X53.908 Y126.781 E0.03054
G1 X53.219 Y126.092 E0.03054
G1 X52.660 Y125.294 E0.03054
G1 X52.249 Y124.411 E0.03054
G1 X51.996 Y123.470 E0.03054
G1 X51.910 Y122.482 E0.03111
G1 X51.910 Y57.518 E2.03691
G1 X51.996 Y56.530 E0.03111
G1 X52.249 Y55.589 E0.03054
G1 X52.660 Y54.706 E0.03054
G1 X53.219 Y53.908 E0.03054
G1 X53.908 Y53.219 E0.03054
G1 X54.706 Y52.660 E0.03054
G1 X55.589 Y52.249 E0.03054
G1 X56.530 Y51.996 E0.03054
G1 X57.518 Y51.910 E0.03111
G1 X94.633 Y51.910 E1.16372
M204 S1250
G1 X94.893 Y52.256 F9000.000
G1 E-2.24000 F4200.00000
G1 F7200.000
G1 X96.279 Y51.910 E-0.91200
G1 E-0.04800 F4200.00000
G1 Z0.400 F9000.000
G1 X101.893 Y52.953
G1 Z0.200
G1 E3.20000 F2400.00000
M204 S800
G1 F1200.000
G1 X101.510 Y52.570 E0.01705
G1 X100.975 Y52.570 E0.01682
G1 X101.333 Y52.928 E0.01591
G1 X100.911 Y53.041 E0.01373
G1 X100.440 Y52.570 E0.02094
G1 X99.905 Y52.570 E0.01682
G1 X100.519 Y53.184 E0.02731
G1 X100.155 Y53.354 E0.01266
G1 X99.370 Y52.570 E0.03487
G1 X98.836 Y52.570 E0.01682
G1 X99.790 Y53.524 E0.04244
G1 X99.425 Y53.694 E0.01266
G1 X98.301 Y52.570 E0.05000
G1 X97.766 Y52.570 E0.01682
G1 X99.060 Y53.864 E0.05757
G1 X98.963 Y53.910 E0.00338
G1 X98.732 Y54.071 E0.00886
G1 X97.231 Y52.570 E0.06677
G1 X96.696 Y52.570 E0.01682
G1 X98.418 Y54.291 E0.07657
G1 X98.103 Y54.512 E0.01208
G1 X96.161 Y52.570 E0.08636
G1 X95.626 Y52.570 E0.01682
G1 X97.789 Y54.732 E0.09616
G1 X97.474 Y54.952 E0.01208
G1 X95.092 Y52.570 E0.10596
G1 X94.557 Y52.570 E0.01682
G1 X97.193 Y55.206 E0.11724
G1 X96.925 Y55.473 E0.01189
G1 X94.022 Y52.570 E0.12913
G1 X93.487 Y52.570 E0.01682
G1 X96.658 Y55.741 E0.14102
G1 X96.390 Y56.008 E0.01189
G1 X92.952 Y52.570 E0.15292
G1 X92.417 Y52.570 E0.01682
G1 X96.123 Y56.276 E0.16481
G1 X96.017 Y56.382 E0.00472
G1 X95.884 Y56.572 E0.00728
G1 X91.882 Y52.570 E0.17797
G1 X91.348 Y52.570 E0.01682
G1 X95.664 Y56.886 E0.19196
G1 X95.443 Y57.201 E0.01208
G1 X90.813 Y52.570 E0.20595
G1 X90.278 Y52.570 E0.01682
G1 X95.223 Y57.515 E0.21994
G1 X95.003 Y57.830 E0.01208
G1 X89.743 Y52.570 E0.23393
G1 X89.208 Y52.570 E0.01682
G1 X94.812 Y58.173 E0.24921
G1 X94.641 Y58.538 E0.01266
G1 X88.673 Y52.570 E0.26543
G1 X88.138 Y52.570 E0.01682
G1 X94.471 Y58.903 E0.28166
G1 X94.301 Y59.268 E0.01266
G1 X87.603 Y52.570 E0.29788
G1 X87.069 Y52.570 E0.01682
G1 X94.131 Y59.632 E0.31410
G1 X94.006 Y60.042 E0.01346
G1 X86.534 Y52.570 E0.33231
G1 X85.999 Y52.570 E0.01682
G1 X93.893 Y60.464 E0.35107
G1 X93.780 Y60.885 E0.01373
G1 X85.464 Y52.570 E0.36983
G1 X84.929 Y52.570 E0.01682
G1 X93.667 Y61.307 E0.38859
G1 X93.594 Y61.577 E0.00878
G1 X93.579 Y61.754 E0.00560
G1 X84.394 Y52.570 E0.40847
G1 X83.859 Y52.570 E0.01682
G1 X93.536 Y62.246 E0.43034
G1 X93.493 Y62.738 E0.01553
G1 X83.325 Y52.570 E0.45222
G1 X82.790 Y52.570 E0.01682
G1 X93.450 Y63.230 E0.47409
G1 X93.426 Y63.500 E0.00853
G1 X93.449 Y63.764 E0.00834
G1 X82.255 Y52.570 E0.49786
G1 X81.720 Y52.570 E0.01682
G1 X93.500 Y64.350 E0.52392
G1 X93.552 Y64.936 E0.01850
G1 X81.185 Y52.570 E0.54999
G1 X80.650 Y52.570 E0.01682
G1 X93.628 Y65.547 E0.57715
G1 X93.823 Y66.278 E0.02379
G1 X80.115 Y52.570 E0.60965
G1 X79.581 Y52.570 E0.01682
G1 X80.818 Y53.808 E0.05505
G1 X79.816 Y53.340 E0.03478
G1 X79.046 Y52.570 E0.03427
G1 X78.511 Y52.570 E0.01682
G1 X78.942 Y53.001 E0.01919
G1 X78.212 Y52.806 E0.02379
G1 X77.983 Y52.577 E0.01015
M204 S1250
G1 X77.861 Y52.640 F9000.000
M204 S800
G1 F1200.000
G1 X77.647 Y52.611 E0.00521
M204 S1250
M204 S800
G1 X77.433 Y52.583 E0.00454
M204 S1250
M204 S800
G1 X76.778 Y52.555 E0.01172
M204 S1250
M204 S800
G1 X76.142 Y52.529 E0.00905
M204 S1250
M204 S800
G1 X75.506 Y52.502 E0.00690
M204 S1250
M204 S800
G1 X74.870 Y52.476 E0.00475
M204 S1250
G1 X76.015 Y52.476 F9000.000
M204 S800
G1 F1200.000
G1 X74.192 Y52.555 E0.01362
M204 S1250
M204 S800
G1 X73.584 Y52.582 E0.01073
G1 X73.139 Y52.640 E0.00793
M204 S1250
G1 X72.986 Y52.928 F9000.000
M204 S800
G1 F1200.000
G1 X72.627 Y52.570 E0.01594
G1 X72.092 Y52.570 E0.01682
G1 X72.425 Y52.903 E0.01481
G1 X72.004 Y53.016 E0.01373
G1 X71.558 Y52.570 E0.01984
G1 X71.023 Y52.570 E0.01682
G1 X71.599 Y53.147 E0.02565
G1 X71.235 Y53.317 E0.01266
G1 X70.488 Y52.570 E0.03321
G1 X69.953 Y52.570 E0.01682
G1 X70.870 Y53.487 E0.04078
G1 X70.505 Y53.657 E0.01266
G1 X69.418 Y52.570 E0.04834
G1 X68.883 Y52.570 E0.01682
G1 X70.140 Y53.827 E0.05591
G1 X69.963 Y53.910 E0.00615
G1 X69.801 Y54.023 E0.00621
G1 X68.348 Y52.570 E0.06462
G1 X67.814 Y52.570 E0.01682
G1 X69.487 Y54.243 E0.07442
G1 X69.172 Y54.463 E0.01208
G1 X67.279 Y52.570 E0.08421
G1 X66.744 Y52.570 E0.01682
G1 X68.858 Y54.684 E0.09401
G1 X68.543 Y54.904 E0.01208
G1 X66.209 Y52.570 E0.10381
G1 X65.674 Y52.570 E0.01682
G1 X68.251 Y55.147 E0.11462
G1 X67.984 Y55.415 E0.01189
G1 X65.139 Y52.570 E0.12652
G1 X64.604 Y52.570 E0.01682
G1 X67.717 Y55.682 E0.13841
G1 X67.449 Y55.950 E0.01189
G1 X64.070 Y52.570 E0.15031
G1 X63.535 Y52.570 E0.01682
G1 X67.182 Y56.217 E0.16220
G1 X67.017 Y56.382 E0.00733
G1 X66.932 Y56.502 E0.00463
G1 X63.000 Y52.570 E0.17490
G1 X62.465 Y52.570 E0.01682
G1 X66.712 Y56.817 E0.18889
G1 X66.492 Y57.132 E0.01208
G1 X61.930 Y52.570 E0.20288
G1 X61.395 Y52.570 E0.01682
G1 X66.272 Y57.446 E0.21687
G1 X66.051 Y57.761 E0.01208
G1 X60.860 Y52.570 E0.23086
G1 X60.325 Y52.570 E0.01682
G1 X65.849 Y58.093 E0.24565
G1 X65.679 Y58.458 E0.01266
G1 X59.791 Y52.570 E0.26187
G1 X59.256 Y52.570 E0.01682
G1 X65.509 Y58.823 E0.27809
