; generated by PrusaSlicer 2.2.0+ on 2021-05-18 at 10:04:24 UTC

; 

; external perimeters extrusion width = 0.45mm
; perimeters extrusion width = 0.45mm
; infill extrusion width = 0.45mm
; solid infill extrusion width = 0.45mm
; top infill extrusion width = 0.40mm
; first layer extrusion width = 0.42mm

M73 P0 R74
M73 Q0 S75
M201 X1000 Y1000 Z200 E5000 ; sets maximum accelerations, mm/sec^2
M203 X200 Y200 Z12 E120 ; sets maximum feedrates, mm/sec
M204 P1250 R1250 T1250 ; sets acceleration (P, T) and retract acceleration (R), mm/sec^2
M205 X8.00 Y8.00 Z0.40 E4.50 ; sets the jerk limits, mm/sec
M205 S0 T0 ; sets the minimum extruding and travel feed rate, mm/sec
M107
M862.3 P "MK3" ; printer model check
M862.1 P0.4 ; nozzle diameter check
M115 U3.9.3 ; tell printer latest fw version
G90 ; use absolute coordinates
M83 ; extruder relative mode
M104 S215 ; set extruder temp
M140 S60 ; set bed temp
M190 S60 ; wait for bed temp
M109 S215 ; wait for extruder temp
G28 W ; home all without mesh bed level
G80 ; mesh bed leveling
G1 Y-3.0 F1000.0 ; go outside print area
G92 E0.0
G1 X60.0 E9.0 F1000.0 ; intro line
M73 Q0 S75
M73 P0 R74
G1 X100.0 E12.5 F1000.0 ; intro line
G92 E0.0
M221 S95

; Don't change E values below. Excessive value can damage the printer.

M907 E538 ; set extruder motor current
G21 ; set units to millimeters
G90 ; use absolute coordinates
M83 ; use relative distances for extrusion
M900 K0.05 ; Filament gcode LA 1.5
M900 K30 ; Filament gcode LA 1.0
;BEFORE_LAYER_CHANGE
G92 E0.0
;0.2


G1 E-0.80000 F2100.00000
G1 Z0.400 F10800.000
;AFTER_LAYER_CHANGE
;0.2
G1 X140.275 Y134.464
G1 Z0.200
G1 E0.80000 F2100.00000
M204 S1000
G1 F1200.000
G1 X139.563 Y134.768 E0.02426
G1 X139.005 Y134.835 E0.01763
G1 X110.867 Y134.831 E0.88225
G1 X110.129 Y134.670 E0.02367
G1 X109.480 Y134.286 E0.02367
G1 X108.984 Y133.717 E0.02367
G1 X108.691 Y133.021 E0.02367
G1 X108.623 Y132.463 E0.01763
G1 X108.625 Y91.261 E1.29187
G1 X108.785 Y89.233 E0.06379
G1 X109.255 Y87.028 E0.07068
G1 X109.618 Y85.912 E0.03678
G1 X110.158 Y84.610 E0.04419
G1 X110.808 Y83.360 E0.04420
G1 X111.434 Y82.358 E0.03703
G1 X112.272 Y81.227 E0.04413
G1 X113.205 Y80.171 E0.04418
G1 X114.055 Y79.351 E0.03703
G1 X115.138 Y78.458 E0.04401
G1 X116.295 Y77.661 E0.04406
G1 X117.321 Y77.068 E0.03715
G1 X118.597 Y76.459 E0.04433
G1 X119.918 Y75.964 E0.04424
G1 X121.054 Y75.639 E0.03703
G1 X122.427 Y75.360 E0.04393
G1 X123.831 Y75.198 E0.04431
G1 X124.997 Y75.156 E0.03658
G1 X126.417 Y75.218 E0.04459
G1 X127.818 Y75.400 E0.04428
G1 X128.975 Y75.646 E0.03711
G1 X130.328 Y76.047 E0.04424
G1 X131.642 Y76.563 E0.04426
G1 X132.705 Y77.082 E0.03709
G1 X133.917 Y77.796 E0.04411
G1 X135.076 Y78.623 E0.04464
G1 X136.152 Y79.540 E0.04430
G1 X136.992 Y80.380 E0.03726
G1 X137.906 Y81.451 E0.04416
G1 X138.736 Y82.615 E0.04482
G1 X139.459 Y83.843 E0.04467
G1 X140.067 Y85.115 E0.04419
G1 X140.492 Y86.221 E0.03717
G1 X140.893 Y87.581 E0.04446
G1 X141.252 Y89.517 E0.06174
G1 X141.375 Y91.265 E0.05492
G1 X141.376 Y132.527 E1.29374
G1 X141.230 Y133.282 E0.02414
G1 X140.849 Y133.952 E0.02414
G1 X140.320 Y134.424 E0.02226
; printing object PoePiCam_PotFixture.stl id:0 copy 0
G1 F8640.000
G1 X139.563 Y134.768 E-0.19180
G1 X139.005 Y134.835 E-0.12986
G1 X137.107 Y134.835 E-0.43834
G1 E-0.04000 F2100.00000
G1 Z0.600 F10800.000
G1 X128.287 Y107.320
G1 Z0.200
G1 E0.80000 F2100.00000
G1 F1200.000
G1 X121.713 Y107.320 E0.20613
G1 X121.713 Y103.746 E0.11207
G1 X128.287 Y103.746 E0.20613
G1 X128.287 Y107.260 E0.11018
G1 X127.910 Y106.943 F10800.000
G1 F1200.000
G1 X122.090 Y106.943 E0.18248
G1 X122.090 Y104.123 E0.08842
G1 X127.910 Y104.123 E0.18248
G1 X127.910 Y106.883 E0.08654
G1 X128.056 Y107.316 F10800.000
G1 F8640.000
G1 X124.619 Y106.917 E-0.76000
G1 E-0.04000 F2100.00000
G1 Z0.600 F10800.000
G1 X121.713 Y118.746
G1 Z0.200
G1 E0.80000 F2100.00000
G1 F1200.000
G1 X128.287 Y118.746 E0.20613
G1 X128.287 Y122.320 E0.11207
G1 X121.713 Y122.320 E0.20613
G1 X121.713 Y118.806 E0.11018
G1 X122.090 Y119.123 F10800.000
G1 F1200.000
G1 X127.910 Y119.123 E0.18248
G1 X127.910 Y121.943 E0.08842
G1 X122.090 Y121.943 E0.18248
G1 X122.090 Y119.183 E0.08654
G1 X121.944 Y118.751 F10800.000
G1 F8640.000
G1 X125.381 Y119.149 E-0.76000
G1 E-0.04000 F2100.00000
G1 Z0.600 F10800.000
G1 X123.719 Y102.243
G1 Z0.200
G1 E0.80000 F2100.00000
G1 F1200.000
G1 X123.122 Y102.156 E0.01891
G1 X122.213 Y101.954 E0.02919
G1 X121.667 Y101.792 E0.01787
G1 X121.134 Y101.604 E0.01771
G1 X120.612 Y101.388 E0.01770
G1 X120.098 Y101.142 E0.01787
G1 X119.288 Y100.684 E0.02919
G1 X118.813 Y100.370 E0.01787
G1 X118.359 Y100.034 E0.01771
G1 X117.923 Y99.674 E0.01771
G1 X117.503 Y99.289 E0.01787
G1 X116.862 Y98.614 E0.02919
G1 X116.500 Y98.174 E0.01787
G1 X116.164 Y97.720 E0.01771
G1 X115.852 Y97.249 E0.01771
G1 X115.563 Y96.758 E0.01787
G1 X115.147 Y95.925 E0.02919
G1 X114.929 Y95.399 E0.01787
G1 X114.741 Y94.867 E0.01771
G1 X114.580 Y94.325 E0.01771
G1 X114.448 Y93.776 E0.01771
G1 X114.346 Y93.221 E0.01771
G1 X114.271 Y92.657 E0.01783
G1 X114.214 Y91.726 E0.02923
G1 X114.219 Y91.157 E0.01787
G1 X114.254 Y90.589 E0.01783
G1 X114.376 Y89.665 E0.02922
G1 X114.489 Y89.106 E0.01787
G1 X114.631 Y88.560 E0.01771
G1 X114.800 Y88.021 E0.01771
G1 X115.000 Y87.488 E0.01783
G1 X115.386 Y86.640 E0.02922
G1 X115.658 Y86.139 E0.01787
G1 X115.953 Y85.658 E0.01771
G1 X116.273 Y85.192 E0.01771
G1 X116.620 Y84.740 E0.01787
G1 X117.240 Y84.039 E0.02935
G1 X117.919 Y83.395 E0.02935
G1 X118.359 Y83.033 E0.01787
G1 X118.817 Y82.694 E0.01787
G1 X119.603 Y82.193 E0.02923
G1 X120.103 Y81.922 E0.01783
G1 X120.612 Y81.678 E0.01771
G1 X121.134 Y81.462 E0.01771
G1 X121.667 Y81.274 E0.01771
G1 X122.208 Y81.113 E0.01771
G1 X122.762 Y80.980 E0.01787
G1 X123.680 Y80.827 E0.02919
G1 X124.248 Y80.772 E0.01787
G1 X124.818 Y80.747 E0.01791
G1 X125.747 Y80.772 E0.02915
G1 X126.315 Y80.826 E0.01787
G1 X126.878 Y80.910 E0.01787
G1 X127.787 Y81.112 E0.02919
G1 X128.333 Y81.274 E0.01787
G1 X128.867 Y81.463 E0.01775
G1 X129.388 Y81.678 E0.01766
G1 X129.902 Y81.924 E0.01787
G1 X130.712 Y82.382 E0.02919
G1 X131.187 Y82.697 E0.01787
G1 X131.641 Y83.033 E0.01771
G1 X132.077 Y83.392 E0.01771
G1 X132.497 Y83.777 E0.01787
G1 X133.138 Y84.452 E0.02919
G1 X133.500 Y84.892 E0.01787
G1 X133.836 Y85.346 E0.01771
G1 X134.148 Y85.817 E0.01771
G1 X134.437 Y86.308 E0.01787
G1 X134.853 Y87.141 E0.02919
G1 X135.071 Y87.667 E0.01787
G1 X135.259 Y88.200 E0.01771
G1 X135.420 Y88.741 E0.01771
G1 X135.552 Y89.290 E0.01771
G1 X135.654 Y89.846 E0.01771
G1 X135.729 Y90.409 E0.01783
G1 X135.786 Y91.340 E0.02923
G1 X135.781 Y91.910 E0.01787
G1 X135.746 Y92.477 E0.01783
G1 X135.624 Y93.401 E0.02922
G1 X135.511 Y93.960 E0.01787
G1 X135.369 Y94.507 E0.01771
G1 X135.200 Y95.045 E0.01771
G1 X135.000 Y95.578 E0.01783
G1 X134.614 Y96.426 E0.02922
G1 X134.342 Y96.927 E0.01787
G1 X134.047 Y97.408 E0.01771
G1 X133.727 Y97.874 E0.01771
G1 X133.380 Y98.326 E0.01787
G1 X132.760 Y99.027 E0.02935
G1 X132.081 Y99.671 E0.02935
G1 X131.641 Y100.034 E0.01787
G1 X131.183 Y100.373 E0.01787
G1 X130.398 Y100.873 E0.02919
G1 X129.897 Y101.145 E0.01787
G1 X129.388 Y101.388 E0.01771
G1 X128.866 Y101.604 E0.01771
G1 X128.333 Y101.792 E0.01771
G1 X127.792 Y101.953 E0.01771
G1 X127.238 Y102.086 E0.01787
G1 X126.320 Y102.240 E0.02919
G1 X125.753 Y102.294 E0.01787
G1 X125.183 Y102.319 E0.01787
G1 X124.253 Y102.295 E0.02919
G1 X123.778 Y102.249 E0.01494
G1 X123.814 Y101.874 F10800.000
G1 F1200.000
G1 X123.191 Y101.785 E0.01976
G1 X122.307 Y101.589 E0.02836
G1 X121.783 Y101.434 E0.01714
G1 X121.269 Y101.252 E0.01709
G1 X120.766 Y101.043 E0.01709
G1 X120.272 Y100.808 E0.01715
G1 X119.485 Y100.362 E0.02836
G1 X119.029 Y100.061 E0.01715
G1 X118.591 Y99.736 E0.01709
G1 X118.170 Y99.390 E0.01709
G1 X117.767 Y99.020 E0.01714
G1 X117.145 Y98.364 E0.02836
G1 X116.797 Y97.942 E0.01715
G1 X116.473 Y97.504 E0.01709
G1 X116.172 Y97.050 E0.01709
G1 X115.894 Y96.578 E0.01715
G1 X115.491 Y95.769 E0.02836
G1 X115.281 Y95.264 E0.01715
G1 X115.099 Y94.750 E0.01709
G1 X114.945 Y94.227 E0.01709
G1 X114.817 Y93.697 E0.01709
G1 X114.718 Y93.162 E0.01709
G1 X114.647 Y92.621 E0.01710
G1 X114.591 Y91.717 E0.02840
G1 X114.596 Y91.170 E0.01715
G1 X114.630 Y90.625 E0.01711
G1 X114.748 Y89.727 E0.02840
G1 X114.857 Y89.191 E0.01715
G1 X114.993 Y88.664 E0.01709
G1 X115.157 Y88.144 E0.01709
G1 X115.348 Y87.633 E0.01711
G1 X115.724 Y86.809 E0.02840
G1 X115.985 Y86.328 E0.01715
G1 X116.269 Y85.863 E0.01709
G1 X116.578 Y85.414 E0.01709
G1 X116.911 Y84.980 E0.01714
G1 X117.512 Y84.302 E0.02842
G1 X118.169 Y83.678 E0.02842
G1 X118.591 Y83.330 E0.01715
G1 X119.031 Y83.005 E0.01715
G1 X119.794 Y82.518 E0.02840
G1 X120.274 Y82.258 E0.01711
G1 X120.766 Y82.023 E0.01709
G1 X121.269 Y81.814 E0.01709
G1 X121.783 Y81.632 E0.01709
G1 X122.306 Y81.478 E0.01709
G1 X122.837 Y81.350 E0.01715
G1 X123.730 Y81.201 E0.02836
G1 X124.274 Y81.148 E0.01714
G1 X124.821 Y81.124 E0.01719
G1 X125.724 Y81.148 E0.02832
G1 X126.269 Y81.201 E0.01714
G1 X126.809 Y81.281 E0.01715
G1 X127.693 Y81.477 E0.02836
G1 X128.217 Y81.632 E0.01714
G1 X128.732 Y81.815 E0.01713
G1 X129.234 Y82.023 E0.01705
G1 X129.728 Y82.258 E0.01715
G1 X130.515 Y82.704 E0.02836
G1 X130.971 Y83.006 E0.01715
G1 X131.409 Y83.330 E0.01709
G1 X131.830 Y83.677 E0.01709
G1 X132.233 Y84.046 E0.01714
G1 X132.855 Y84.702 E0.02836
G1 X133.203 Y85.124 E0.01715
G1 X133.527 Y85.562 E0.01709
G1 X133.828 Y86.017 E0.01709
G1 X134.106 Y86.488 E0.01715
G1 X134.509 Y87.297 E0.02836
G1 X134.719 Y87.802 E0.01715
G1 X134.901 Y88.316 E0.01709
G1 X135.055 Y88.839 E0.01709
G1 X135.183 Y89.369 E0.01709
G1 X135.282 Y89.905 E0.01709
G1 X135.353 Y90.445 E0.01710
G1 X135.409 Y91.350 E0.02840
G1 X135.404 Y91.896 E0.01715
G1 X135.370 Y92.441 E0.01711
G1 X135.252 Y93.339 E0.02840
G1 X135.143 Y93.875 E0.01714
G1 X135.007 Y94.403 E0.01709
G1 X134.843 Y94.922 E0.01709
G1 X134.652 Y95.433 E0.01711
G1 X134.276 Y96.258 E0.02840
G1 X134.015 Y96.738 E0.01715
G1 X133.731 Y97.203 E0.01709
G1 X133.422 Y97.652 E0.01709
G1 X133.089 Y98.086 E0.01714
G1 X132.488 Y98.765 E0.02842
G1 X131.831 Y99.389 E0.02842
G1 X131.409 Y99.736 E0.01715
G1 X130.969 Y100.062 E0.01715
G1 X130.207 Y100.548 E0.02836
G1 X129.726 Y100.809 E0.01715
G1 X129.234 Y101.043 E0.01709
G1 X128.731 Y101.252 E0.01709
G1 X128.217 Y101.434 E0.01709
G1 X127.694 Y101.589 E0.01709
G1 X127.163 Y101.716 E0.01715
G1 X126.270 Y101.865 E0.02836
G1 X125.726 Y101.918 E0.01714
G1 X125.180 Y101.942 E0.01715
G1 X124.276 Y101.918 E0.02836
G1 X123.874 Y101.879 E0.01265
G1 X123.577 Y102.196 F10800.000
G1 F8640.000
G1 X123.191 Y101.785 E-0.15934
G1 X122.307 Y101.589 E-0.20886
G1 X121.783 Y101.434 E-0.12626
G1 X121.269 Y101.252 E-0.12585
G1 X120.766 Y101.043 E-0.12583
G1 X120.712 Y101.017 E-0.01386
G1 E-0.04000 F2100.00000
G1 Z0.600 F10800.000
G1 X138.213 Y131.671
G1 Z0.200
G1 E0.80000 F2100.00000
G1 F1200.000
G1 X111.787 Y131.671 E0.82856
G1 X111.789 Y91.305 E1.26565
G1 X111.819 Y90.614 E0.02169
G1 X111.916 Y89.692 E0.02908
G1 X112.030 Y89.012 E0.02161
G1 X112.298 Y87.894 E0.03606
G1 X112.506 Y87.234 E0.02169
G1 X112.840 Y86.364 E0.02921
G1 X113.024 Y85.951 E0.01417
G1 X113.556 Y84.929 E0.03614
G1 X113.920 Y84.335 E0.02185
G1 X114.588 Y83.399 E0.03606
G1 X115.030 Y82.863 E0.02177
G1 X115.334 Y82.524 E0.01427
G1 X115.991 Y81.868 E0.02910
G1 X116.509 Y81.410 E0.02169
G1 X116.863 Y81.123 E0.01430
G1 X117.802 Y80.453 E0.03614
G1 X118.396 Y80.089 E0.02185
G1 X119.417 Y79.558 E0.03609
G1 X119.833 Y79.373 E0.01428
G1 X120.701 Y79.039 E0.02916
G1 X121.360 Y78.831 E0.02169
G1 X122.250 Y78.610 E0.02876
G1 X122.933 Y78.483 E0.02177
G1 X123.621 Y78.392 E0.02177
G1 X124.536 Y78.328 E0.02876
G1 X125.229 Y78.322 E0.02171
G1 X125.924 Y78.353 E0.02182
G1 X126.376 Y78.392 E0.01422
G1 X127.299 Y78.522 E0.02924
G1 X128.417 Y78.770 E0.03590
G1 X129.302 Y79.040 E0.02899
G1 X130.167 Y79.373 E0.02908
G1 X130.582 Y79.557 E0.01422
G1 X131.604 Y80.089 E0.03614
G1 X132.576 Y80.708 E0.03614
G1 X133.491 Y81.410 E0.03614
G1 X134.009 Y81.868 E0.02169
G1 X134.665 Y82.524 E0.02907
G1 X135.410 Y83.396 E0.03598
G1 X135.825 Y83.957 E0.02185
G1 X136.444 Y84.929 E0.03615
G1 X136.976 Y85.951 E0.03614
G1 X137.160 Y86.366 E0.01422
G1 X137.494 Y87.234 E0.02915
G1 X137.702 Y87.894 E0.02169
G1 X137.970 Y89.012 E0.03606
G1 X138.084 Y89.692 E0.02161
G1 X138.181 Y90.614 E0.02908
G1 X138.211 Y91.305 E0.02169
G1 X138.213 Y131.611 E1.26376
G1 X138.590 Y132.048 F10800.000
G1 F1200.000
G1 X111.410 Y132.048 E0.85221
G1 X111.412 Y91.297 E1.27773
G1 X111.443 Y90.586 E0.02231
G1 X111.542 Y89.641 E0.02980
G1 X111.660 Y88.940 E0.02228
G1 X111.936 Y87.788 E0.03714
G1 X112.150 Y87.109 E0.02231
G1 X112.492 Y86.220 E0.02988
G1 X112.683 Y85.791 E0.01474
G1 X113.230 Y84.739 E0.03717
G1 X113.603 Y84.131 E0.02236
G1 X114.291 Y83.166 E0.03715
G1 X114.744 Y82.617 E0.02234
G1 X115.061 Y82.265 E0.01484
G1 X115.732 Y81.593 E0.02977
G1 X116.265 Y81.122 E0.02231
G1 X116.632 Y80.825 E0.01482
G1 X117.598 Y80.136 E0.03717
G1 X118.206 Y79.763 E0.02237
G1 X119.256 Y79.217 E0.03712
G1 X119.688 Y79.024 E0.01484
G1 X120.576 Y78.683 E0.02983
G1 X121.255 Y78.469 E0.02231
G1 X122.174 Y78.240 E0.02968
G1 X122.874 Y78.111 E0.02234
G1 X123.580 Y78.018 E0.02234
G1 X124.525 Y77.951 E0.02968
G1 X125.235 Y77.945 E0.02228
G1 X125.949 Y77.976 E0.02239
G1 X126.419 Y78.017 E0.01479
G1 X127.362 Y78.150 E0.02986
G1 X128.516 Y78.406 E0.03709
G1 X129.424 Y78.684 E0.02977
G1 X130.312 Y79.024 E0.02980
G1 X130.743 Y79.216 E0.01479
G1 X131.794 Y79.763 E0.03717
G1 X132.794 Y80.400 E0.03717
G1 X133.735 Y81.122 E0.03717
G1 X134.268 Y81.593 E0.02231
G1 X134.940 Y82.265 E0.02980
G1 X135.709 Y83.166 E0.03712
G1 X136.133 Y83.739 E0.02236
G1 X136.770 Y84.739 E0.03718
G1 X137.317 Y85.791 E0.03717
G1 X137.509 Y86.221 E0.01479
G1 X137.850 Y87.109 E0.02982
G1 X138.064 Y87.788 E0.02231
G1 X138.340 Y88.940 E0.03714
G1 X138.458 Y89.641 E0.02228
G1 X138.557 Y90.586 E0.02980
G1 X138.588 Y91.297 E0.02231
G1 X138.590 Y131.988 E1.27585
G1 X138.244 Y131.848 F10800.000
G1 F8640.000
G1 X135.299 Y131.995 E-0.76000
G1 E-0.04000 F2100.00000
G1 Z0.600 F10800.000
G1 X138.100 Y128.632
G1 Z0.200
G1 E0.80000 F2100.00000
G1 F1200.000
G1 X128.570 Y119.103 E0.42401
G1 X128.570 Y119.638 E0.01684
G1 X137.930 Y128.998 E0.41646
G1 X137.930 Y129.533 E0.01684
G1 X128.570 Y120.173 E0.41646
G1 X128.570 Y120.708 E0.01684
G1 X137.930 Y130.068 E0.41647
G1 X137.930 Y130.603 E0.01684
G1 X128.570 Y121.243 E0.41647
G1 X128.570 Y121.778 E0.01684
G1 X137.930 Y131.138 E0.41647
G1 X137.930 Y131.388 E0.00787
G1 X137.645 Y131.388 E0.00897
G1 X128.570 Y122.313 E0.40379
G1 X128.570 Y122.603 E0.00912
G1 X128.325 Y122.603 E0.00772
G1 X137.110 Y131.388 E0.39089
G1 X136.575 Y131.388 E0.01684
G1 X127.790 Y122.603 E0.39089
G1 X127.254 Y122.603 E0.01684
G1 X136.040 Y131.388 E0.39089
G1 X135.505 Y131.388 E0.01684
G1 X126.719 Y122.603 E0.39089
G1 X126.184 Y122.603 E0.01684
G1 X134.970 Y131.388 E0.39089
G1 X134.434 Y131.388 E0.01684
G1 X125.649 Y122.603 E0.39089
G1 X125.114 Y122.603 E0.01684
G1 X133.899 Y131.388 E0.39089
G1 X133.364 Y131.388 E0.01684
G1 X124.579 Y122.603 E0.39089
G1 X124.044 Y122.603 E0.01684
G1 X132.829 Y131.388 E0.39089
G1 X132.294 Y131.388 E0.01684
G1 X123.509 Y122.603 E0.39089
G1 X122.974 Y122.603 E0.01684
G1 X131.759 Y131.388 E0.39089
G1 X131.224 Y131.388 E0.01684
G1 X122.439 Y122.603 E0.39089
G1 X121.903 Y122.603 E0.01684
G1 X130.689 Y131.388 E0.39089
G1 X130.154 Y131.388 E0.01684
G1 X112.071 Y113.305 E0.80457
G1 X112.071 Y112.770 E0.01683
G1 X121.430 Y122.130 E0.41643
G1 X121.430 Y121.595 E0.01684
G1 X112.071 Y112.235 E0.41643
G1 X112.071 Y111.700 E0.01683
G1 X121.430 Y121.059 E0.41642
G1 X121.430 Y120.524 E0.01684
G1 X112.071 Y111.165 E0.41642
G1 X112.071 Y110.630 E0.01683
G1 X121.430 Y119.989 E0.41642
G1 X121.430 Y119.454 E0.01684
G1 X112.071 Y110.095 E0.41642
M73 Q1 S74
G1 X112.071 Y109.560 E0.01683
G1 X121.430 Y118.919 E0.41642
M73 P1 R73
G1 X121.430 Y118.463 E0.01434
G1 X121.509 Y118.463 E0.00249
G1 X112.071 Y109.025 E0.41995
G1 X112.071 Y108.490 E0.01683
G1 X122.044 Y118.463 E0.44375
G1 X122.580 Y118.463 E0.01684
G1 X112.071 Y107.955 E0.46756
