; generated by PrusaSlicer 2.2.0+ on 2021-06-03 at 09:17:15 UTC

; 

; external perimeters extrusion width = 0.45mm
; perimeters extrusion width = 0.45mm
; infill extrusion width = 0.45mm
; solid infill extrusion width = 0.45mm
; top infill extrusion width = 0.40mm
; first layer extrusion width = 0.42mm

M73 P0 R87
M73 Q0 S88
M201 X1000 Y1000 Z200 E5000 ; sets maximum accelerations, mm/sec^2
M203 X200 Y200 Z12 E120 ; sets maximum feedrates, mm/sec
M204 P1250 R1250 T1250 ; sets acceleration (P, T) and retract acceleration (R), mm/sec^2
M205 X8.00 Y8.00 Z0.40 E4.50 ; sets the jerk limits, mm/sec
M205 S0 T0 ; sets the minimum extruding and travel feed rate, mm/sec
M107
M862.3 P "MK3" ; printer model check
M862.1 P0.4 ; nozzle diameter check
M115 U3.10.0 ; tell printer latest fw version
G90 ; use absolute coordinates
M83 ; extruder relative mode
M104 S215 ; set extruder temp
M140 S60 ; set bed temp
M190 S60 ; wait for bed temp
M109 S215 ; wait for extruder temp
G28 W ; home all without mesh bed level
G80 ; mesh bed leveling
G1 Y-3.0 F1000.0 ; go outside print area
G92 E0.0
G1 X60.0 E9.0 F1000.0 ; intro line
M73 Q0 S88
M73 P0 R87
G1 X100.0 E12.5 F1000.0 ; intro line
G92 E0.0
M221 S95

; Don't change E values below. Excessive value can damage the printer.

M907 E538 ; set extruder motor current
G21 ; set units to millimeters
G90 ; use absolute coordinates
M83 ; use relative distances for extrusion
M900 K0.05 ; Filament gcode LA 1.5
M900 K30 ; Filament gcode LA 1.0
;BEFORE_LAYER_CHANGE
G92 E0.0
;0.2


G1 E-0.80000 F2100.00000
G1 Z0.400 F10800.000
;AFTER_LAYER_CHANGE
;0.2
G1 X98.819 Y131.877
G1 Z0.200
G1 E0.80000 F2100.00000
M204 S1000
G1 F1200.000
G1 X98.623 Y130.960 E0.02942
G1 X98.623 Y120.917 E0.31487
G1 X98.689 Y120.374 E0.01716
G1 X109.424 Y86.873 E1.10300
G1 X110.156 Y85.013 E0.06268
G1 X111.266 Y83.011 E0.07179
G1 X112.652 Y81.175 E0.07210
G1 X114.449 Y79.407 E0.07906
G1 X116.295 Y78.061 E0.07164
G1 X118.337 Y76.972 E0.07254
G1 X120.479 Y76.192 E0.07148
G1 X122.721 Y75.715 E0.07186
G1 X124.996 Y75.556 E0.07152
G1 X127.290 Y75.717 E0.07212
G1 X129.767 Y76.265 E0.07952
G1 X131.918 Y77.088 E0.07223
G1 X133.932 Y78.206 E0.07222
G1 X135.938 Y79.744 E0.07927
G1 X137.544 Y81.404 E0.07242
G1 X138.900 Y83.272 E0.07237
G1 X140.068 Y85.518 E0.07936
G1 X140.578 Y86.878 E0.04555
G1 X151.328 Y120.450 E1.10527
G1 X151.363 Y131.191 E0.33679
G1 X151.215 Y131.796 E0.01953
G1 X150.914 Y132.342 E0.01953
G1 X150.483 Y132.791 E0.01953
G1 X149.945 Y133.114 E0.01965
G1 X149.286 Y133.292 E0.02142
G1 X139.081 Y134.438 E0.32199
G1 X110.943 Y134.439 E0.88224
G1 X100.508 Y133.258 E0.32927
G1 X99.975 Y133.077 E0.01763
G1 X99.497 Y132.774 E0.01775
G1 X99.104 Y132.367 E0.01775
G1 X98.849 Y131.929 E0.01587
; printing object PoePiCam_PotFixture_helper.stl id:0 copy 0
G1 F8640.000
G1 X98.623 Y130.960 E-0.22989
G1 X98.623 Y128.664 E-0.53011
G1 E-0.04000 F2100.00000
G1 Z0.600 F10800.000
G1 X121.713 Y107.720
G1 Z0.200
G1 E0.80000 F2100.00000
G1 F1200.000
G1 X121.713 Y104.146 E0.11207
G1 X128.287 Y104.146 E0.20613
G1 X128.287 Y107.720 E0.11207
G1 X121.773 Y107.720 E0.20425
G1 X122.090 Y107.343 F10800.000
G1 F1200.000
G1 X122.090 Y104.523 E0.08842
G1 X127.910 Y104.523 E0.18248
G1 X127.910 Y107.343 E0.08842
G1 X122.150 Y107.343 E0.18060
G1 X121.695 Y107.403 F10800.000
G1 F8640.000
G1 X122.090 Y104.523 E-0.65129
G1 X122.561 Y104.523 E-0.10871
G1 E-0.04000 F2100.00000
G1 Z0.600 F10800.000
G1 X128.287 Y119.146
G1 Z0.200
G1 E0.80000 F2100.00000
G1 F1200.000
G1 X128.287 Y122.720 E0.11206
G1 X127.753 Y122.720 E0.01675
G1 X127.693 Y122.820 E0.00366
G1 X127.366 Y123.217 E0.01615
G1 X126.981 Y123.558 E0.01610
G1 X126.596 Y123.808 E0.01438
G1 X126.232 Y123.981 E0.01267
G1 X125.851 Y124.109 E0.01259
G1 X125.457 Y124.189 E0.01259
G1 X125.055 Y124.221 E0.01267
G1 X124.602 Y124.197 E0.01422
G1 X124.205 Y124.123 E0.01267
G1 X123.819 Y124.002 E0.01267
G1 X123.406 Y123.809 E0.01430
G1 X123.019 Y123.558 E0.01447
G1 X122.634 Y123.217 E0.01610
G1 X122.306 Y122.820 E0.01615
G1 X122.247 Y122.720 E0.00365
G1 X121.713 Y122.720 E0.01675
G1 X121.713 Y119.146 E0.11206
G1 X122.247 Y119.146 E0.01675
G1 X122.307 Y119.045 E0.00366
G1 X122.634 Y118.648 E0.01615
G1 X123.019 Y118.308 E0.01610
G1 X123.404 Y118.058 E0.01438
G1 X123.768 Y117.884 E0.01267
G1 X124.149 Y117.756 E0.01259
G1 X124.543 Y117.676 E0.01259
G1 X124.945 Y117.645 E0.01267
G1 X125.398 Y117.669 E0.01422
G1 X125.798 Y117.743 E0.01275
G1 X126.229 Y117.883 E0.01422
G1 X126.596 Y118.058 E0.01275
G1 X126.981 Y118.308 E0.01438
G1 X127.366 Y118.648 E0.01610
G1 X127.694 Y119.046 E0.01615
G1 X127.753 Y119.146 E0.00365
G1 X128.227 Y119.146 E0.01487
G1 X127.910 Y119.523 F10800.000
G1 F1200.000
G1 X127.910 Y122.343 E0.08842
G1 X127.538 Y122.343 E0.01166
G1 X127.384 Y122.603 E0.00947
G1 X127.094 Y122.955 E0.01431
G1 X126.752 Y123.257 E0.01429
G1 X126.412 Y123.478 E0.01273
G1 X126.090 Y123.631 E0.01117
G1 X125.753 Y123.744 E0.01114
G1 X125.405 Y123.815 E0.01114
G1 X125.050 Y123.843 E0.01117
G1 X124.646 Y123.822 E0.01267
G1 X124.296 Y123.757 E0.01117
G1 X123.956 Y123.649 E0.01117
G1 X123.589 Y123.478 E0.01270
G1 X123.248 Y123.257 E0.01276
G1 X122.906 Y122.955 E0.01429
G1 X122.616 Y122.602 E0.01431
G1 X122.462 Y122.343 E0.00947
G1 X122.090 Y122.343 E0.01166
G1 X122.090 Y119.523 E0.08842
G1 X122.462 Y119.523 E0.01166
G1 X122.616 Y119.263 E0.00947
G1 X122.906 Y118.911 E0.01431
G1 X123.248 Y118.609 E0.01429
G1 X123.588 Y118.387 E0.01273
G1 X123.910 Y118.234 E0.01117
G1 X124.247 Y118.121 E0.01114
G1 X124.595 Y118.051 E0.01114
G1 X124.950 Y118.023 E0.01117
G1 X125.354 Y118.044 E0.01267
G1 X125.705 Y118.109 E0.01120
G1 X126.089 Y118.234 E0.01267
G1 X126.412 Y118.388 E0.01120
G1 X126.752 Y118.609 E0.01273
G1 X127.094 Y118.911 E0.01429
G1 X127.384 Y119.263 E0.01431
G1 X127.538 Y119.523 E0.00947
G1 X127.850 Y119.523 E0.00978
G1 X128.305 Y119.584 F10800.000
G1 F8640.000
G1 X127.910 Y122.343 E-0.65127
G1 X127.538 Y122.343 E-0.08586
G1 X127.488 Y122.428 E-0.02287
G1 E-0.04000 F2100.00000
G1 Z0.600 F10800.000
G1 X126.228 Y102.648
G1 Z0.200
G1 E0.80000 F2100.00000
G1 F1200.000
G1 X125.753 Y102.694 E0.01497
G1 X125.183 Y102.719 E0.01787
G1 X124.253 Y102.694 E0.02919
G1 X123.685 Y102.640 E0.01787
G1 X123.122 Y102.555 E0.01787
G1 X122.213 Y102.354 E0.02919
G1 X121.667 Y102.192 E0.01787
G1 X121.134 Y102.003 E0.01771
G1 X120.612 Y101.787 E0.01770
G1 X120.098 Y101.542 E0.01787
G1 X119.288 Y101.084 E0.02919
G1 X118.813 Y100.769 E0.01787
G1 X118.359 Y100.433 E0.01771
G1 X117.923 Y100.074 E0.01771
G1 X117.507 Y99.692 E0.01771
G1 X117.111 Y99.290 E0.01771
G1 X116.733 Y98.863 E0.01787
G1 X116.166 Y98.124 E0.02919
G1 X115.852 Y97.649 E0.01787
G1 X115.563 Y97.158 E0.01787
G1 X115.147 Y96.325 E0.02919
G1 X114.929 Y95.798 E0.01787
G1 X114.741 Y95.266 E0.01771
G1 X114.580 Y94.725 E0.01771
G1 X114.448 Y94.175 E0.01771
G1 X114.346 Y93.620 E0.01771
G1 X114.271 Y93.056 E0.01783
G1 X114.214 Y92.126 E0.02923
G1 X114.219 Y91.556 E0.01787
G1 X114.254 Y90.989 E0.01783
G1 X114.376 Y90.064 E0.02922
G1 X114.489 Y89.506 E0.01787
G1 X114.631 Y88.959 E0.01771
G1 X114.800 Y88.421 E0.01771
G1 X115.000 Y87.888 E0.01783
G1 X115.386 Y87.040 E0.02922
G1 X115.658 Y86.539 E0.01787
G1 X115.953 Y86.057 E0.01771
G1 X116.273 Y85.592 E0.01771
G1 X116.620 Y85.140 E0.01787
G1 X117.240 Y84.439 E0.02935
G1 X117.919 Y83.795 E0.02935
G1 X118.359 Y83.432 E0.01787
G1 X118.817 Y83.093 E0.01787
G1 X119.603 Y82.592 E0.02923
G1 X120.103 Y82.321 E0.01783
G1 X120.612 Y82.078 E0.01771
G1 X121.134 Y81.862 E0.01771
G1 X121.667 Y81.673 E0.01771
G1 X122.208 Y81.513 E0.01771
G1 X122.762 Y81.380 E0.01787
G1 X123.680 Y81.226 E0.02919
G1 X124.248 Y81.172 E0.01787
G1 X124.813 Y81.147 E0.01775
G1 X125.377 Y81.152 E0.01767
G1 X125.945 Y81.187 E0.01787
G1 X126.873 Y81.309 E0.02935
G1 X127.787 Y81.511 E0.02935
G1 X128.333 Y81.673 E0.01787
G1 X128.867 Y81.862 E0.01775
G1 X129.388 Y82.078 E0.01766
G1 X129.902 Y82.323 E0.01787
G1 X130.712 Y82.782 E0.02919
G1 X131.187 Y83.096 E0.01787
G1 X131.641 Y83.432 E0.01771
G1 X132.077 Y83.791 E0.01771
G1 X132.497 Y84.176 E0.01787
G1 X133.138 Y84.852 E0.02919
G1 X133.500 Y85.291 E0.01787
G1 X133.836 Y85.745 E0.01771
G1 X134.148 Y86.216 E0.01771
G1 X134.437 Y86.707 E0.01787
G1 X134.853 Y87.540 E0.02919
G1 X135.071 Y88.067 E0.01787
G1 X135.259 Y88.599 E0.01771
G1 X135.420 Y89.141 E0.01771
G1 X135.552 Y89.690 E0.01771
G1 X135.654 Y90.245 E0.01771
G1 X135.729 Y90.809 E0.01783
G1 X135.786 Y91.739 E0.02923
G1 X135.781 Y92.309 E0.01787
G1 X135.746 Y92.877 E0.01783
G1 X135.624 Y93.801 E0.02922
G1 X135.511 Y94.359 E0.01787
G1 X135.369 Y94.906 E0.01771
G1 X135.200 Y95.445 E0.01771
G1 X135.000 Y95.977 E0.01783
G1 X134.614 Y96.825 E0.02922
G1 X134.342 Y97.326 E0.01787
G1 X134.047 Y97.808 E0.01771
G1 X133.727 Y98.273 E0.01771
G1 X133.380 Y98.725 E0.01787
G1 X132.760 Y99.426 E0.02935
G1 X132.081 Y100.071 E0.02935
G1 X131.641 Y100.433 E0.01787
G1 X131.183 Y100.772 E0.01787
G1 X130.397 Y101.273 E0.02923
G1 X129.897 Y101.544 E0.01783
G1 X129.388 Y101.787 E0.01771
G1 X128.866 Y102.003 E0.01771
G1 X128.333 Y102.192 E0.01771
G1 X127.792 Y102.352 E0.01771
G1 X127.238 Y102.485 E0.01787
G1 X126.287 Y102.642 E0.03020
G1 X126.270 Y102.265 F10800.000
G1 F1200.000
G1 X125.726 Y102.317 E0.01714
G1 X125.180 Y102.341 E0.01715
G1 X124.276 Y102.318 E0.02836
G1 X123.731 Y102.265 E0.01714
G1 X123.191 Y102.184 E0.01715
G1 X122.307 Y101.989 E0.02836
G1 X121.783 Y101.833 E0.01714
G1 X121.269 Y101.651 E0.01709
G1 X120.766 Y101.443 E0.01709
G1 X120.272 Y101.207 E0.01715
G1 X119.485 Y100.762 E0.02836
G1 X119.029 Y100.460 E0.01715
G1 X118.591 Y100.136 E0.01709
G1 X118.170 Y99.789 E0.01709
G1 X117.769 Y99.421 E0.01709
G1 X117.387 Y99.032 E0.01709
G1 X117.024 Y98.623 E0.01715
G1 X116.474 Y97.905 E0.02836
G1 X116.172 Y97.449 E0.01715
G1 X115.894 Y96.978 E0.01715
G1 X115.491 Y96.169 E0.02836
G1 X115.281 Y95.663 E0.01715
G1 X115.099 Y95.150 E0.01709
G1 X114.945 Y94.627 E0.01709
G1 X114.817 Y94.097 E0.01709
G1 X114.718 Y93.561 E0.01709
G1 X114.647 Y93.020 E0.01710
G1 X114.591 Y92.116 E0.02840
G1 X114.596 Y91.569 E0.01715
G1 X114.630 Y91.025 E0.01711
G1 X114.748 Y90.127 E0.02840
G1 X114.857 Y89.591 E0.01715
G1 X114.993 Y89.063 E0.01709
G1 X115.157 Y88.543 E0.01709
G1 X115.348 Y88.032 E0.01711
G1 X115.724 Y87.208 E0.02840
G1 X115.985 Y86.728 E0.01715
G1 X116.269 Y86.263 E0.01709
G1 X116.578 Y85.814 E0.01709
G1 X116.911 Y85.380 E0.01714
G1 X117.512 Y84.701 E0.02842
G1 X118.169 Y84.077 E0.02842
G1 X118.591 Y83.729 E0.01715
G1 X119.031 Y83.404 E0.01715
G1 X119.794 Y82.917 E0.02840
G1 X120.274 Y82.657 E0.01711
G1 X120.766 Y82.423 E0.01709
G1 X121.269 Y82.214 E0.01709
G1 X121.783 Y82.032 E0.01709
G1 X122.306 Y81.877 E0.01709
G1 X122.837 Y81.750 E0.01715
G1 X123.730 Y81.600 E0.02836
G1 X124.274 Y81.548 E0.01714
G1 X124.820 Y81.524 E0.01713
G1 X125.363 Y81.529 E0.01705
G1 X125.909 Y81.562 E0.01714
G1 X126.808 Y81.681 E0.02842
G1 X127.693 Y81.877 E0.02842
G1 X128.217 Y82.032 E0.01714
G1 X128.732 Y82.214 E0.01713
G1 X129.234 Y82.423 E0.01705
G1 X129.728 Y82.658 E0.01715
G1 X130.515 Y83.103 E0.02836
G1 X130.971 Y83.405 E0.01715
G1 X131.409 Y83.729 E0.01709
G1 X131.830 Y84.076 E0.01709
G1 X132.233 Y84.445 E0.01714
G1 X132.855 Y85.102 E0.02836
G1 X133.203 Y85.524 E0.01715
G1 X133.527 Y85.962 E0.01709
G1 X133.828 Y86.416 E0.01709
G1 X134.106 Y86.887 E0.01715
G1 X134.509 Y87.697 E0.02836
G1 X134.719 Y88.202 E0.01715
G1 X134.901 Y88.716 E0.01709
G1 X135.055 Y89.238 E0.01709
G1 X135.183 Y89.768 E0.01709
G1 X135.282 Y90.304 E0.01709
G1 X135.353 Y90.845 E0.01710
G1 X135.409 Y91.749 E0.02840
G1 X135.404 Y92.296 E0.01715
G1 X135.370 Y92.841 E0.01711
G1 X135.252 Y93.739 E0.02840
G1 X135.143 Y94.274 E0.01715
G1 X135.007 Y94.802 E0.01709
G1 X134.843 Y95.322 E0.01709
G1 X134.652 Y95.833 E0.01711
G1 X134.276 Y96.657 E0.02840
G1 X134.015 Y97.138 E0.01715
G1 X133.731 Y97.602 E0.01709
G1 X133.422 Y98.052 E0.01709
G1 X133.089 Y98.485 E0.01714
G1 X132.488 Y99.164 E0.02842
G1 X131.831 Y99.788 E0.02842
G1 X131.409 Y100.136 E0.01715
G1 X130.969 Y100.461 E0.01715
G1 X130.206 Y100.948 E0.02840
G1 X129.726 Y101.208 E0.01711
G1 X129.234 Y101.443 E0.01709
G1 X128.731 Y101.651 E0.01709
G1 X128.217 Y101.833 E0.01709
G1 X127.694 Y101.988 E0.01709
G1 X127.163 Y102.116 E0.01715
G1 X126.330 Y102.255 E0.02648
G1 X126.116 Y102.634 F10800.000
G1 F8640.000
G1 X125.726 Y102.317 E-0.14007
G1 X125.180 Y102.341 E-0.12627
G1 X124.276 Y102.318 E-0.20886
G1 X123.731 Y102.265 E-0.12625
G1 X123.191 Y102.184 E-0.12628
G1 X123.054 Y102.154 E-0.03227
G1 E-0.04000 F2100.00000
G1 Z0.600 F10800.000
G1 X138.213 Y121.720
G1 Z0.200
G1 E0.80000 F2100.00000
G1 F1200.000
G1 X148.213 Y121.720 E0.31354
G1 X148.213 Y130.146 E0.26419
G1 X138.213 Y130.146 E0.31354
G1 X138.213 Y131.275 E0.03541
G1 X111.787 Y131.275 E0.82856
G1 X111.787 Y130.146 E0.03541
G1 X101.787 Y130.146 E0.31354
G1 X101.787 Y121.720 E0.26419
G1 X111.787 Y121.720 E0.31354
G1 X111.795 Y91.469 E0.94849
G1 X111.838 Y90.781 E0.02161
G1 X111.916 Y90.094 E0.02169
G1 X112.030 Y89.409 E0.02177
G1 X112.299 Y88.291 E0.03606
G1 X112.507 Y87.631 E0.02169
G1 X112.749 Y86.983 E0.02169
G1 X113.024 Y86.351 E0.02161
G1 X113.444 Y85.527 E0.02899
G1 X113.922 Y84.732 E0.02908
G1 X114.587 Y83.800 E0.03590
G1 X115.181 Y83.092 E0.02900
G1 X115.822 Y82.428 E0.02892
G1 X116.507 Y81.811 E0.02891
G1 X117.234 Y81.244 E0.02892
G1 X117.998 Y80.728 E0.02892
G1 X118.797 Y80.267 E0.02892
G1 X119.626 Y79.862 E0.02892
G1 X120.481 Y79.517 E0.02892
G1 X121.358 Y79.232 E0.02891
G1 X122.253 Y79.009 E0.02892
G1 X123.161 Y78.849 E0.02892
G1 X124.083 Y78.752 E0.02908
G1 X124.536 Y78.728 E0.01422
G1 X125.226 Y78.722 E0.02163
G1 X126.152 Y78.770 E0.02905
G1 X127.067 Y78.883 E0.02892
G1 X127.972 Y79.059 E0.02892
G1 X128.863 Y79.297 E0.02892
G1 X129.735 Y79.598 E0.02892
G1 X130.584 Y79.958 E0.02892
G1 X131.406 Y80.377 E0.02891
G1 X132.200 Y80.854 E0.02908
G1 X133.132 Y81.519 E0.03590
G1 X133.841 Y82.114 E0.02900
G1 X134.504 Y82.754 E0.02892
G1 X135.121 Y83.440 E0.02891
G1 X135.689 Y84.167 E0.02892
G1 X136.205 Y84.931 E0.02892
G1 X136.666 Y85.730 E0.02892
G1 X137.072 Y86.563 E0.02908
G1 X137.493 Y87.631 E0.03598
G1 X137.701 Y88.291 E0.02169
G1 X137.875 Y88.963 E0.02177
G1 X138.084 Y90.094 E0.03606
G1 X138.162 Y90.781 E0.02169
G1 X138.205 Y91.469 E0.02161
G1 X138.213 Y121.660 E0.94661
G1 X138.590 Y121.343 F10800.000
G1 F1200.000
G1 X148.590 Y121.343 E0.31354
G1 X148.590 Y130.523 E0.28783
G1 X138.590 Y130.523 E0.31354
G1 X138.590 Y131.652 E0.03541
G1 X111.410 Y131.652 E0.85221
G1 X111.410 Y130.523 E0.03541
G1 X101.410 Y130.523 E0.31354
G1 X101.410 Y121.343 E0.28783
G1 X111.410 Y121.343 E0.31354
G1 X111.418 Y91.458 E0.93703
G1 X111.462 Y90.748 E0.02228
G1 X111.542 Y90.041 E0.02231
G1 X111.660 Y89.339 E0.02234
G1 X111.936 Y88.187 E0.03714
G1 X112.150 Y87.508 E0.02231
G1 X112.400 Y86.842 E0.02231
G1 X112.683 Y86.190 E0.02228
G1 X113.114 Y85.344 E0.02977
G1 X113.603 Y84.530 E0.02980
G1 X114.290 Y83.567 E0.03709
G1 X114.901 Y82.839 E0.02977
G1 X115.560 Y82.157 E0.02974
G1 X116.265 Y81.522 E0.02974
G1 X117.012 Y80.938 E0.02974
G1 X117.798 Y80.408 E0.02974
G1 X118.620 Y79.933 E0.02974
G1 X119.473 Y79.518 E0.02974
G1 X120.352 Y79.162 E0.02974
G1 X121.254 Y78.869 E0.02974
G1 X122.175 Y78.640 E0.02974
G1 X123.109 Y78.475 E0.02974
G1 X124.054 Y78.376 E0.02980
G1 X124.525 Y78.351 E0.01479
G1 X125.235 Y78.345 E0.02225
G1 X126.184 Y78.395 E0.02982
G1 X127.126 Y78.510 E0.02974
G1 X128.057 Y78.691 E0.02974
G1 X128.973 Y78.937 E0.02974
G1 X129.870 Y79.245 E0.02974
G1 X130.743 Y79.616 E0.02974
G1 X131.588 Y80.047 E0.02974
G1 X132.403 Y80.536 E0.02980
G1 X133.366 Y81.223 E0.03709
G1 X134.093 Y81.833 E0.02977
G1 X134.776 Y82.492 E0.02974
G1 X135.410 Y83.197 E0.02974
G1 X135.994 Y83.945 E0.02974
G1 X136.525 Y84.731 E0.02974
G1 X136.999 Y85.553 E0.02974
G1 X137.416 Y86.407 E0.02980
G1 X137.850 Y87.508 E0.03711
G1 X138.064 Y88.187 E0.02231
G1 X138.242 Y88.877 E0.02234
G1 X138.458 Y90.041 E0.03714
G1 X138.538 Y90.748 E0.02231
G1 X138.582 Y91.458 E0.02228
G1 X138.590 Y121.283 E0.93515
G1 X138.590 Y121.743 F10800.000
G1 F8640.000
G1 X141.881 Y121.302 E-0.76000
G1 E-0.04000 F2100.00000
