; generated by PrusaSlicer 2.2.0+ on 2022-02-19 at 21:43:37 UTC


;
;

;
;
; 

; external perimeters extrusion width = 0.45mm
; perimeters extrusion width = 0.45mm
; infill extrusion width = 0.45mm
; solid infill extrusion width = 0.45mm
; top infill extrusion width = 0.40mm
; support material extrusion width = 0.35mm
; first layer extrusion width = 0.42mm

M73 P0 R149
M201 X1250 Y1250 Z400 E5000 ; sets maximum accelerations, mm/sec^2
M203 X180 Y180 Z12 E80 ; sets maximum feedrates, mm/sec
M204 P1250 R1250 T1250 ; sets acceleration (P, T) and retract acceleration (R), mm/sec^2
M205 X8.00 Y8.00 Z2.00 E10.00 ; sets the jerk limits, mm/sec
M205 S0 T0 ; sets the minimum extruding and travel feed rate, mm/sec
M107
G90 ; use absolute coordinates
M83 ; extruder relative mode
M104 S170 ; set extruder temp for bed leveling
M140 S60 ; set bed temp
M109 R170 ; wait for bed leveling temp
M190 S60 ; wait for bed temp
G28 ; home all without mesh bed level
G29 ; mesh bed leveling 
M104 S215 ; set extruder temp
G92 E0.0
G1 Y-2.0 X179 F2400
G1 Z3 F720
M109 S215 ; wait for extruder temp

; intro line
G1 X170 F1000
G1 Z0.2 F720
G1 X110.0 E8.0 F900
M73 P0 R149
G1 X40.0 E10.0 F700
G92 E0.0

M221 S95 ; set flow
G21 ; set units to millimeters
G90 ; use absolute coordinates
M83 ; use relative distances for extrusion
M900 K0.2 ; Filament gcode LA 1.5
; ; Filament gcode LA 1.0
;BEFORE_LAYER_CHANGE
G92 E0.0
;0.2


G1 Z0.200 F9000.000
;AFTER_LAYER_CHANGE
;0.2
G1 E-3.20000 F4200.00000
G1 Z0.400 F9000.000
G1 X51.183 Y48.097
G1 Z0.200
G1 E3.20000 F2400.00000
M204 S800
G1 F1200.000
G1 X51.891 Y47.806 E0.02402
G1 X67.053 Y44.409 E0.48718
G1 X69.089 Y44.140 E0.06440
G1 X135.754 Y44.123 E2.09021
G1 X137.075 Y44.191 E0.04147
G1 X138.205 Y44.359 E0.03585
G1 X139.316 Y44.627 E0.03583
G1 X140.555 Y45.053 E0.04106
G1 X141.595 Y45.526 E0.03582
G1 X142.589 Y46.089 E0.03583
G1 X143.662 Y46.840 E0.04108
G1 X144.531 Y47.581 E0.03580
G1 X145.331 Y48.396 E0.03581
G1 X146.155 Y49.414 E0.04105
G1 X146.785 Y50.364 E0.03575
G1 X147.331 Y51.370 E0.03587
G1 X147.843 Y52.576 E0.04110
G1 X148.188 Y53.666 E0.03584
G1 X148.435 Y54.782 E0.03585
G1 X148.595 Y56.086 E0.04119
G1 X148.595 Y123.914 E2.12670
G1 X148.391 Y125.453 E0.04867
G1 X148.003 Y126.958 E0.04874
G1 X147.507 Y128.253 E0.04348
G1 X146.787 Y129.633 E0.04879
G1 X145.898 Y130.926 E0.04921
G1 X144.870 Y132.091 E0.04873
G1 X143.837 Y133.021 E0.04356
G1 X142.559 Y133.929 E0.04917
G1 X141.006 Y134.755 E0.05515
G1 X139.513 Y135.315 E0.05001
G1 X137.784 Y135.715 E0.05562
G1 X136.179 Y135.870 E0.05058
G1 X69.519 Y135.875 E2.09006
G1 X68.201 Y135.783 E0.04145
G1 X67.064 Y135.594 E0.03614
G1 X52.505 Y132.193 E0.46876
G1 X51.846 Y131.930 E0.02225
G1 X51.291 Y131.481 E0.02237
G1 X39.170 Y117.577 E0.57834
G1 X31.948 Y108.053 E0.37478
G1 X31.632 Y107.222 E0.02790
G1 X27.309 Y81.901 E0.80538
G1 X27.290 Y73.170 E0.27378
G1 X27.404 Y72.465 E0.02237
G1 X27.632 Y71.964 E0.01728
G1 X27.967 Y71.531 E0.01716
G1 X50.739 Y48.450 E1.01663
G1 X51.136 Y48.135 E0.01587
M204 S1250
; printing object AP9_HingeFixture.stl id:0 copy 0
G1 E-2.24000 F4200.00000
G1 F7200.000
G1 X51.891 Y47.806 E-0.45656
G1 X52.693 Y47.627 E-0.45544
G1 E-0.04800 F4200.00000
G1 Z0.400 F9000.000
G1 X57.040 Y55.686
G1 Z0.200
G1 E3.20000 F2400.00000
M204 S800
G1 F1200.000
G1 X57.040 Y55.394 E0.00745
G1 X56.533 Y55.394 E0.01295
G1 X56.533 Y56.179 E0.02005
G1 X56.026 Y56.923 E0.02300
G1 X56.026 Y55.394 E0.03905
G1 X55.519 Y55.394 E0.01295
G1 X55.519 Y57.675 E0.05825
G1 X55.012 Y58.434 E0.02330
G1 X55.012 Y57.701 E0.01872
G1 X54.504 Y57.701 E0.01295
G1 X54.504 Y59.199 E0.03824
G1 X53.997 Y59.968 E0.02352
G1 X53.997 Y57.701 E0.05788
G1 X53.490 Y57.701 E0.01295
G1 X53.490 Y60.742 E0.07764
G1 X52.983 Y61.520 E0.02371
G1 X52.983 Y60.008 E0.03860
G1 X52.476 Y60.008 E0.01295
G1 X52.476 Y62.301 E0.05855
G1 X51.969 Y63.086 E0.02387
G1 X51.969 Y60.008 E0.07860
G1 X51.462 Y60.008 E0.01295
G1 X51.462 Y63.601 E0.09176
G1 X51.260 Y63.465 E0.00623
G1 X50.955 Y63.920 E0.01398
G1 X50.955 Y60.008 E0.09990
G1 X50.780 Y60.008 E0.00448
G1 X50.780 Y62.315 E0.05891
G1 X50.448 Y62.315 E0.00847
G1 X50.448 Y64.691 E0.06068
G1 X49.941 Y65.462 E0.02356
G1 X49.941 Y62.315 E0.08036
G1 X49.434 Y62.315 E0.01295
G1 X49.434 Y66.233 E0.10005
G1 X48.927 Y67.004 E0.02356
G1 X48.927 Y62.315 E0.11974
G1 X48.473 Y62.315 E0.01159
G1 X48.473 Y66.929 E0.11782
G1 X48.420 Y66.929 E0.00135
G1 X48.420 Y67.775 E0.02160
G1 X47.912 Y68.557 E0.02380
G1 X47.912 Y66.929 E0.04158
G1 X47.405 Y66.929 E0.01295
G1 X47.405 Y69.340 E0.06157
G1 X46.898 Y70.123 E0.02382
G1 X46.898 Y66.929 E0.08156
G1 X46.391 Y66.929 E0.01295
G1 X46.391 Y70.906 E0.10155
G1 X45.884 Y71.692 E0.02388
G1 X45.884 Y69.236 E0.06270
G1 X45.377 Y69.236 E0.01295
G1 X45.377 Y72.486 E0.08298
G1 X44.870 Y73.280 E0.02406
G1 X44.870 Y69.236 E0.10326
G1 X44.363 Y69.236 E0.01295
G1 X44.363 Y74.075 E0.12354
G1 X43.856 Y74.869 E0.02406
G1 X43.856 Y73.850 E0.02601
G1 X43.349 Y73.850 E0.01295
G1 X43.349 Y75.663 E0.04629
G1 X42.842 Y76.458 E0.02406
G1 X42.842 Y73.850 E0.06657
G1 X42.335 Y73.850 E0.01295
G1 X42.335 Y77.252 E0.08685
G1 X42.016 Y77.751 E0.01512
G1 X42.335 Y78.333 E0.01693
G1 X42.335 Y78.465 E0.00337
G1 X42.842 Y78.465 E0.01295
G1 X42.842 Y78.424 E0.00105
G1 X43.349 Y78.424 E0.01295
G1 X43.349 Y78.465 E0.00105
G1 X43.856 Y78.465 E0.01295
G1 X43.856 Y78.424 E0.00105
G1 X44.363 Y78.424 E0.01295
G1 X44.363 Y78.465 E0.00105
G1 X44.870 Y78.465 E0.01295
G1 X44.870 Y78.424 E0.00105
G1 X45.377 Y78.424 E0.01295
G1 X45.377 Y78.465 E0.00105
G1 X45.884 Y78.465 E0.01295
G1 X45.884 Y78.285 E0.00458
M204 S1250
G1 E-2.24000 F4200.00000
G1 F7200.000
G1 X45.884 Y78.465 E-0.09935
G1 X45.377 Y78.465 E-0.28101
G1 X45.377 Y78.424 E-0.02277
G1 X44.870 Y78.424 E-0.28101
G1 X44.870 Y78.465 E-0.02277
G1 X44.500 Y78.465 E-0.20511
G1 E-0.04800 F4200.00000
G1 Z0.400 F9000.000
G1 X43.856 Y80.633
G1 Z0.200
G1 E3.20000 F2400.00000
M204 S800
G1 F1200.000
G1 X43.856 Y81.576 E0.02408
G1 X43.349 Y81.576 E0.01295
G1 X43.349 Y80.772 E0.02055
G1 X42.842 Y80.772 E0.01295
G1 X42.842 Y81.607 E0.02132
G1 X42.335 Y81.607 E0.01295
G1 X42.335 Y80.772 E0.02132
G1 X41.827 Y80.772 E0.01295
G1 X41.827 Y94.614 E0.35345
G1 X42.335 Y94.614 E0.01295
G1 X42.335 Y94.393 E0.00564
G1 X42.842 Y94.393 E0.01295
G1 X42.842 Y94.614 E0.00564
G1 X43.349 Y94.614 E0.01295
G1 X43.349 Y94.424 E0.00487
G1 X43.856 Y94.424 E0.01295
G1 X43.856 Y94.752 E0.00840
M204 S1250
G1 X43.242 Y94.251 F9000.000
M204 S800
G1 F1200.000
G1 X43.242 Y91.459 E0.08756
G1 X42.488 Y91.459 E0.02365
G1 X42.488 Y94.221 E0.08661
M204 S1250
G1 X41.320 Y94.752 F9000.000
M204 S800
G1 F1200.000
G1 X41.320 Y80.772 E0.35698
G1 X40.813 Y80.772 E0.01295
G1 X40.813 Y94.614 E0.35345
G1 X40.306 Y94.614 E0.01295
G1 X40.306 Y80.772 E0.35345
G1 X39.799 Y80.772 E0.01295
G1 X39.799 Y94.614 E0.35345
G1 X39.292 Y94.614 E0.01295
G1 X39.292 Y80.633 E0.35698
M204 S1250
G1 X42.488 Y84.711 F9000.000
M204 S800
G1 F1200.000
G1 X42.488 Y81.949 E0.08661
G1 X42.696 Y81.949 E0.00653
G1 X42.696 Y82.273 E0.01018
G1 X43.051 Y81.919 E0.01573
G1 X43.242 Y81.919 E0.00599
G1 X43.242 Y84.711 E0.08756
M204 S1250
G1 E-2.24000 F4200.00000
G1 F7200.000
G1 X43.242 Y83.065 E-0.91200
G1 E-0.04800 F4200.00000
G1 Z0.400 F9000.000
G1 X43.856 Y89.715
G1 Z0.200
G1 E3.20000 F2400.00000
M204 S800
G1 F1200.000
G1 X43.856 Y86.424 E0.08403
G1 X43.349 Y86.424 E0.01295
G1 X43.349 Y89.576 E0.08051
G1 X42.909 Y89.576 E0.01122
G1 X42.879 Y89.607 E0.00109
G1 X42.842 Y89.607 E0.00096
G1 X42.842 Y86.393 E0.08204
G1 X42.335 Y86.393 E0.01295
G1 X42.335 Y89.760 E0.08596
M204 S1250
G1 E-2.24000 F4200.00000
G1 F7200.000
G1 X42.335 Y88.114 E-0.91200
G1 E-0.04800 F4200.00000
G1 Z0.400 F9000.000
G1 X48.521 Y81.599
G1 Z0.200
G1 E3.20000 F2400.00000
M204 S800
G1 F1200.000
G1 X48.521 Y78.459 E0.09847
G1 X47.767 Y78.459 E0.02365
G1 X47.767 Y81.430 E0.09315
G1 X47.013 Y81.430 E0.02365
G1 X47.013 Y78.459 E0.09315
G1 X46.508 Y78.459 E0.01585
G1 X46.508 Y78.807 E0.01092
G1 X46.259 Y78.807 E0.00780
G1 X46.259 Y81.541 E0.08575
G1 X45.505 Y81.541 E0.02365
G1 X45.505 Y78.807 E0.08575
G1 X44.750 Y78.807 E0.02365
G1 X44.750 Y81.541 E0.08575
G1 X44.200 Y81.541 E0.01724
G1 X44.200 Y80.430 E0.03486
G1 X43.996 Y80.430 E0.00640
G1 X43.996 Y78.807 E0.05088
G1 X43.242 Y78.807 E0.02365
G1 X43.242 Y80.430 E0.05088
G1 X42.488 Y80.430 E0.02365
G1 X42.488 Y78.807 E0.05088
G1 X41.734 Y78.807 E0.02365
G1 X41.734 Y80.430 E0.05088
G1 X40.980 Y80.430 E0.02365
G1 X40.980 Y78.807 E0.05088
G1 X40.226 Y78.807 E0.02365
G1 X40.226 Y80.430 E0.05088
G1 X39.471 Y80.430 E0.02365
G1 X39.471 Y78.637 E0.05621
M204 S1250
G1 X39.292 Y78.603 F9000.000
M204 S800
G1 F1200.000
G1 X39.292 Y76.157 E0.06244
G1 X39.799 Y76.157 E0.01295
G1 X39.799 Y78.465 E0.05891
G1 X40.306 Y78.465 E0.01295
G1 X40.306 Y76.157 E0.05891
G1 X40.813 Y76.157 E0.01295
G1 X40.813 Y78.465 E0.05891
G1 X41.320 Y78.465 E0.01295
G1 X41.320 Y76.157 E0.05891
G1 X41.551 Y76.157 E0.00590
G1 X41.551 Y73.850 E0.05891
G1 X41.827 Y73.850 E0.00705
G1 X41.827 Y78.603 E0.12135
M204 S1250
G1 X42.488 Y78.221 F9000.000
M204 S800
G1 F1200.000
G1 X42.488 Y77.647 E0.01799
G1 X43.242 Y76.466 E0.04394
G1 X43.242 Y78.081 E0.05065
G1 X43.726 Y78.081 E0.01518
G1 X43.677 Y77.994 E0.00315
G1 X43.996 Y77.459 E0.01953
G1 X43.996 Y75.285 E0.06819
G1 X44.750 Y74.103 E0.04394
G1 X44.750 Y76.198 E0.06566
G1 X45.505 Y74.936 E0.04609
G1 X45.505 Y72.922 E0.06314
G1 X46.259 Y71.741 E0.04394
G1 X46.259 Y73.676 E0.06067
G1 X46.516 Y73.248 E0.01566
G1 X46.516 Y71.894 E0.04245
G1 X47.013 Y71.894 E0.01557
G1 X47.013 Y70.576 E0.04134
G1 X47.767 Y69.411 E0.04350
G1 X47.767 Y71.169 E0.05511
G1 X48.521 Y69.915 E0.04587
G1 X48.521 Y68.247 E0.05232
G1 X49.275 Y67.096 E0.04313
G1 X49.275 Y68.666 E0.04920
G1 X50.030 Y67.420 E0.04564
G1 X50.030 Y65.950 E0.04611
G1 X50.784 Y64.803 E0.04303
G1 X50.784 Y66.175 E0.04302
G1 X51.130 Y65.604 E0.02094
G1 X51.130 Y64.973 E0.01980
G1 X51.515 Y64.973 E0.01207
G1 X51.538 Y64.936 E0.00135
G1 X51.538 Y64.064 E0.02733
G1 X51.684 Y64.163 E0.00552
G1 X52.292 Y63.217 E0.03526
G1 X52.292 Y63.699 E0.01512
G1 X53.046 Y62.468 E0.04528
G1 X53.046 Y62.051 E0.01307
G1 X53.800 Y60.893 E0.04333
G1 X53.800 Y61.239 E0.01087
G1 X54.555 Y60.018 E0.04500
G1 X54.555 Y59.743 E0.00862
G1 X55.309 Y58.605 E0.04281
G1 X55.309 Y58.804 E0.00623
G1 X56.063 Y57.598 E0.04459
G1 X56.063 Y57.479 E0.00373
G1 X56.817 Y56.369 E0.04207
G1 X56.817 Y56.721 E0.01101
M204 S1250
G1 E-2.24000 F4200.00000
G1 F7200.000
G1 X56.817 Y56.369 E-0.19465
G1 X56.089 Y57.440 E-0.71735
G1 E-0.04800 F4200.00000
G1 Z0.400 F9000.000
G1 X60.588 Y51.101
G1 Z0.200
G1 E3.20000 F2400.00000
M204 S800
G1 F1200.000
G1 X60.588 Y50.122 E0.03071
G1 X59.834 Y50.122 E0.02365
G1 X59.834 Y51.837 E0.05379
G1 X59.079 Y52.926 E0.04152
G1 X59.079 Y50.122 E0.08792
G1 X58.325 Y50.122 E0.02365
G1 X58.325 Y54.060 E0.12348
G1 X57.681 Y55.052 E0.03708
G1 X57.571 Y55.052 E0.00344
G1 X57.571 Y50.122 E0.15457
G1 X56.817 Y50.122 E0.02365
G1 X56.817 Y55.052 E0.15457
G1 X56.063 Y55.052 E0.02365
G1 X56.063 Y50.122 E0.15457
G1 X55.309 Y50.122 E0.02365
G1 X55.309 Y55.052 E0.15457
G1 X55.052 Y55.052 E0.00806
G1 X55.052 Y57.359 E0.07234
G1 X54.555 Y57.359 E0.01559
G1 X54.555 Y50.122 E0.22691
G1 X53.800 Y50.122 E0.02365
G1 X53.800 Y57.359 E0.22691
G1 X53.046 Y57.359 E0.02365
G1 X53.046 Y50.122 E0.22691
G1 X52.429 Y50.122 E0.01936
G1 X52.429 Y54.736 E0.14467
G1 X52.292 Y54.736 E0.00429
G1 X52.292 Y59.666 E0.15457
G1 X51.538 Y59.666 E0.02365
G1 X51.538 Y54.736 E0.15457
G1 X50.784 Y54.736 E0.02365
G1 X50.784 Y59.666 E0.15457
G1 X50.438 Y59.666 E0.01085
G1 X50.438 Y61.973 E0.07234
G1 X50.030 Y61.973 E0.01279
G1 X50.030 Y57.043 E0.15457
G1 X49.275 Y57.043 E0.02365
G1 X49.275 Y61.973 E0.15457
G1 X48.521 Y61.973 E0.02365
G1 X48.521 Y57.043 E0.15457
G1 X47.815 Y57.043 E0.02215
G1 X47.815 Y59.350 E0.07234
G1 X47.767 Y59.350 E0.00149
G1 X47.767 Y66.587 E0.22691
G1 X47.013 Y66.587 E0.02365
G1 X47.013 Y59.350 E0.22691
G1 X46.259 Y59.350 E0.02365
G1 X46.259 Y66.587 E0.22691
G1 X45.823 Y66.587 E0.01365
G1 X45.823 Y68.894 E0.07234
G1 X45.505 Y68.894 E0.00999
G1 X45.505 Y61.657 E0.22691
G1 X44.750 Y61.657 E0.02365
G1 X44.750 Y68.894 E0.22691
G1 X43.996 Y68.894 E0.02365
G1 X43.996 Y61.657 E0.22691
G1 X43.242 Y61.657 E0.02365
G1 X43.242 Y73.508 E0.37158
G1 X42.488 Y73.508 E0.02365
G1 X42.488 Y63.964 E0.29925
G1 X41.734 Y63.964 E0.02365
G1 X41.734 Y73.508 E0.29925
G1 X41.209 Y73.508 E0.01645
G1 X41.209 Y75.815 E0.07234
G1 X40.980 Y75.815 E0.00720
G1 X40.980 Y63.964 E0.37158
G1 X40.893 Y63.964 E0.00270
G1 X40.893 Y68.578 E0.14467
G1 X40.226 Y68.578 E0.02094
G1 X40.226 Y75.815 E0.22691
G1 X39.471 Y75.815 E0.02365
G1 X39.471 Y68.578 E0.22691
G1 X38.717 Y68.578 E0.02365
G1 X38.717 Y111.422 E1.34332
M73 P0 R148
G1 X38.586 Y111.422 E0.00410
G1 X38.586 Y109.114 E0.07234
G1 X37.963 Y109.114 E0.01955
G1 X37.963 Y70.886 E1.19864
G1 X37.209 Y70.886 E0.02365
G1 X37.209 Y109.114 E1.19864
G1 X36.455 Y109.114 E0.02365
G1 X36.455 Y70.886 E1.19864
G1 X36.279 Y70.886 E0.00550
G1 X36.279 Y73.193 E0.07234
G1 X35.701 Y73.193 E0.01815
G1 X35.701 Y106.807 E1.05397
G1 X34.946 Y106.807 E0.02365
G1 X34.946 Y73.193 E1.05397
G1 X34.192 Y73.193 E0.02365
G1 X34.192 Y106.807 E1.05397
G1 X33.972 Y106.807 E0.00690
G1 X33.972 Y81.430 E0.79571
G1 X33.438 Y81.430 E0.01675
G1 X33.438 Y73.193 E0.25826
G1 X32.684 Y73.193 E0.02365
G1 X32.684 Y81.430 E0.25826
G1 X31.930 Y81.430 E0.02365
G1 X31.930 Y73.193 E0.25826
G1 X31.176 Y73.193 E0.02365
G1 X31.176 Y81.430 E0.25826
G1 X30.421 Y81.430 E0.02365
G1 X30.421 Y73.193 E0.25826
G1 X29.667 Y73.193 E0.02365
G1 X29.667 Y81.599 E0.26358
M204 S1250
G1 E-2.24000 F4200.00000
G1 F7200.000
G1 X29.667 Y79.953 E-0.91200
G1 E-0.04800 F4200.00000
G1 Z0.400 F9000.000
G1 X43.242 Y100.711
G1 Z0.200
G1 E3.20000 F2400.00000
M204 S800
G1 F1200.000
G1 X43.242 Y97.919 E0.08756
G1 X43.051 Y97.919 E0.00599
G1 X42.696 Y98.273 E0.01573
G1 X42.696 Y97.949 E0.01018
G1 X42.488 Y97.949 E0.00653
G1 X42.488 Y100.711 E0.08661
M204 S1250
G1 E-2.24000 F4200.00000
G1 F7200.000
G1 X42.488 Y99.065 E-0.91200
G1 E-0.04800 F4200.00000
G1 Z0.400 F9000.000
G1 X39.292 Y96.783
G1 Z0.200
G1 E3.20000 F2400.00000
M204 S800
G1 F1200.000
G1 X39.292 Y103.842 E0.18025
G1 X39.799 Y103.842 E0.01295
G1 X39.799 Y96.921 E0.17673
G1 X40.306 Y96.921 E0.01295
G1 X40.306 Y103.842 E0.17673
G1 X40.813 Y103.842 E0.01295
G1 X40.813 Y96.921 E0.17673
G1 X41.320 Y96.921 E0.01295
G1 X41.320 Y103.981 E0.18025
M204 S1250
G1 X42.488 Y102.668 F9000.000
M204 S800
G1 F1200.000
G1 X42.488 Y101.185 E0.04651
G1 X43.242 Y101.185 E0.02365
G1 X43.242 Y103.534 E0.07367
G1 X43.996 Y104.715 E0.04394
G1 X43.996 Y102.541 E0.06819
G1 X44.209 Y102.897 E0.01301
G1 X44.209 Y103.492 E0.01866
G1 X44.565 Y103.492 E0.01115
G1 X44.750 Y103.802 E0.01135
G1 X44.750 Y105.897 E0.06566
G1 X45.505 Y107.078 E0.04394
G1 X45.505 Y105.064 E0.06313
G1 X46.259 Y106.324 E0.04604
G1 X46.259 Y108.259 E0.06067
G1 X47.013 Y109.418 E0.04336
G1 X47.013 Y108.106 E0.04116
G1 X47.331 Y108.106 E0.00996
G1 X47.767 Y108.831 E0.02654
G1 X47.767 Y110.577 E0.05473
G1 X48.521 Y111.735 E0.04334
G1 X48.521 Y110.085 E0.05174
G1 X49.275 Y111.334 E0.04577
G1 X49.275 Y112.893 E0.04887
G1 X50.030 Y114.051 E0.04334
G1 X50.030 Y112.580 E0.04615
G1 X50.784 Y113.825 E0.04565
G1 X50.784 Y115.197 E0.04302
G1 X51.168 Y115.772 E0.02168
G1 X51.499 Y115.550 E0.01250
G1 X51.538 Y115.610 E0.00223
G1 X51.538 Y115.064 E0.01711
G1 X52.292 Y116.301 E0.04543
G1 X52.292 Y116.783 E0.01512
G1 X53.046 Y117.949 E0.04354
G1 X53.046 Y117.532 E0.01307
G1 X53.800 Y118.761 E0.04519
G1 X53.800 Y119.107 E0.01087
G1 X54.555 Y120.257 E0.04310
G1 X54.555 Y119.982 E0.00862
G1 X55.309 Y121.196 E0.04482
G1 X55.309 Y121.395 E0.00623
G1 X56.063 Y122.521 E0.04249
G1 X56.063 Y122.402 E0.00373
G1 X56.817 Y123.596 E0.04429
G1 X56.817 Y123.930 E0.01047
M204 S1250
G1 X57.040 Y124.744 F9000.000
M204 S800
G1 F1200.000
G1 X57.040 Y124.557 E0.00478
G1 X56.533 Y123.821 E0.02283
G1 X56.533 Y124.606 E0.02005
G1 X56.026 Y124.606 E0.01295
G1 X56.026 Y123.077 E0.03905
G1 X55.519 Y122.325 E0.02316
G1 X55.519 Y124.606 E0.05825
G1 X55.394 Y124.606 E0.00319
