; generated by PrusaSlicer 2.2.0+ on 2022-05-16 at 16:54:40 UTC


;
;

;
;
; 

; external perimeters extrusion width = 0.45mm
; perimeters extrusion width = 0.45mm
; infill extrusion width = 0.45mm
; solid infill extrusion width = 0.45mm
; top infill extrusion width = 0.40mm
; first layer extrusion width = 0.42mm

M73 P0 R151
M201 X1250 Y1250 Z400 E5000 ; sets maximum accelerations, mm/sec^2
M203 X180 Y180 Z12 E80 ; sets maximum feedrates, mm/sec
M204 P1250 R1250 T1250 ; sets acceleration (P, T) and retract acceleration (R), mm/sec^2
M205 X8.00 Y8.00 Z2.00 E10.00 ; sets the jerk limits, mm/sec
M205 S0 T0 ; sets the minimum extruding and travel feed rate, mm/sec
M107
G90 ; use absolute coordinates
M83 ; extruder relative mode
M104 S170 ; set extruder temp for bed leveling
M140 S60 ; set bed temp
M109 R170 ; wait for bed leveling temp
M190 S60 ; wait for bed temp
G28 ; home all without mesh bed level
G29 ; mesh bed leveling 
M104 S215 ; set extruder temp
G92 E0.0
G1 Y-2.0 X179 F2400
G1 Z3 F720
M109 S215 ; wait for extruder temp

; intro line
G1 X170 F1000
G1 Z0.2 F720
G1 X110.0 E8.0 F900
M73 P0 R151
G1 X40.0 E10.0 F700
G92 E0.0

M221 S95 ; set flow
G21 ; set units to millimeters
G90 ; use absolute coordinates
M83 ; use relative distances for extrusion
M900 K0.2 ; Filament gcode LA 1.5
; ; Filament gcode LA 1.0
;BEFORE_LAYER_CHANGE
G92 E0.0
;0.2


G1 Z0.200 F9000.000
;AFTER_LAYER_CHANGE
;0.2
G1 E-3.20000 F4200.00000
G1 Z0.400 F9000.000
G1 X31.298 Y77.313
G1 Z0.200
G1 E3.20000 F2400.00000
M204 S800
G1 F1200.000
G1 X37.840 Y62.524 E0.50705
G1 X40.873 Y55.942 E0.22721
G1 X43.456 Y50.574 E0.18680
G1 X45.301 Y46.972 E0.12688
G1 X46.861 Y44.202 E0.09968
G1 X48.034 Y42.387 E0.06776
G1 X49.992 Y39.752 E0.10292
G1 X51.012 Y38.659 E0.04687
G1 X52.135 Y37.681 E0.04671
G1 X53.363 Y36.819 E0.04705
G1 X54.492 Y36.180 E0.04066
G1 X55.849 Y35.577 E0.04657
G1 X57.281 Y35.112 E0.04719
G1 X58.749 Y34.800 E0.04706
G1 X60.242 Y34.643 E0.04707
G1 X143.004 Y34.623 E2.59494
G1 X144.273 Y34.679 E0.03983
G1 X145.723 Y34.883 E0.04592
G1 X146.962 Y35.180 E0.03992
G1 X148.154 Y35.578 E0.03942
G1 X149.321 Y36.087 E0.03992
G1 X150.601 Y36.797 E0.04590
G1 X151.651 Y37.517 E0.03991
G1 X152.621 Y38.317 E0.03945
G1 X153.524 Y39.205 E0.03972
G1 X154.469 Y40.330 E0.04605
G1 X155.186 Y41.372 E0.03965
G1 X155.808 Y42.470 E0.03957
G1 X156.334 Y43.623 E0.03974
G1 X156.812 Y45.008 E0.04592
G1 X157.113 Y46.255 E0.04023
G1 X157.299 Y47.499 E0.03943
G1 X157.377 Y48.992 E0.04689
G1 X157.368 Y131.499 E2.58693
G1 X157.270 Y132.748 E0.03930
G1 X157.068 Y133.965 E0.03868
G1 X156.423 Y136.150 E0.07145
G1 X155.927 Y137.292 E0.03901
G1 X155.336 Y138.384 E0.03895
G1 X154.008 Y140.247 E0.07174
G1 X152.986 Y141.344 E0.04700
G1 X151.835 Y142.342 E0.04775
G1 X150.423 Y143.313 E0.05375
G1 X149.095 Y144.021 E0.04719
G1 X147.682 Y144.593 E0.04778
G1 X146.236 Y145.008 E0.04718
G1 X144.751 Y145.270 E0.04728
G1 X143.249 Y145.375 E0.04720
G1 X60.492 Y145.368 E2.59478
G1 X59.250 Y145.270 E0.03908
G1 X58.032 Y145.067 E0.03871
G1 X55.846 Y144.422 E0.07145
G1 X54.699 Y143.923 E0.03924
G1 X53.613 Y143.334 E0.03872
G1 X51.748 Y142.004 E0.07183
G1 X50.832 Y141.165 E0.03895
G1 X49.991 Y140.247 E0.03903
G1 X47.952 Y137.496 E0.10737
G1 X46.381 Y134.982 E0.09295
G1 X44.451 Y131.401 E0.12755
G1 X41.297 Y124.957 E0.22495
G1 X36.995 Y115.606 E0.32274
G1 X31.387 Y102.933 E0.43451
G1 X31.197 Y102.041 E0.02860
G1 X31.197 Y77.989 E0.75413
G1 X31.289 Y77.372 E0.01954
M204 S1250
; printing object AP10_HingeFixture3.stl id:0 copy 0
G1 E-2.24000 F4200.00000
G1 F7200.000
G1 X31.954 Y75.867 E-0.91200
G1 E-0.04800 F4200.00000
G1 Z0.400 F9000.000
G1 X51.215 Y77.371
G1 Z0.200
G1 E3.20000 F2400.00000
M204 S800
G1 F1200.000
G1 X51.213 Y48.989 E0.88990
G1 X51.236 Y48.315 E0.02115
G1 X51.332 Y47.474 E0.02654
G1 X51.427 Y46.965 E0.01622
G1 X51.546 Y46.467 E0.01607
G1 X51.692 Y45.976 E0.01607
G1 X51.864 Y45.488 E0.01623
G1 X52.203 Y44.709 E0.02661
G1 X52.608 Y43.963 E0.02661
G1 X52.886 Y43.527 E0.01623
G1 X53.187 Y43.106 E0.01623
G1 X53.727 Y42.451 E0.02662
G1 X54.325 Y41.842 E0.02676
G1 X54.971 Y41.290 E0.02664
G1 X55.386 Y40.983 E0.01620
G1 X55.818 Y40.697 E0.01623
G1 X56.557 Y40.279 E0.02661
G1 X57.329 Y39.927 E0.02661
G1 X57.814 Y39.746 E0.01623
G1 X58.307 Y39.590 E0.01623
G1 X59.132 Y39.392 E0.02661
G1 X59.973 Y39.267 E0.02665
G1 X60.488 Y39.226 E0.01619
G1 X60.991 Y39.213 E0.01580
G1 X143.339 Y39.219 E2.58195
G1 X143.853 Y39.250 E0.01615
G1 X144.367 Y39.309 E0.01623
G1 X145.197 Y39.462 E0.02645
G1 X145.698 Y39.592 E0.01622
G1 X146.186 Y39.746 E0.01607
G1 X146.666 Y39.925 E0.01607
G1 X147.141 Y40.132 E0.01623
G1 X147.889 Y40.521 E0.02645
G1 X148.331 Y40.792 E0.01622
G1 X148.753 Y41.082 E0.01607
G1 X149.159 Y41.394 E0.01607
G1 X149.549 Y41.727 E0.01606
G1 X149.921 Y42.079 E0.01607
G1 X150.277 Y42.455 E0.01623
G1 X150.817 Y43.110 E0.02661
G1 X151.300 Y43.813 E0.02677
G1 X151.721 Y44.556 E0.02677
G1 X152.075 Y45.334 E0.02678
G1 X152.360 Y46.138 E0.02677
G1 X152.574 Y46.965 E0.02678
G1 X152.715 Y47.807 E0.02676
G1 X152.781 Y48.657 E0.02673
G1 X152.787 Y131.009 E2.58207
G1 X152.774 Y131.512 E0.01580
G1 X152.734 Y132.023 E0.01607
G1 X152.667 Y132.531 E0.01606
G1 X152.573 Y133.035 E0.01607
G1 X152.454 Y133.533 E0.01607
G1 X152.308 Y134.024 E0.01606
G1 X152.137 Y134.507 E0.01606
G1 X151.941 Y134.981 E0.01606
G1 X151.721 Y135.443 E0.01607
G1 X151.476 Y135.894 E0.01607
G1 X151.208 Y136.330 E0.01606
G1 X150.918 Y136.753 E0.01607
G1 X150.606 Y137.159 E0.01607
G1 X150.273 Y137.549 E0.01606
G1 X149.921 Y137.921 E0.01607
G1 X149.545 Y138.277 E0.01623
G1 X148.890 Y138.817 E0.02661
G1 X148.187 Y139.300 E0.02677
G1 X147.444 Y139.721 E0.02678
G1 X146.667 Y140.075 E0.02677
G1 X145.862 Y140.360 E0.02677
G1 X145.035 Y140.574 E0.02677
G1 X144.193 Y140.715 E0.02677
G1 X143.344 Y140.781 E0.02669
G1 X60.991 Y140.787 E2.58211
G1 X60.488 Y140.774 E0.01580
G1 X59.977 Y140.734 E0.01607
G1 X59.469 Y140.667 E0.01606
G1 X58.965 Y140.573 E0.01607
G1 X58.467 Y140.454 E0.01607
G1 X57.976 Y140.308 E0.01606
G1 X57.493 Y140.137 E0.01607
G1 X57.019 Y139.941 E0.01607
G1 X56.557 Y139.721 E0.01607
G1 X56.106 Y139.476 E0.01607
G1 X55.669 Y139.208 E0.01606
G1 X55.247 Y138.918 E0.01607
G1 X54.841 Y138.606 E0.01607
G1 X54.451 Y138.273 E0.01606
G1 X54.079 Y137.921 E0.01607
G1 X53.723 Y137.545 E0.01623
G1 X53.183 Y136.890 E0.02661
G1 X52.700 Y136.187 E0.02677
G1 X52.279 Y135.443 E0.02677
G1 X51.925 Y134.667 E0.02677
G1 X51.640 Y133.862 E0.02678
G1 X51.426 Y133.035 E0.02677
G1 X51.285 Y132.193 E0.02677
G1 X51.219 Y131.344 E0.02669
G1 X51.215 Y77.431 E1.69041
M204 S1250
G1 X51.592 Y77.431 F9000.000
M204 S800
G1 F1200.000
G1 X51.590 Y48.995 E0.89157
G1 X51.613 Y48.343 E0.02048
G1 X51.706 Y47.529 E0.02566
G1 X51.796 Y47.044 E0.01549
G1 X51.911 Y46.564 E0.01545
G1 X52.050 Y46.092 E0.01545
G1 X52.216 Y45.626 E0.01550
G1 X52.542 Y44.875 E0.02568
G1 X52.933 Y44.155 E0.02568
G1 X53.199 Y43.738 E0.01550
G1 X53.486 Y43.335 E0.01550
G1 X54.007 Y42.703 E0.02569
G1 X54.582 Y42.118 E0.02573
G1 X55.206 Y41.585 E0.02571
G1 X55.603 Y41.292 E0.01547
G1 X56.015 Y41.019 E0.01550
G1 X56.728 Y40.615 E0.02568
G1 X57.473 Y40.276 E0.02568
G1 X57.936 Y40.103 E0.01550
G1 X58.408 Y39.954 E0.01550
G1 X59.204 Y39.763 E0.02568
G1 X60.016 Y39.642 E0.02572
G1 X60.508 Y39.603 E0.01547
G1 X60.996 Y39.590 E0.01533
G1 X143.328 Y39.596 E2.58143
G1 X143.820 Y39.626 E0.01547
G1 X144.311 Y39.682 E0.01551
G1 X145.115 Y39.831 E0.02562
G1 X145.594 Y39.954 E0.01550
G1 X146.064 Y40.103 E0.01545
G1 X146.525 Y40.275 E0.01545
G1 X146.979 Y40.472 E0.01550
G1 X147.703 Y40.850 E0.02562
G1 X148.125 Y41.108 E0.01550
G1 X148.531 Y41.387 E0.01545
G1 X148.922 Y41.687 E0.01545
G1 X149.297 Y42.007 E0.01545
G1 X149.654 Y42.346 E0.01545
G1 X149.994 Y42.705 E0.01550
G1 X150.515 Y43.337 E0.02568
G1 X150.980 Y44.013 E0.02574
G1 X151.385 Y44.728 E0.02574
G1 X151.725 Y45.475 E0.02574
G1 X151.999 Y46.249 E0.02574
G1 X152.205 Y47.044 E0.02575
G1 X152.340 Y47.853 E0.02573
G1 X152.404 Y48.672 E0.02575
G1 X152.410 Y131.004 E2.58146
G1 X152.397 Y131.492 E0.01533
G1 X152.359 Y131.984 E0.01545
G1 X152.294 Y132.472 E0.01544
G1 X152.204 Y132.956 E0.01545
G1 X152.089 Y133.436 E0.01545
G1 X151.950 Y133.908 E0.01544
G1 X151.785 Y134.372 E0.01544
G1 X151.597 Y134.827 E0.01545
G1 X151.384 Y135.272 E0.01545
G1 X151.149 Y135.705 E0.01545
G1 X150.892 Y136.125 E0.01544
G1 X150.613 Y136.531 E0.01545
G1 X150.313 Y136.922 E0.01545
G1 X149.993 Y137.297 E0.01544
G1 X149.654 Y137.654 E0.01545
G1 X149.295 Y137.994 E0.01550
G1 X148.663 Y138.515 E0.02568
G1 X147.987 Y138.980 E0.02574
G1 X147.272 Y139.385 E0.02574
G1 X146.525 Y139.725 E0.02574
G1 X145.751 Y139.999 E0.02574
G1 X144.956 Y140.205 E0.02574
G1 X144.147 Y140.340 E0.02574
M73 P0 R150
G1 X143.329 Y140.404 E0.02571
G1 X60.996 Y140.410 E2.58149
G1 X60.508 Y140.397 E0.01533
G1 X60.016 Y140.359 E0.01545
G1 X59.528 Y140.294 E0.01544
G1 X59.044 Y140.204 E0.01545
G1 X58.565 Y140.089 E0.01545
G1 X58.092 Y139.950 E0.01545
G1 X57.628 Y139.785 E0.01545
G1 X57.173 Y139.597 E0.01545
G1 X56.728 Y139.384 E0.01545
G1 X56.295 Y139.149 E0.01545
G1 X55.875 Y138.892 E0.01545
G1 X55.469 Y138.613 E0.01545
G1 X55.078 Y138.313 E0.01545
G1 X54.703 Y137.993 E0.01545
G1 X54.346 Y137.654 E0.01545
G1 X54.006 Y137.295 E0.01550
G1 X53.485 Y136.663 E0.02568
G1 X53.020 Y135.987 E0.02574
G1 X52.615 Y135.272 E0.02574
G1 X52.275 Y134.525 E0.02574
G1 X52.001 Y133.751 E0.02574
G1 X51.795 Y132.956 E0.02574
G1 X51.660 Y132.147 E0.02574
G1 X51.596 Y131.329 E0.02571
G1 X51.592 Y77.491 E1.68807
M204 S1250
G1 X51.245 Y77.231 F9000.000
G1 E-2.24000 F4200.00000
G1 F7200.000
G1 X51.592 Y75.845 E-0.91200
G1 E-0.04800 F4200.00000
G1 Z0.400 F9000.000
G1 X49.787 Y98.787
G1 Z0.200
G1 E3.20000 F2400.00000
M204 S800
G1 F1200.000
G1 X49.787 Y93.213 E0.17477
G1 X36.244 Y93.213 E0.42462
G1 X36.244 Y90.787 E0.07606
G1 X49.787 Y90.787 E0.42462
G1 X49.787 Y85.213 E0.17477
G1 X36.244 Y85.213 E0.42462
G1 X36.244 Y82.787 E0.07606
G1 X49.787 Y82.787 E0.42462
G1 X49.787 Y77.213 E0.17477
G1 X36.628 Y77.213 E0.41258
G1 X42.432 Y63.092 E0.47868
G1 X44.788 Y57.465 E0.19129
G1 X46.749 Y52.862 E0.15685
G1 X48.387 Y49.122 E0.12802
G1 X49.500 Y46.692 E0.08381
G1 X50.433 Y44.805 E0.06601
G1 X50.833 Y44.075 E0.02610
G1 X51.185 Y43.488 E0.02146
G1 X51.585 Y42.885 E0.02269
G1 X52.163 Y42.098 E0.03061
G1 X52.667 Y41.497 E0.02459
G1 X53.213 Y40.933 E0.02462
G1 X53.642 Y40.539 E0.01824
G1 X54.252 Y40.045 E0.02462
G1 X54.893 Y39.596 E0.02454
G1 X55.564 Y39.193 E0.02454
G1 X56.261 Y38.838 E0.02454
G1 X56.982 Y38.532 E0.02454
G1 X57.722 Y38.277 E0.02454
G1 X58.478 Y38.075 E0.02454
G1 X59.249 Y37.925 E0.02462
G1 X59.825 Y37.849 E0.01824
G1 X60.611 Y37.794 E0.02469
G1 X142.993 Y37.787 E2.58304
G1 X143.587 Y37.803 E0.01862
G1 X144.172 Y37.849 E0.01841
G1 X144.754 Y37.925 E0.01841
G1 X145.331 Y38.032 E0.01840
G1 X145.902 Y38.169 E0.01841
G1 X146.465 Y38.336 E0.01841
G1 X147.013 Y38.530 E0.01825
G1 X147.915 Y38.922 E0.03083
G1 X148.779 Y39.392 E0.03083
G1 X149.270 Y39.704 E0.01824
G1 X149.748 Y40.045 E0.01841
G1 X150.207 Y40.411 E0.01840
G1 X150.647 Y40.800 E0.01841
G1 X151.066 Y41.211 E0.01840
G1 X151.459 Y41.640 E0.01825
G1 X152.071 Y42.410 E0.03083
G1 X152.611 Y43.225 E0.03067
G1 X153.078 Y44.085 E0.03067
G1 X153.469 Y44.984 E0.03075
G1 X153.722 Y45.719 E0.02438
G1 X153.967 Y46.669 E0.03075
G1 X154.129 Y47.634 E0.03067
G1 X154.206 Y48.611 E0.03075
G1 X154.211 Y131.193 E2.58930
G1 X154.185 Y131.782 E0.01849
G1 X154.129 Y132.366 E0.01840
G1 X154.042 Y132.947 E0.01841
G1 X153.925 Y133.522 E0.01841
G1 X153.778 Y134.091 E0.01841
G1 X153.602 Y134.650 E0.01841
G1 X153.396 Y135.200 E0.01841
G1 X153.162 Y135.739 E0.01841
G1 X152.900 Y136.264 E0.01840
G1 X152.611 Y136.775 E0.01841
G1 X152.296 Y137.270 E0.01841
G1 X151.955 Y137.748 E0.01841
G1 X151.589 Y138.207 E0.01840
G1 X151.200 Y138.647 E0.01841
G1 X150.789 Y139.066 E0.01840
G1 X150.360 Y139.459 E0.01824
G1 X149.590 Y140.071 E0.03083
G1 X148.775 Y140.611 E0.03067
G1 X147.915 Y141.078 E0.03067
G1 X147.016 Y141.469 E0.03075
G1 X146.281 Y141.722 E0.02438
G1 X145.331 Y141.967 E0.03075
G1 X144.366 Y142.129 E0.03067
G1 X143.389 Y142.206 E0.03075
G1 X60.807 Y142.211 E2.58930
G1 X60.218 Y142.185 E0.01848
G1 X59.634 Y142.129 E0.01840
G1 X59.051 Y142.042 E0.01846
G1 X58.478 Y141.925 E0.01835
G1 X57.909 Y141.778 E0.01841
G1 X57.349 Y141.602 E0.01840
G1 X56.800 Y141.396 E0.01841
G1 X56.261 Y141.162 E0.01841
G1 X55.736 Y140.900 E0.01840
G1 X55.225 Y140.611 E0.01841
G1 X54.730 Y140.296 E0.01841
G1 X54.252 Y139.955 E0.01841
G1 X53.793 Y139.589 E0.01841
G1 X53.353 Y139.200 E0.01841
G1 X52.934 Y138.789 E0.01840
G1 X52.538 Y138.356 E0.01840
G1 X52.165 Y137.904 E0.01838
G1 X51.577 Y137.105 E0.03109
G1 X51.152 Y136.460 E0.02422
G1 X50.694 Y135.679 E0.02837
G1 X50.229 Y134.801 E0.03117
G1 X49.730 Y133.790 E0.03536
G1 X48.387 Y130.877 E0.10057
G1 X46.229 Y125.927 E0.16932
G1 X43.766 Y120.104 E0.19823
G1 X40.617 Y112.523 E0.25739
G1 X36.244 Y101.845 E0.36179
G1 X36.244 Y98.787 E0.09589
G1 X49.727 Y98.787 E0.42274
M204 S1250
G1 X49.410 Y98.410 F9000.000
M204 S800
G1 F1200.000
G1 X49.410 Y93.590 E0.15113
G1 X35.867 Y93.590 E0.42462
G1 X35.867 Y90.410 E0.09971
G1 X49.410 Y90.410 E0.42462
G1 X49.410 Y85.590 E0.15113
G1 X35.867 Y85.590 E0.42462
G1 X35.867 Y82.410 E0.09971
G1 X49.410 Y82.410 E0.42462
G1 X49.410 Y77.590 E0.15113
G1 X36.067 Y77.590 E0.41835
G1 X37.799 Y73.342 E0.14385
G1 X42.084 Y62.948 E0.35250
G1 X44.440 Y57.318 E0.19136
G1 X46.403 Y52.713 E0.15695
G1 X48.043 Y48.968 E0.12818
G1 X49.159 Y46.530 E0.08408
G1 X50.098 Y44.631 E0.06644
G1 X50.506 Y43.887 E0.02658
G1 X50.866 Y43.286 E0.02196
G1 X51.276 Y42.668 E0.02325
G1 X51.867 Y41.865 E0.03127
G1 X52.387 Y41.245 E0.02538
G1 X52.950 Y40.662 E0.02539
G1 X53.396 Y40.254 E0.01897
G1 X54.025 Y39.744 E0.02539
G1 X54.688 Y39.280 E0.02536
G1 X55.381 Y38.863 E0.02536
G1 X56.102 Y38.496 E0.02536
G1 X56.847 Y38.180 E0.02536
G1 X57.611 Y37.917 E0.02536
G1 X58.393 Y37.707 E0.02537
G1 X59.188 Y37.553 E0.02539
G1 X59.788 Y37.474 E0.01897
G1 X60.596 Y37.417 E0.02542
G1 X142.998 Y37.410 E2.58365
G1 X143.607 Y37.426 E0.01908
G1 X144.211 Y37.474 E0.01903
G1 X144.813 Y37.553 E0.01902
G1 X145.410 Y37.663 E0.01902
G1 X146.000 Y37.805 E0.01903
G1 X146.581 Y37.977 E0.01902
G1 X147.152 Y38.179 E0.01897
G1 X148.081 Y38.583 E0.03176
G1 X148.971 Y39.066 E0.03176
G1 X149.481 Y39.392 E0.01897
G1 X149.975 Y39.744 E0.01903
G1 X150.450 Y40.122 E0.01902
G1 X150.904 Y40.524 E0.01903
G1 X151.337 Y40.949 E0.01902
G1 X151.746 Y41.395 E0.01897
G1 X152.376 Y42.188 E0.03176
G1 X152.934 Y43.031 E0.03170
G1 X153.417 Y43.919 E0.03170
G1 X153.820 Y44.847 E0.03173
G1 X154.083 Y45.611 E0.02531
G1 X154.337 Y46.590 E0.03173
G1 X154.503 Y47.588 E0.03170
G1 X154.583 Y48.596 E0.03173
G1 X154.588 Y131.201 E2.59002
G1 X154.562 Y131.808 E0.01905
G1 X154.504 Y132.412 E0.01902
G1 X154.414 Y133.013 E0.01903
G1 X154.293 Y133.607 E0.01902
G1 X154.141 Y134.195 E0.01903
G1 X153.958 Y134.773 E0.01902
G1 X153.746 Y135.342 E0.01903
G1 X153.504 Y135.898 E0.01902
G1 X153.233 Y136.441 E0.01902
G1 X152.935 Y136.969 E0.01903
G1 X152.608 Y137.481 E0.01902
G1 X152.256 Y137.975 E0.01903
G1 X151.878 Y138.450 E0.01902
G1 X151.476 Y138.904 E0.01903
G1 X151.051 Y139.337 E0.01902
G1 X150.605 Y139.746 E0.01897
G1 X149.812 Y140.376 E0.03176
G1 X148.969 Y140.934 E0.03170
G1 X148.081 Y141.417 E0.03170
G1 X147.153 Y141.820 E0.03173
G1 X146.389 Y142.083 E0.02530
G1 X145.410 Y142.337 E0.03173
G1 X144.412 Y142.503 E0.03170
G1 X143.404 Y142.583 E0.03173
G1 X60.799 Y142.588 E2.59002
G1 X60.192 Y142.562 E0.01905
G1 X59.588 Y142.504 E0.01902
G1 X58.986 Y142.414 E0.01908
G1 X58.393 Y142.293 E0.01897
G1 X57.805 Y142.141 E0.01903
G1 X57.227 Y141.958 E0.01902
G1 X56.658 Y141.746 E0.01903
G1 X56.102 Y141.504 E0.01903
G1 X55.559 Y141.233 E0.01902
G1 X55.031 Y140.934 E0.01903
G1 X54.519 Y140.608 E0.01903
G1 X54.025 Y140.256 E0.01902
G1 X53.550 Y139.878 E0.01902
G1 X53.096 Y139.476 E0.01903
G1 X52.663 Y139.051 E0.01902
G1 X52.253 Y138.604 E0.01902
G1 X51.867 Y138.136 E0.01902
G1 X51.268 Y137.321 E0.03172
G1 X50.832 Y136.659 E0.02484
G1 X50.365 Y135.863 E0.02893
