; generated by PrusaSlicer 2.2.0+ on 2022-03-12 at 17:33:10 UTC


;
;

;
;
; 

; external perimeters extrusion width = 0.45mm
; perimeters extrusion width = 0.45mm
; infill extrusion width = 0.45mm
; solid infill extrusion width = 0.45mm
; top infill extrusion width = 0.40mm
; first layer extrusion width = 0.42mm

M73 P0 R122
M201 X1250 Y1250 Z400 E5000 ; sets maximum accelerations, mm/sec^2
M203 X180 Y180 Z12 E80 ; sets maximum feedrates, mm/sec
M204 P1250 R1250 T1250 ; sets acceleration (P, T) and retract acceleration (R), mm/sec^2
M205 X8.00 Y8.00 Z2.00 E10.00 ; sets the jerk limits, mm/sec
M205 S0 T0 ; sets the minimum extruding and travel feed rate, mm/sec
M107
G90 ; use absolute coordinates
M83 ; extruder relative mode
M104 S170 ; set extruder temp for bed leveling
M140 S60 ; set bed temp
M109 R170 ; wait for bed leveling temp
M190 S60 ; wait for bed temp
G28 ; home all without mesh bed level
G29 ; mesh bed leveling 
M104 S215 ; set extruder temp
G92 E0.0
G1 Y-2.0 X179 F2400
G1 Z3 F720
M109 S215 ; wait for extruder temp

; intro line
G1 X170 F1000
G1 Z0.2 F720
G1 X110.0 E8.0 F900
M73 P0 R122
G1 X40.0 E10.0 F700
G92 E0.0

M221 S95 ; set flow
G21 ; set units to millimeters
G90 ; use absolute coordinates
M83 ; use relative distances for extrusion
M900 K0.2 ; Filament gcode LA 1.5
; ; Filament gcode LA 1.0
;BEFORE_LAYER_CHANGE
G92 E0.0
;0.2


G1 Z0.200 F9000.000
;AFTER_LAYER_CHANGE
;0.2
G1 E-3.20000 F4200.00000
G1 Z0.400 F9000.000
G1 X51.264 Y51.907
G1 Z0.200
G1 E3.20000 F2400.00000
M204 S800
G1 F1200.000
G1 X52.473 Y50.799 E0.05144
G1 X53.956 Y49.910 E0.05421
G1 X55.491 Y49.367 E0.05103
G1 X57.196 Y49.129 E0.05399
G1 X122.504 Y49.123 E2.04768
G1 X124.080 Y49.273 E0.04964
G1 X125.519 Y49.686 E0.04693
G1 X126.941 Y50.397 E0.04984
G1 X128.201 Y51.363 E0.04980
G1 X129.201 Y52.473 E0.04686
G1 X130.029 Y53.828 E0.04979
G1 X130.587 Y55.315 E0.04979
G1 X130.847 Y56.791 E0.04699
G1 X130.872 Y122.781 E2.06906
G1 X130.694 Y124.241 E0.04612
G1 X130.269 Y125.634 E0.04567
G1 X129.605 Y126.937 E0.04587
G1 X128.736 Y128.093 E0.04534
G1 X127.425 Y129.276 E0.05537
G1 X125.914 Y130.150 E0.05474
G1 X124.244 Y130.693 E0.05504
G1 X122.520 Y130.877 E0.05436
G1 X57.219 Y130.872 E2.04747
G1 X55.759 Y130.694 E0.04612
G1 X54.366 Y130.269 E0.04567
G1 X53.063 Y129.605 E0.04587
G1 X51.907 Y128.736 E0.04534
G1 X50.724 Y127.425 E0.05537
G1 X49.850 Y125.914 E0.05474
G1 X49.307 Y124.244 E0.05504
G1 X49.123 Y122.520 E0.05436
G1 X49.128 Y57.219 E2.04747
G1 X49.306 Y55.759 E0.04612
G1 X49.731 Y54.366 E0.04567
G1 X50.395 Y53.063 E0.04587
G1 X51.228 Y51.955 E0.04346
M204 S1250
; printing object ZaunPixel_AP9Adapter.stl id:0 copy 0
G1 E-2.24000 F4200.00000
G1 F7200.000
G1 X52.434 Y50.835 E-0.91200
G1 E-0.04800 F4200.00000
G1 Z0.400 F9000.000
G1 X99.276 Y83.036
G1 Z0.200
G1 E3.20000 F2400.00000
M204 S800
G1 F1200.000
G1 X99.655 Y82.484 E0.02099
G1 X100.065 Y81.949 E0.02115
G1 X100.798 Y81.121 E0.03466
G1 X101.279 Y80.648 E0.02115
G1 X101.780 Y80.204 E0.02099
G1 X102.304 Y79.788 E0.02099
G1 X102.849 Y79.399 E0.02099
G1 X103.414 Y79.039 E0.02099
G1 X104.001 Y78.707 E0.02115
G1 X104.999 Y78.231 E0.03466
G1 X105.627 Y77.984 E0.02115
G1 X106.266 Y77.770 E0.02115
G1 X107.341 Y77.492 E0.03482
G1 X108.437 Y77.308 E0.03482
G1 X109.108 Y77.244 E0.02115
G1 X109.782 Y77.214 E0.02115
G1 X110.887 Y77.243 E0.03466
G1 X111.558 Y77.308 E0.02115
G1 X112.226 Y77.408 E0.02115
G1 X113.305 Y77.647 E0.03465
G1 X113.952 Y77.839 E0.02115
G1 X114.583 Y78.062 E0.02099
G1 X115.201 Y78.318 E0.02099
G1 X115.810 Y78.609 E0.02115
G1 X116.772 Y79.153 E0.03466
G1 X117.334 Y79.525 E0.02115
G1 X117.873 Y79.923 E0.02099
G1 X118.389 Y80.349 E0.02099
G1 X118.883 Y80.802 E0.02099
G1 X119.352 Y81.279 E0.02099
G1 X119.796 Y81.780 E0.02099
G1 X120.212 Y82.304 E0.02099
G1 X120.601 Y82.849 E0.02099
G1 X120.961 Y83.414 E0.02099
G1 X121.293 Y84.001 E0.02115
G1 X121.769 Y84.999 E0.03466
G1 X122.016 Y85.627 E0.02115
G1 X122.230 Y86.266 E0.02115
G1 X122.508 Y87.341 E0.03482
G1 X122.692 Y88.436 E0.03482
G1 X122.756 Y89.108 E0.02115
G1 X122.786 Y89.782 E0.02115
G1 X122.757 Y90.887 E0.03466
G1 X122.692 Y91.558 E0.02115
G1 X122.592 Y92.226 E0.02115
G1 X122.353 Y93.305 E0.03465
G1 X122.161 Y93.951 E0.02115
G1 X121.938 Y94.583 E0.02099
G1 X121.682 Y95.201 E0.02099
G1 X121.391 Y95.810 E0.02115
G1 X120.847 Y96.772 E0.03466
G1 X120.475 Y97.335 E0.02115
G1 X120.077 Y97.873 E0.02099
G1 X119.651 Y98.389 E0.02099
G1 X119.198 Y98.883 E0.02099
G1 X118.721 Y99.352 E0.02099
G1 X118.220 Y99.796 E0.02099
G1 X117.696 Y100.212 E0.02099
G1 X117.157 Y100.597 E0.02076
G1 X116.204 Y101.182 E0.03504
G1 X115.606 Y101.493 E0.02116
G1 X114.996 Y101.771 E0.02099
G1 X114.373 Y102.016 E0.02099
G1 X113.734 Y102.230 E0.02115
G1 X112.659 Y102.508 E0.03482
G1 X111.563 Y102.692 E0.03482
G1 X110.892 Y102.756 E0.02115
G1 X110.218 Y102.786 E0.02115
G1 X109.113 Y102.757 E0.03466
G1 X108.442 Y102.692 E0.02115
G1 X107.774 Y102.592 E0.02115
G1 X106.695 Y102.353 E0.03465
G1 X106.048 Y102.161 E0.02115
G1 X105.417 Y101.938 E0.02099
G1 X104.799 Y101.682 E0.02099
G1 X104.190 Y101.391 E0.02115
G1 X103.228 Y100.847 E0.03466
G1 X102.666 Y100.475 E0.02115
G1 X102.127 Y100.077 E0.02099
G1 X101.611 Y99.651 E0.02099
G1 X101.113 Y99.195 E0.02115
G1 X100.353 Y98.393 E0.03466
G1 X99.923 Y97.873 E0.02115
G1 X99.522 Y97.330 E0.02115
G1 X98.928 Y96.398 E0.03466
G1 X98.606 Y95.805 E0.02115
G1 X98.318 Y95.201 E0.02099
G1 X98.062 Y94.583 E0.02099
G1 X97.839 Y93.951 E0.02099
G1 X97.648 Y93.310 E0.02099
G1 X97.492 Y92.659 E0.02099
G1 X97.370 Y92.000 E0.02099
G1 X97.282 Y91.332 E0.02115
G1 X97.215 Y90.228 E0.03466
G1 X97.221 Y89.554 E0.02115
G1 X97.262 Y88.880 E0.02115
G1 X97.407 Y87.779 E0.03482
G1 X97.647 Y86.695 E0.03482
G1 X97.839 Y86.049 E0.02115
G1 X98.062 Y85.417 E0.02099
G1 X98.318 Y84.799 E0.02099
G1 X98.606 Y84.195 E0.02099
G1 X98.926 Y83.606 E0.02099
G1 X99.244 Y83.087 E0.01911
M204 S1250
G1 X99.566 Y83.284 F9000.000
M204 S800
G1 F1200.000
G1 X99.960 Y82.706 E0.02194
G1 X100.357 Y82.189 E0.02043
G1 X101.072 Y81.381 E0.03383
G1 X101.536 Y80.924 E0.02043
G1 X102.023 Y80.493 E0.02037
G1 X102.531 Y80.089 E0.02037
G1 X103.060 Y79.712 E0.02037
G1 X103.608 Y79.362 E0.02037
G1 X104.175 Y79.042 E0.02043
G1 X105.149 Y78.577 E0.03383
G1 X105.756 Y78.338 E0.02043
G1 X106.373 Y78.132 E0.02043
G1 X107.420 Y77.861 E0.03389
G1 X108.486 Y77.683 E0.03389
G1 X109.134 Y77.620 E0.02043
G1 X109.785 Y77.592 E0.02043
G1 X110.864 Y77.620 E0.03383
G1 X111.512 Y77.682 E0.02043
G1 X112.157 Y77.779 E0.02043
G1 X113.210 Y78.012 E0.03383
G1 X113.835 Y78.197 E0.02043
G1 X114.447 Y78.414 E0.02037
G1 X115.048 Y78.663 E0.02037
G1 X115.636 Y78.943 E0.02043
G1 X116.575 Y79.475 E0.03383
G1 X117.118 Y79.834 E0.02043
G1 X117.640 Y80.221 E0.02037
G1 X118.142 Y80.634 E0.02037
G1 X118.621 Y81.073 E0.02037
G1 X119.076 Y81.536 E0.02037
G1 X119.507 Y82.023 E0.02037
G1 X119.911 Y82.531 E0.02037
G1 X120.288 Y83.060 E0.02037
G1 X120.638 Y83.608 E0.02037
G1 X120.958 Y84.175 E0.02043
G1 X121.423 Y85.149 E0.03383
G1 X121.662 Y85.756 E0.02043
G1 X121.868 Y86.373 E0.02043
G1 X122.139 Y87.420 E0.03389
G1 X122.317 Y88.486 E0.03389
G1 X122.380 Y89.134 E0.02043
G1 X122.408 Y89.785 E0.02043
G1 X122.380 Y90.864 E0.03383
G1 X122.318 Y91.512 E0.02043
G1 X122.221 Y92.157 E0.02043
G1 X121.988 Y93.210 E0.03383
G1 X121.803 Y93.835 E0.02043
G1 X121.586 Y94.447 E0.02037
G1 X121.337 Y95.048 E0.02037
G1 X121.057 Y95.636 E0.02043
G1 X120.525 Y96.575 E0.03383
G1 X120.166 Y97.118 E0.02043
G1 X119.779 Y97.640 E0.02037
G1 X119.366 Y98.142 E0.02037
G1 X118.927 Y98.621 E0.02037
G1 X118.464 Y99.076 E0.02037
G1 X117.977 Y99.507 E0.02037
G1 X117.469 Y99.911 E0.02037
G1 X116.948 Y100.283 E0.02004
G1 X116.018 Y100.853 E0.03421
G1 X115.440 Y101.154 E0.02043
G1 X114.849 Y101.424 E0.02037
G1 X114.244 Y101.662 E0.02037
G1 X113.627 Y101.868 E0.02043
G1 X112.580 Y102.139 E0.03389
G1 X111.514 Y102.317 E0.03389
G1 X110.866 Y102.380 E0.02043
G1 X110.215 Y102.408 E0.02043
G1 X109.136 Y102.380 E0.03383
G1 X108.488 Y102.318 E0.02043
G1 X107.843 Y102.221 E0.02043
G1 X106.790 Y101.988 E0.03383
G1 X106.165 Y101.803 E0.02043
G1 X105.553 Y101.586 E0.02037
G1 X104.952 Y101.337 E0.02037
G1 X104.364 Y101.057 E0.02043
G1 X103.425 Y100.525 E0.03383
G1 X102.882 Y100.166 E0.02043
G1 X102.360 Y99.779 E0.02037
G1 X101.858 Y99.366 E0.02037
G1 X101.378 Y98.926 E0.02043
G1 X100.635 Y98.143 E0.03383
G1 X100.221 Y97.640 E0.02043
G1 X99.833 Y97.117 E0.02043
G1 X99.253 Y96.207 E0.03383
G1 X98.943 Y95.634 E0.02043
G1 X98.663 Y95.048 E0.02037
G1 X98.414 Y94.447 E0.02037
G1 X98.197 Y93.835 E0.02037
G1 X98.013 Y93.212 E0.02037
G1 X97.861 Y92.580 E0.02037
G1 X97.743 Y91.941 E0.02037
G1 X97.658 Y91.295 E0.02043
G1 X97.592 Y90.218 E0.03383
G1 X97.597 Y89.567 E0.02043
G1 X97.637 Y88.917 E0.02043
G1 X97.778 Y87.845 E0.03389
G1 X98.012 Y86.790 E0.03389
G1 X98.197 Y86.165 E0.02043
G1 X98.414 Y85.553 E0.02037
G1 X98.663 Y84.952 E0.02037
G1 X98.943 Y84.366 E0.02037
G1 X99.253 Y83.795 E0.02037
G1 X99.534 Y83.335 E0.01692
M204 S1250
G1 X99.383 Y82.928 F9000.000
G1 E-2.24000 F4200.00000
G1 F7200.000
G1 X99.960 Y82.706 E-0.42101
G1 X100.357 Y82.189 E-0.36105
G1 X100.512 Y82.013 E-0.12994
G1 E-0.04800 F4200.00000
G1 Z0.400 F9000.000
G1 X82.508 Y87.341
G1 Z0.200
G1 E3.20000 F2400.00000
M204 S800
G1 F1200.000
G1 X82.630 Y88.000 E0.02099
G1 X82.718 Y88.668 E0.02115
G1 X82.785 Y89.772 E0.03466
G1 X82.779 Y90.446 E0.02115
G1 X82.738 Y91.120 E0.02115
G1 X82.593 Y92.221 E0.03482
G1 X82.353 Y93.305 E0.03482
G1 X82.161 Y93.951 E0.02115
G1 X81.938 Y94.583 E0.02099
G1 X81.682 Y95.201 E0.02099
G1 X81.394 Y95.805 E0.02099
G1 X81.074 Y96.394 E0.02099
G1 X80.724 Y96.964 E0.02099
G1 X80.345 Y97.516 E0.02099
G1 X79.935 Y98.051 E0.02115
G1 X79.202 Y98.879 E0.03466
G1 X78.721 Y99.352 E0.02115
G1 X78.220 Y99.796 E0.02099
G1 X77.696 Y100.212 E0.02099
G1 X77.157 Y100.597 E0.02076
G1 X76.204 Y101.182 E0.03504
G1 X75.606 Y101.493 E0.02116
G1 X74.996 Y101.771 E0.02099
G1 X74.373 Y102.016 E0.02099
G1 X73.734 Y102.230 E0.02115
G1 X72.659 Y102.508 E0.03482
G1 X71.563 Y102.692 E0.03482
G1 X70.892 Y102.756 E0.02115
G1 X70.218 Y102.786 E0.02115
G1 X69.113 Y102.757 E0.03466
G1 X68.442 Y102.692 E0.02115
G1 X67.774 Y102.592 E0.02115
G1 X66.695 Y102.353 E0.03465
G1 X66.048 Y102.161 E0.02115
G1 X65.417 Y101.938 E0.02099
G1 X64.799 Y101.682 E0.02099
G1 X64.190 Y101.391 E0.02115
G1 X63.228 Y100.847 E0.03466
G1 X62.666 Y100.475 E0.02115
G1 X62.127 Y100.077 E0.02099
G1 X61.611 Y99.651 E0.02099
G1 X61.117 Y99.198 E0.02099
G1 X60.648 Y98.721 E0.02099
G1 X60.204 Y98.220 E0.02099
G1 X59.788 Y97.696 E0.02099
G1 X59.399 Y97.151 E0.02099
G1 X59.039 Y96.586 E0.02099
G1 X58.707 Y95.999 E0.02115
G1 X58.231 Y95.001 E0.03466
G1 X57.984 Y94.373 E0.02115
G1 X57.770 Y93.734 E0.02115
G1 X57.492 Y92.659 E0.03482
G1 X57.308 Y91.564 E0.03482
G1 X57.244 Y90.892 E0.02115
G1 X57.214 Y90.218 E0.02115
G1 X57.243 Y89.113 E0.03466
G1 X57.308 Y88.442 E0.02115
G1 X57.408 Y87.774 E0.02115
G1 X57.647 Y86.695 E0.03465
G1 X57.839 Y86.049 E0.02115
G1 X58.062 Y85.417 E0.02099
G1 X58.318 Y84.799 E0.02099
G1 X58.609 Y84.190 E0.02115
G1 X59.153 Y83.228 E0.03466
G1 X59.525 Y82.665 E0.02115
G1 X59.923 Y82.127 E0.02099
G1 X60.349 Y81.611 E0.02099
G1 X60.802 Y81.117 E0.02099
G1 X61.279 Y80.648 E0.02099
G1 X61.780 Y80.204 E0.02099
G1 X62.304 Y79.788 E0.02099
G1 X62.849 Y79.399 E0.02099
G1 X63.414 Y79.039 E0.02099
G1 X64.001 Y78.707 E0.02115
G1 X64.999 Y78.231 E0.03466
G1 X65.627 Y77.984 E0.02115
G1 X66.266 Y77.770 E0.02115
G1 X67.341 Y77.492 E0.03482
G1 X68.437 Y77.308 E0.03482
G1 X69.108 Y77.244 E0.02115
G1 X69.782 Y77.214 E0.02115
G1 X70.887 Y77.243 E0.03466
G1 X71.558 Y77.308 E0.02115
G1 X72.226 Y77.408 E0.02115
G1 X73.305 Y77.647 E0.03465
G1 X73.952 Y77.839 E0.02115
G1 X74.583 Y78.062 E0.02099
G1 X75.201 Y78.318 E0.02099
G1 X75.810 Y78.609 E0.02115
G1 X76.772 Y79.153 E0.03466
G1 X77.334 Y79.525 E0.02115
G1 X77.873 Y79.923 E0.02099
G1 X78.389 Y80.349 E0.02099
G1 X78.887 Y80.805 E0.02115
G1 X79.647 Y81.607 E0.03466
G1 X80.077 Y82.127 E0.02115
G1 X80.475 Y82.665 E0.02099
G1 X80.844 Y83.224 E0.02099
G1 X81.187 Y83.805 E0.02116
G1 X81.685 Y84.806 E0.03504
G1 X81.938 Y85.418 E0.02076
G1 X82.161 Y86.049 E0.02099
G1 X82.352 Y86.690 E0.02099
G1 X82.494 Y87.283 E0.01911
M204 S1250
G1 X82.127 Y87.371 F9000.000
M204 S800
G1 F1200.000
G1 X82.257 Y88.059 E0.02194
G1 X82.342 Y88.705 E0.02043
G1 X82.408 Y89.782 E0.03383
G1 X82.403 Y90.433 E0.02043
G1 X82.363 Y91.083 E0.02043
G1 X82.222 Y92.155 E0.03389
G1 X81.988 Y93.210 E0.03389
G1 X81.803 Y93.835 E0.02043
G1 X81.586 Y94.447 E0.02037
G1 X81.337 Y95.048 E0.02037
G1 X81.057 Y95.634 E0.02037
G1 X80.747 Y96.205 E0.02037
G1 X80.408 Y96.759 E0.02037
G1 X80.040 Y97.294 E0.02037
G1 X79.643 Y97.811 E0.02043
G1 X78.928 Y98.619 E0.03383
G1 X78.464 Y99.076 E0.02043
G1 X77.977 Y99.507 E0.02037
G1 X77.469 Y99.911 E0.02037
G1 X76.948 Y100.283 E0.02004
G1 X76.018 Y100.853 E0.03421
G1 X75.440 Y101.154 E0.02043
G1 X74.849 Y101.424 E0.02037
G1 X74.244 Y101.662 E0.02037
G1 X73.627 Y101.868 E0.02043
G1 X72.580 Y102.139 E0.03389
G1 X71.514 Y102.317 E0.03389
G1 X70.866 Y102.380 E0.02043
G1 X70.215 Y102.408 E0.02043
G1 X69.136 Y102.380 E0.03383
G1 X68.488 Y102.318 E0.02043
G1 X67.843 Y102.221 E0.02043
G1 X66.790 Y101.988 E0.03383
G1 X66.165 Y101.803 E0.02043
G1 X65.553 Y101.586 E0.02037
G1 X64.952 Y101.337 E0.02037
G1 X64.364 Y101.057 E0.02043
G1 X63.425 Y100.525 E0.03383
G1 X62.882 Y100.166 E0.02043
G1 X62.360 Y99.779 E0.02037
G1 X61.858 Y99.366 E0.02037
G1 X61.379 Y98.927 E0.02037
G1 X60.924 Y98.464 E0.02037
G1 X60.493 Y97.977 E0.02037
G1 X60.089 Y97.469 E0.02037
G1 X59.712 Y96.940 E0.02037
G1 X59.362 Y96.392 E0.02037
G1 X59.042 Y95.825 E0.02043
G1 X58.577 Y94.851 E0.03383
G1 X58.338 Y94.244 E0.02043
G1 X58.132 Y93.627 E0.02043
G1 X57.861 Y92.580 E0.03389
G1 X57.683 Y91.514 E0.03389
G1 X57.620 Y90.866 E0.02043
G1 X57.592 Y90.215 E0.02043
G1 X57.620 Y89.136 E0.03383
G1 X57.682 Y88.488 E0.02043
G1 X57.779 Y87.843 E0.02043
G1 X58.012 Y86.790 E0.03383
G1 X58.197 Y86.165 E0.02043
G1 X58.414 Y85.553 E0.02037
G1 X58.663 Y84.952 E0.02037
G1 X58.943 Y84.364 E0.02043
G1 X59.475 Y83.425 E0.03383
G1 X59.834 Y82.882 E0.02043
G1 X60.221 Y82.360 E0.02037
G1 X60.634 Y81.858 E0.02037
G1 X61.073 Y81.379 E0.02037
G1 X61.536 Y80.924 E0.02037
G1 X62.023 Y80.493 E0.02037
G1 X62.531 Y80.089 E0.02037
G1 X63.060 Y79.712 E0.02037
G1 X63.608 Y79.362 E0.02037
G1 X64.175 Y79.042 E0.02043
G1 X65.149 Y78.577 E0.03383
G1 X65.756 Y78.338 E0.02043
G1 X66.373 Y78.132 E0.02043
G1 X67.420 Y77.861 E0.03389
G1 X68.486 Y77.683 E0.03389
G1 X69.134 Y77.620 E0.02043
G1 X69.785 Y77.592 E0.02043
G1 X70.864 Y77.620 E0.03383
G1 X71.512 Y77.682 E0.02043
G1 X72.157 Y77.779 E0.02043
G1 X73.210 Y78.012 E0.03383
G1 X73.835 Y78.197 E0.02043
G1 X74.447 Y78.414 E0.02037
G1 X75.048 Y78.663 E0.02037
G1 X75.636 Y78.943 E0.02043
G1 X76.575 Y79.475 E0.03383
G1 X77.118 Y79.834 E0.02043
G1 X77.640 Y80.221 E0.02037
G1 X78.142 Y80.634 E0.02037
G1 X78.622 Y81.074 E0.02043
G1 X79.365 Y81.857 E0.03383
G1 X79.779 Y82.360 E0.02043
G1 X80.166 Y82.882 E0.02037
G1 X80.524 Y83.424 E0.02037
G1 X80.855 Y83.985 E0.02043
G1 X81.341 Y84.962 E0.03421
G1 X81.586 Y85.553 E0.02004
G1 X81.803 Y86.165 E0.02037
G1 X81.987 Y86.788 E0.02037
G1 X82.113 Y87.313 E0.01692
M204 S1250
G1 X82.508 Y87.494 F9000.000
G1 E-2.24000 F4200.00000
G1 F7200.000
G1 X82.257 Y88.059 E-0.42101
G1 X82.342 Y88.705 E-0.36107
G1 X82.357 Y88.939 E-0.12993
G1 E-0.04800 F4200.00000
G1 Z0.400 F9000.000
G1 X87.565 Y83.664
G1 Z0.200
G1 E3.20000 F2400.00000
M204 S800
G1 F1200.000
G1 X86.921 Y83.951 E0.02212
G1 X86.401 Y84.245 E0.01873
G1 X85.821 Y84.651 E0.02220
G1 X85.287 Y85.116 E0.02220
G1 X84.876 Y85.549 E0.01873
G1 X84.440 Y86.107 E0.02220
G1 X84.063 Y86.709 E0.02228
G1 X83.753 Y87.345 E0.02220
G1 X83.544 Y87.905 E0.01873
G1 X83.361 Y88.586 E0.02212
G1 X83.263 Y89.175 E0.01873
G1 X83.213 Y89.882 E0.02220
G1 X83.238 Y90.589 E0.02220
G1 X83.316 Y91.181 E0.01873
G1 X83.474 Y91.868 E0.02212
G1 X83.664 Y92.435 E0.01873
G1 X83.952 Y93.082 E0.02220
G1 X84.307 Y93.697 E0.02228
G1 X84.723 Y94.270 E0.02220
G1 X85.119 Y94.717 E0.01873
