; generated by PrusaSlicer 2.2.0+ on 2022-03-12 at 22:31:36 UTC


;
;

;
;
; 

; external perimeters extrusion width = 0.45mm
; perimeters extrusion width = 0.45mm
; infill extrusion width = 0.45mm
; solid infill extrusion width = 0.45mm
; top infill extrusion width = 0.40mm
; support material extrusion width = 0.35mm
; first layer extrusion width = 0.42mm

M73 P0 R144
M201 X1250 Y1250 Z400 E5000 ; sets maximum accelerations, mm/sec^2
M203 X180 Y180 Z12 E80 ; sets maximum feedrates, mm/sec
M204 P1250 R1250 T1250 ; sets acceleration (P, T) and retract acceleration (R), mm/sec^2
M205 X8.00 Y8.00 Z2.00 E10.00 ; sets the jerk limits, mm/sec
M205 S0 T0 ; sets the minimum extruding and travel feed rate, mm/sec
M107
G90 ; use absolute coordinates
M83 ; extruder relative mode
M104 S170 ; set extruder temp for bed leveling
M140 S60 ; set bed temp
M109 R170 ; wait for bed leveling temp
M190 S60 ; wait for bed temp
G28 ; home all without mesh bed level
G29 ; mesh bed leveling 
M104 S215 ; set extruder temp
G92 E0.0
G1 Y-2.0 X179 F2400
G1 Z3 F720
M109 S215 ; wait for extruder temp

; intro line
G1 X170 F1000
G1 Z0.2 F720
G1 X110.0 E8.0 F900
M73 P0 R144
G1 X40.0 E10.0 F700
G92 E0.0

M221 S95 ; set flow
G21 ; set units to millimeters
G90 ; use absolute coordinates
M83 ; use relative distances for extrusion
M900 K0.2 ; Filament gcode LA 1.5
; ; Filament gcode LA 1.0
;BEFORE_LAYER_CHANGE
G92 E0.0
;0.2


G1 Z0.200 F9000.000
;AFTER_LAYER_CHANGE
;0.2
G1 E-3.20000 F4200.00000
G1 Z0.400 F9000.000
G1 X51.264 Y51.907
G1 Z0.200
G1 E3.20000 F2400.00000
M204 S800
G1 F1200.000
G1 X52.473 Y50.799 E0.05144
G1 X53.956 Y49.910 E0.05421
G1 X55.491 Y49.367 E0.05103
G1 X57.196 Y49.129 E0.05399
G1 X122.504 Y49.123 E2.04768
G1 X124.080 Y49.273 E0.04964
G1 X125.519 Y49.686 E0.04693
G1 X126.941 Y50.397 E0.04984
G1 X128.201 Y51.363 E0.04980
G1 X129.201 Y52.473 E0.04686
G1 X130.029 Y53.828 E0.04979
G1 X130.587 Y55.315 E0.04979
G1 X130.847 Y56.791 E0.04699
G1 X130.872 Y122.781 E2.06906
G1 X130.694 Y124.241 E0.04612
G1 X130.269 Y125.634 E0.04567
G1 X129.605 Y126.937 E0.04587
G1 X128.736 Y128.093 E0.04534
G1 X127.425 Y129.276 E0.05537
G1 X125.914 Y130.150 E0.05474
G1 X124.244 Y130.693 E0.05504
G1 X122.520 Y130.877 E0.05436
G1 X57.219 Y130.872 E2.04747
G1 X55.759 Y130.694 E0.04612
G1 X54.366 Y130.269 E0.04567
G1 X53.063 Y129.605 E0.04587
G1 X51.907 Y128.736 E0.04534
G1 X50.724 Y127.425 E0.05537
G1 X49.850 Y125.914 E0.05474
G1 X49.307 Y124.244 E0.05504
G1 X49.123 Y122.520 E0.05436
G1 X49.128 Y57.219 E2.04747
G1 X49.306 Y55.759 E0.04612
G1 X49.731 Y54.366 E0.04567
G1 X50.395 Y53.063 E0.04587
G1 X51.228 Y51.955 E0.04346
M204 S1250
; printing object ZaunPixel_AP9Adapter.stl id:0 copy 0
G1 E-2.24000 F4200.00000
G1 F7200.000
G1 X52.434 Y50.835 E-0.91200
G1 E-0.04800 F4200.00000
G1 Z0.400 F9000.000
G1 X85.475 Y86.516
G1 Z0.200
G1 E3.20000 F2400.00000
M204 S800
G1 F1200.000
G1 X85.475 Y88.351 E0.05753
G1 X86.229 Y88.351 E0.02365
G1 X86.229 Y85.939 E0.07560
G1 X86.588 Y85.633 E0.01480
G1 X86.983 Y85.352 E0.01521
G1 X86.983 Y88.351 E0.09404
G1 X87.738 Y88.351 E0.02365
G1 X87.738 Y84.942 E0.10689
G1 X88.105 Y84.793 E0.01242
G1 X88.492 Y84.668 E0.01275
G1 X88.492 Y88.351 E0.11547
G1 X89.246 Y88.351 E0.02365
G1 X89.246 Y77.807 E0.33060
G1 X90.000 Y77.807 E0.02365
G1 X90.000 Y88.351 E0.33060
G1 X90.754 Y88.351 E0.02365
G1 X90.754 Y77.807 E0.33060
G1 X91.041 Y77.807 E0.00901
G1 X91.041 Y84.348 E0.20508
G1 X91.233 Y84.595 E0.00983
G1 X91.508 Y84.668 E0.00892
G1 X91.508 Y88.351 E0.11547
G1 X92.262 Y88.351 E0.02365
G1 X92.262 Y84.942 E0.10689
G1 X92.687 Y85.153 E0.01486
G1 X93.017 Y85.352 E0.01207
G1 X93.017 Y88.351 E0.09404
G1 X93.771 Y88.351 E0.02365
G1 X93.771 Y85.939 E0.07560
G1 X94.182 Y86.364 E0.01855
G1 X94.525 Y86.801 E0.01741
G1 X94.525 Y88.520 E0.05390
M204 S1250
G1 E-2.24000 F4200.00000
G1 F7200.000
G1 X94.525 Y86.875 E-0.91200
G1 E-0.04800 F4200.00000
G1 Z0.400 F9000.000
G1 X117.150 Y98.709
G1 Z0.200
G1 E3.20000 F2400.00000
M204 S800
G1 F1200.000
G1 X117.150 Y81.467 E0.54062
G1 X117.618 Y81.330 E0.01529
G1 X117.904 Y81.590 E0.01212
G1 X117.904 Y98.410 E0.52737
G1 X118.302 Y98.017 E0.01753
G1 X118.658 Y97.631 E0.01647
G1 X118.658 Y82.369 E0.47853
G1 X119.095 Y82.894 E0.02142
G1 X119.412 Y83.321 E0.01668
G1 X119.412 Y96.679 E0.41882
G1 X119.788 Y96.116 E0.02121
G1 X120.166 Y95.463 E0.02367
G1 X120.166 Y84.537 E0.34257
G1 X120.544 Y85.306 E0.02684
G1 X120.921 Y86.266 E0.03235
G1 X120.921 Y94.229 E0.24969
M204 S1250
G1 X121.914 Y94.641 F9000.000
M204 S800
G1 F1200.000
G1 X121.682 Y95.201 E0.01901
G1 X121.391 Y95.810 E0.02115
G1 X120.847 Y96.772 E0.03466
G1 X120.475 Y97.335 E0.02115
G1 X120.077 Y97.873 E0.02099
G1 X119.651 Y98.389 E0.02099
G1 X119.198 Y98.883 E0.02099
G1 X118.721 Y99.352 E0.02099
G1 X118.220 Y99.796 E0.02099
G1 X117.696 Y100.212 E0.02099
G1 X117.157 Y100.597 E0.02076
G1 X116.204 Y101.182 E0.03504
G1 X115.606 Y101.493 E0.02116
G1 X114.996 Y101.771 E0.02099
G1 X114.373 Y102.016 E0.02099
G1 X113.734 Y102.230 E0.02115
G1 X112.659 Y102.508 E0.03482
G1 X111.563 Y102.692 E0.03482
G1 X110.892 Y102.756 E0.02115
G1 X110.218 Y102.786 E0.02115
G1 X109.113 Y102.757 E0.03466
G1 X108.442 Y102.692 E0.02115
G1 X107.774 Y102.592 E0.02115
G1 X106.695 Y102.353 E0.03465
G1 X106.048 Y102.161 E0.02115
G1 X105.417 Y101.938 E0.02099
G1 X104.799 Y101.682 E0.02099
G1 X104.190 Y101.391 E0.02115
G1 X103.228 Y100.847 E0.03466
G1 X102.666 Y100.475 E0.02115
G1 X102.127 Y100.077 E0.02099
G1 X101.611 Y99.651 E0.02099
G1 X101.113 Y99.195 E0.02115
G1 X100.353 Y98.393 E0.03466
G1 X99.923 Y97.873 E0.02115
G1 X99.522 Y97.330 E0.02115
G1 X98.928 Y96.398 E0.03466
G1 X98.606 Y95.805 E0.02115
G1 X98.318 Y95.201 E0.02099
G1 X98.062 Y94.583 E0.02099
G1 X97.839 Y93.951 E0.02099
G1 X97.648 Y93.310 E0.02099
G1 X97.492 Y92.659 E0.02099
G1 X97.370 Y92.000 E0.02099
G1 X97.282 Y91.332 E0.02115
G1 X97.215 Y90.228 E0.03466
G1 X97.221 Y89.554 E0.02115
G1 X97.262 Y88.880 E0.02115
G1 X97.407 Y87.779 E0.03482
G1 X97.647 Y86.695 E0.03482
G1 X97.839 Y86.049 E0.02115
G1 X98.062 Y85.417 E0.02099
G1 X98.318 Y84.799 E0.02099
G1 X98.606 Y84.195 E0.02099
G1 X98.926 Y83.606 E0.02099
G1 X99.276 Y83.036 E0.02099
G1 X99.655 Y82.484 E0.02099
G1 X100.065 Y81.949 E0.02115
G1 X100.798 Y81.121 E0.03466
G1 X101.279 Y80.648 E0.02115
G1 X101.780 Y80.204 E0.02099
G1 X102.304 Y79.788 E0.02099
G1 X102.849 Y79.399 E0.02099
G1 X103.414 Y79.039 E0.02099
G1 X104.001 Y78.707 E0.02115
G1 X104.999 Y78.231 E0.03466
G1 X105.627 Y77.984 E0.02115
G1 X106.266 Y77.770 E0.02115
G1 X107.341 Y77.492 E0.03482
G1 X108.437 Y77.308 E0.03482
G1 X109.108 Y77.244 E0.02115
G1 X109.782 Y77.214 E0.02115
G1 X110.887 Y77.243 E0.03466
G1 X111.558 Y77.308 E0.02115
G1 X112.226 Y77.408 E0.02115
G1 X113.305 Y77.647 E0.03465
G1 X113.952 Y77.839 E0.02115
G1 X114.583 Y78.062 E0.02099
G1 X115.201 Y78.318 E0.02099
G1 X115.810 Y78.609 E0.02115
G1 X116.772 Y79.153 E0.03466
G1 X117.334 Y79.525 E0.02115
G1 X117.873 Y79.923 E0.02099
G1 X118.389 Y80.349 E0.02099
G1 X118.883 Y80.802 E0.02099
G1 X119.352 Y81.279 E0.02099
G1 X119.796 Y81.780 E0.02099
G1 X120.212 Y82.304 E0.02099
G1 X120.601 Y82.849 E0.02099
G1 X120.961 Y83.414 E0.02099
G1 X121.293 Y84.001 E0.02115
G1 X121.769 Y84.999 E0.03466
G1 X122.016 Y85.627 E0.02115
G1 X122.230 Y86.266 E0.02115
G1 X122.508 Y87.341 E0.03482
G1 X122.692 Y88.436 E0.03482
G1 X122.756 Y89.108 E0.02115
G1 X122.786 Y89.782 E0.02115
G1 X122.757 Y90.887 E0.03466
G1 X122.692 Y91.558 E0.02115
G1 X122.592 Y92.226 E0.02115
G1 X122.353 Y93.305 E0.03465
G1 X122.161 Y93.951 E0.02115
G1 X121.937 Y94.586 E0.02109
M204 S1250
G1 X121.586 Y94.447 F9000.000
M204 S800
G1 F1200.000
G1 X121.337 Y95.048 E0.02037
G1 X121.057 Y95.636 E0.02043
G1 X120.525 Y96.575 E0.03383
G1 X120.166 Y97.118 E0.02043
G1 X119.779 Y97.640 E0.02037
G1 X119.366 Y98.142 E0.02037
G1 X118.927 Y98.621 E0.02037
G1 X118.464 Y99.076 E0.02037
G1 X117.977 Y99.507 E0.02037
G1 X117.469 Y99.911 E0.02037
G1 X116.948 Y100.283 E0.02004
G1 X116.018 Y100.853 E0.03421
G1 X115.440 Y101.154 E0.02043
G1 X114.849 Y101.424 E0.02037
G1 X114.244 Y101.662 E0.02037
G1 X113.627 Y101.868 E0.02043
G1 X112.580 Y102.139 E0.03389
G1 X111.514 Y102.317 E0.03389
G1 X110.866 Y102.380 E0.02043
G1 X110.215 Y102.408 E0.02043
G1 X109.136 Y102.380 E0.03383
G1 X108.488 Y102.318 E0.02043
G1 X107.843 Y102.221 E0.02043
G1 X106.790 Y101.988 E0.03383
G1 X106.165 Y101.803 E0.02043
G1 X105.553 Y101.586 E0.02037
G1 X104.952 Y101.337 E0.02037
G1 X104.364 Y101.057 E0.02043
G1 X103.425 Y100.525 E0.03383
G1 X102.882 Y100.166 E0.02043
G1 X102.360 Y99.779 E0.02037
G1 X101.858 Y99.366 E0.02037
G1 X101.378 Y98.926 E0.02043
G1 X100.635 Y98.143 E0.03383
G1 X100.221 Y97.640 E0.02043
G1 X99.833 Y97.117 E0.02043
G1 X99.253 Y96.207 E0.03383
G1 X98.943 Y95.634 E0.02043
G1 X98.663 Y95.048 E0.02037
G1 X98.414 Y94.447 E0.02037
G1 X98.197 Y93.835 E0.02037
G1 X98.013 Y93.212 E0.02037
G1 X97.861 Y92.580 E0.02037
G1 X97.743 Y91.941 E0.02037
G1 X97.658 Y91.295 E0.02043
G1 X97.592 Y90.218 E0.03383
G1 X97.597 Y89.567 E0.02043
G1 X97.637 Y88.917 E0.02043
G1 X97.778 Y87.845 E0.03389
G1 X98.012 Y86.790 E0.03389
G1 X98.197 Y86.165 E0.02043
G1 X98.414 Y85.553 E0.02037
G1 X98.663 Y84.952 E0.02037
G1 X98.943 Y84.366 E0.02037
G1 X99.253 Y83.795 E0.02037
G1 X99.592 Y83.241 E0.02037
G1 X99.960 Y82.706 E0.02037
G1 X100.357 Y82.189 E0.02043
G1 X101.072 Y81.381 E0.03383
G1 X101.536 Y80.924 E0.02043
G1 X102.023 Y80.493 E0.02037
G1 X102.531 Y80.089 E0.02037
G1 X103.060 Y79.712 E0.02037
G1 X103.608 Y79.362 E0.02037
G1 X104.175 Y79.042 E0.02043
G1 X105.149 Y78.577 E0.03383
G1 X105.756 Y78.338 E0.02043
G1 X106.373 Y78.132 E0.02043
G1 X107.420 Y77.861 E0.03389
G1 X108.486 Y77.683 E0.03389
G1 X109.134 Y77.620 E0.02043
G1 X109.785 Y77.592 E0.02043
G1 X110.864 Y77.620 E0.03383
G1 X111.512 Y77.682 E0.02043
G1 X112.157 Y77.779 E0.02043
G1 X113.210 Y78.012 E0.03383
G1 X113.835 Y78.197 E0.02043
G1 X114.447 Y78.414 E0.02037
G1 X115.048 Y78.663 E0.02037
G1 X115.636 Y78.943 E0.02043
G1 X116.575 Y79.475 E0.03383
G1 X117.118 Y79.834 E0.02043
G1 X117.640 Y80.221 E0.02037
G1 X118.142 Y80.634 E0.02037
G1 X118.621 Y81.073 E0.02037
G1 X119.076 Y81.536 E0.02037
G1 X119.507 Y82.023 E0.02037
G1 X119.911 Y82.531 E0.02037
G1 X120.288 Y83.060 E0.02037
G1 X120.638 Y83.608 E0.02037
G1 X120.958 Y84.175 E0.02043
G1 X121.423 Y85.149 E0.03383
G1 X121.662 Y85.756 E0.02043
G1 X121.868 Y86.373 E0.02043
G1 X122.139 Y87.420 E0.03389
G1 X122.317 Y88.486 E0.03389
G1 X122.380 Y89.134 E0.02043
G1 X122.408 Y89.785 E0.02043
G1 X122.380 Y90.864 E0.03383
G1 X122.318 Y91.512 E0.02043
G1 X122.221 Y92.157 E0.02043
G1 X121.988 Y93.210 E0.03383
G1 X121.803 Y93.835 E0.02043
G1 X121.606 Y94.391 E0.01849
M204 S1250
G1 X121.838 Y94.758 F9000.000
G1 E-2.24000 F4200.00000
G1 F7200.000
G1 X121.337 Y95.048 E-0.39328
G1 X121.057 Y95.636 E-0.36102
G1 X120.917 Y95.883 E-0.15770
G1 E-0.04800 F4200.00000
G1 Z0.400 F9000.000
G1 X92.435 Y83.664
G1 Z0.200
G1 E3.20000 F2400.00000
M204 S800
G1 F1200.000
G1 X93.079 Y83.951 E0.02212
G1 X93.599 Y84.245 E0.01873
G1 X94.179 Y84.651 E0.02220
G1 X94.713 Y85.116 E0.02220
G1 X95.124 Y85.549 E0.01873
G1 X95.559 Y86.105 E0.02212
G1 X95.880 Y86.608 E0.01873
G1 X96.200 Y87.237 E0.02212
G1 X96.421 Y87.798 E0.01889
G1 X96.613 Y88.471 E0.02195
G1 X96.722 Y89.055 E0.01864
G1 X96.779 Y89.647 E0.01865
G1 X96.779 Y90.353 E0.02212
G1 X96.721 Y90.947 E0.01873
G1 X96.587 Y91.637 E0.02204
G1 X96.455 Y92.100 E0.01510
G1 X96.248 Y92.652 E0.01849
G1 X95.993 Y93.187 E0.01857
G1 X95.694 Y93.695 E0.01849
G1 X95.419 Y94.087 E0.01502
G1 X95.044 Y94.542 E0.01849
G1 X94.629 Y94.964 E0.01857
G1 X94.181 Y95.347 E0.01849
G1 X93.793 Y95.629 E0.01502
G1 X93.291 Y95.937 E0.01849
G1 X92.761 Y96.201 E0.01856
G1 X92.210 Y96.418 E0.01857
G1 X91.645 Y96.585 E0.01849
G1 X91.176 Y96.685 E0.01502
G1 X90.592 Y96.762 E0.01849
G1 X90.000 Y96.788 E0.01856
G1 X89.406 Y96.762 E0.01865
G1 X88.705 Y96.663 E0.02220
G1 X88.016 Y96.491 E0.02227
G1 X87.355 Y96.251 E0.02203
G1 X86.811 Y95.992 E0.01890
G1 X86.206 Y95.629 E0.02212
G1 X85.726 Y95.273 E0.01873
G1 X85.200 Y94.800 E0.02220
G1 X84.727 Y94.274 E0.02220
G1 X84.373 Y93.796 E0.01865
G1 X84.062 Y93.289 E0.01865
G1 X83.752 Y92.652 E0.02220
G1 X83.510 Y91.987 E0.02220
G1 X83.360 Y91.409 E0.01872
G1 X83.249 Y90.710 E0.02220
G1 X83.212 Y90.003 E0.02220
G1 X83.238 Y89.411 E0.01857
G1 X83.296 Y88.938 E0.01493
G1 X83.387 Y88.471 E0.01494
G1 X83.545 Y87.903 E0.01849
G1 X83.751 Y87.350 E0.01849
G1 X83.953 Y86.916 E0.01502
G1 X84.244 Y86.403 E0.01849
G1 X84.579 Y85.915 E0.01857
G1 X84.956 Y85.458 E0.01857
G1 X85.369 Y85.038 E0.01848
G1 X85.730 Y84.723 E0.01502
G1 X86.204 Y84.373 E0.01849
G1 X86.707 Y84.065 E0.01849
G1 X87.134 Y83.847 E0.01502
G1 X87.713 Y83.611 E0.01961
G1 X87.713 Y77.135 E0.20303
G1 X87.022 Y76.850 E0.02344
G1 X86.405 Y76.508 E0.02212
G1 X85.915 Y76.171 E0.01864
G1 X85.456 Y75.793 E0.01865
G1 X84.957 Y75.294 E0.02212
G1 X84.577 Y74.833 E0.01873
G1 X84.182 Y74.246 E0.02220
G1 X83.849 Y73.621 E0.02220
G1 X83.622 Y73.071 E0.01865
G1 X83.443 Y72.504 E0.01865
G1 X83.296 Y71.812 E0.02220
G1 X83.222 Y71.108 E0.02220
G1 X83.216 Y70.513 E0.01865
G1 X83.263 Y69.920 E0.01865
G1 X83.386 Y69.226 E0.02212
G1 X83.545 Y68.653 E0.01865
G1 X83.752 Y68.098 E0.01857
G1 X84.006 Y67.566 E0.01848
G1 X84.245 Y67.151 E0.01502
G1 X84.578 Y66.667 E0.01841
G1 X84.879 Y66.295 E0.01502
G1 X85.285 Y65.867 E0.01848
G1 X85.726 Y65.477 E0.01849
G1 X86.109 Y65.189 E0.01502
G1 X86.606 Y64.872 E0.01849
G1 X87.131 Y64.598 E0.01856
G1 X87.678 Y64.372 E0.01857
G1 X88.241 Y64.194 E0.01849
G1 X88.707 Y64.087 E0.01502
G1 X89.291 Y64.000 E0.01848
G1 X89.884 Y63.963 E0.01864
G1 X90.589 Y63.988 E0.02212
G1 X91.179 Y64.066 E0.01864
G1 X91.759 Y64.194 E0.01865
G1 X92.430 Y64.412 E0.02212
G1 X92.978 Y64.650 E0.01873
G1 X93.597 Y64.994 E0.02220
G1 X94.179 Y65.401 E0.02228
G1 X94.715 Y65.867 E0.02228
G1 X95.203 Y66.391 E0.02245
G1 X95.626 Y66.952 E0.02202
G1 X95.938 Y67.461 E0.01872
G1 X96.248 Y68.098 E0.02220
G1 X96.490 Y68.763 E0.02220
G1 X96.641 Y69.347 E0.01889
G1 X96.751 Y70.041 E0.02203
G1 X96.788 Y70.748 E0.02219
G1 X96.762 Y71.339 E0.01856
G1 X96.704 Y71.812 E0.01494
G1 X96.612 Y72.285 E0.01511
G1 X96.455 Y72.848 E0.01831
G1 X96.249 Y73.400 E0.01848
G1 X96.047 Y73.834 E0.01501
G1 X95.756 Y74.347 E0.01849
G1 X95.421 Y74.835 E0.01857
G1 X95.044 Y75.292 E0.01857
G1 X94.629 Y75.714 E0.01856
G1 X94.181 Y76.097 E0.01849
G1 X93.796 Y76.377 E0.01493
G1 X93.392 Y76.630 E0.01494
G1 X92.869 Y76.902 E0.01848
G1 X92.287 Y77.139 E0.01970
G1 X92.287 Y83.615 E0.20303
G1 X92.378 Y83.645 E0.00300
M204 S1250
G1 X91.910 Y83.886 F9000.000
M204 S800
G1 F1200.000
G1 X92.298 Y84.016 E0.01282
G1 X92.909 Y84.288 E0.02098
G1 X93.398 Y84.564 E0.01759
G1 X93.947 Y84.949 E0.02101
G1 X94.452 Y85.388 E0.02101
G1 X94.838 Y85.795 E0.01759
G1 X95.250 Y86.322 E0.02098
G1 X95.552 Y86.796 E0.01759
G1 X95.856 Y87.392 E0.02098
G1 X96.063 Y87.919 E0.01776
G1 X96.246 Y88.557 E0.02081
G1 X96.348 Y89.108 E0.01756
G1 X96.402 Y89.665 E0.01756
G1 X96.402 Y90.335 E0.02098
G1 X96.348 Y90.893 E0.01759
G1 X96.220 Y91.549 E0.02095
G1 X96.096 Y91.982 E0.01411
G1 X95.901 Y92.505 E0.01751
G1 X95.660 Y93.009 E0.01753
G1 X95.377 Y93.490 E0.01750
G1 X95.119 Y93.858 E0.01409
G1 X94.764 Y94.289 E0.01751
G1 X94.372 Y94.688 E0.01753
G1 X93.947 Y95.051 E0.01751
G1 X93.584 Y95.315 E0.01409
G1 X93.108 Y95.606 E0.01751
G1 X92.607 Y95.856 E0.01753
G1 X92.087 Y96.061 E0.01754
G1 X91.552 Y96.220 E0.01751
G1 X91.112 Y96.313 E0.01409
G1 X90.559 Y96.386 E0.01751
G1 X90.000 Y96.410 E0.01753
G1 X89.440 Y96.386 E0.01757
G1 X88.777 Y96.293 E0.02101
G1 X88.126 Y96.130 E0.02104
G1 X87.501 Y95.903 E0.02084
G1 X86.990 Y95.660 E0.01776
G1 X86.416 Y95.315 E0.02098
G1 X85.965 Y94.981 E0.01759
G1 X85.467 Y94.533 E0.02101
G1 X85.019 Y94.035 E0.02101
G1 X84.686 Y93.585 E0.01756
G1 X84.393 Y93.107 E0.01756
G1 X84.099 Y92.505 E0.02101
G1 X83.870 Y91.875 E0.02101
G1 X83.730 Y91.332 E0.01759
G1 X83.625 Y90.670 E0.02101
G1 X83.590 Y90.001 E0.02101
G1 X83.614 Y89.442 E0.01753
G1 X83.669 Y88.997 E0.01406
G1 X83.754 Y88.557 E0.01406
G1 X83.904 Y88.019 E0.01750
G1 X84.099 Y87.496 E0.01751
