; generated by PrusaSlicer 2.2.0+ on 2022-03-11 at 09:24:16 UTC


;
;

;
;
; 

; external perimeters extrusion width = 0.45mm
; perimeters extrusion width = 0.45mm
; infill extrusion width = 0.45mm
; solid infill extrusion width = 0.45mm
; top infill extrusion width = 0.40mm
; first layer extrusion width = 0.42mm

M73 P0 R34
M201 X1250 Y1250 Z400 E5000 ; sets maximum accelerations, mm/sec^2
M203 X180 Y180 Z12 E80 ; sets maximum feedrates, mm/sec
M204 P1250 R1250 T1250 ; sets acceleration (P, T) and retract acceleration (R), mm/sec^2
M205 X8.00 Y8.00 Z2.00 E10.00 ; sets the jerk limits, mm/sec
M205 S0 T0 ; sets the minimum extruding and travel feed rate, mm/sec
M107
G90 ; use absolute coordinates
M83 ; extruder relative mode
M104 S170 ; set extruder temp for bed leveling
M140 S60 ; set bed temp
M109 R170 ; wait for bed leveling temp
M190 S60 ; wait for bed temp
G28 ; home all without mesh bed level
G29 ; mesh bed leveling 
M104 S215 ; set extruder temp
G92 E0.0
G1 Y-2.0 X179 F2400
G1 Z3 F720
M109 S215 ; wait for extruder temp

; intro line
G1 X170 F1000
G1 Z0.2 F720
G1 X110.0 E8.0 F900
M73 P0 R34
G1 X40.0 E10.0 F700
G92 E0.0

M221 S95 ; set flow
G21 ; set units to millimeters
G90 ; use absolute coordinates
M83 ; use relative distances for extrusion
M900 K0.2 ; Filament gcode LA 1.5
; ; Filament gcode LA 1.0
;BEFORE_LAYER_CHANGE
G92 E0.0
;0.2


G1 Z0.200 F9000.000
;AFTER_LAYER_CHANGE
;0.2
G1 E-3.20000 F4200.00000
G1 Z0.400 F9000.000
G1 X62.862 Y62.864
G1 Z0.200
G1 E3.20000 F2400.00000
M204 S800
G1 F1200.000
G1 X65.348 Y60.588 E0.10567
G1 X66.906 Y59.349 E0.06241
G1 X68.542 Y58.183 E0.06300
G1 X70.233 Y57.105 E0.06287
G1 X71.965 Y56.125 E0.06240
G1 X75.024 Y54.666 E0.10628
G1 X76.873 Y53.938 E0.06229
G1 X78.778 Y53.300 E0.06298
G1 X80.714 Y52.763 E0.06301
G1 X82.657 Y52.332 E0.06239
G1 X86.009 Y51.831 E0.10628
G1 X87.993 Y51.675 E0.06241
G1 X90.002 Y51.623 E0.06300
G1 X92.007 Y51.675 E0.06288
G1 X93.991 Y51.831 E0.06240
G1 X97.343 Y52.332 E0.10628
G1 X99.286 Y52.763 E0.06241
G1 X101.222 Y53.300 E0.06299
G1 X103.124 Y53.937 E0.06289
G1 X104.976 Y54.666 E0.06238
G1 X108.035 Y56.125 E0.10628
G1 X109.767 Y57.106 E0.06241
G1 X111.459 Y58.183 E0.06287
G1 X114.167 Y60.188 E0.10568
G1 X115.681 Y61.482 E0.06241
G1 X117.136 Y62.862 E0.06289
G1 X119.412 Y65.348 E0.10567
G1 X120.651 Y66.906 E0.06241
G1 X121.817 Y68.542 E0.06300
G1 X122.895 Y70.233 E0.06287
G1 X123.875 Y71.965 E0.06240
G1 X125.334 Y75.024 E0.10628
G1 X126.062 Y76.873 E0.06229
G1 X126.700 Y78.778 E0.06298
G1 X127.237 Y80.714 E0.06301
G1 X127.668 Y82.657 E0.06239
G1 X128.169 Y86.009 E0.10628
G1 X128.325 Y87.993 E0.06241
G1 X128.377 Y89.998 E0.06288
G1 X128.325 Y92.007 E0.06300
G1 X128.169 Y93.991 E0.06240
G1 X127.668 Y97.343 E0.10628
G1 X127.237 Y99.286 E0.06241
G1 X126.700 Y101.222 E0.06299
G1 X126.063 Y103.124 E0.06289
G1 X125.334 Y104.976 E0.06238
G1 X123.875 Y108.035 E0.10628
G1 X122.894 Y109.767 E0.06241
G1 X121.817 Y111.459 E0.06287
G1 X119.812 Y114.167 E0.10568
G1 X118.518 Y115.681 E0.06241
G1 X117.138 Y117.136 E0.06289
G1 X114.652 Y119.412 E0.10567
G1 X113.094 Y120.651 E0.06241
G1 X111.458 Y121.817 E0.06300
G1 X109.767 Y122.895 E0.06287
G1 X108.035 Y123.875 E0.06240
G1 X104.976 Y125.334 E0.10628
G1 X103.127 Y126.062 E0.06229
G1 X101.222 Y126.700 E0.06298
G1 X99.286 Y127.237 E0.06301
G1 X97.343 Y127.668 E0.06239
G1 X93.991 Y128.169 E0.10628
G1 X92.007 Y128.325 E0.06241
G1 X90.002 Y128.377 E0.06288
G1 X87.993 Y128.325 E0.06300
G1 X86.009 Y128.169 E0.06240
G1 X82.657 Y127.668 E0.10628
G1 X80.714 Y127.237 E0.06241
G1 X78.778 Y126.700 E0.06299
G1 X76.876 Y126.063 E0.06289
G1 X75.024 Y125.334 E0.06238
G1 X71.965 Y123.875 E0.10628
G1 X70.233 Y122.894 E0.06241
G1 X68.541 Y121.817 E0.06287
G1 X65.833 Y119.812 E0.10568
G1 X64.319 Y118.518 E0.06241
G1 X62.864 Y117.138 E0.06289
G1 X60.588 Y114.652 E0.10567
G1 X59.349 Y113.094 E0.06241
G1 X58.183 Y111.458 E0.06300
G1 X57.105 Y109.767 E0.06287
G1 X56.125 Y108.035 E0.06240
G1 X54.666 Y104.976 E0.10628
G1 X53.938 Y103.127 E0.06229
G1 X53.300 Y101.222 E0.06298
G1 X52.763 Y99.286 E0.06301
G1 X52.332 Y97.343 E0.06239
G1 X51.831 Y93.991 E0.10628
G1 X51.675 Y92.007 E0.06241
G1 X51.623 Y90.002 E0.06288
G1 X51.675 Y87.993 E0.06300
G1 X51.831 Y86.009 E0.06240
G1 X52.332 Y82.657 E0.10628
G1 X52.763 Y80.714 E0.06241
G1 X53.300 Y78.778 E0.06299
G1 X53.937 Y76.876 E0.06289
G1 X54.666 Y75.024 E0.06238
G1 X56.125 Y71.965 E0.10628
G1 X57.106 Y70.233 E0.06241
G1 X58.183 Y68.541 E0.06287
G1 X60.188 Y65.833 E0.10568
G1 X61.482 Y64.319 E0.06241
G1 X62.821 Y62.908 E0.06100
M204 S1250
; printing object ZaunPixel.stl id:0 copy 0
G1 E-2.24000 F4200.00000
G1 F7200.000
G1 X64.033 Y61.795 E-0.91200
G1 E-0.04800 F4200.00000
G1 Z0.400 F9000.000
G1 X65.101 Y65.101
G1 Z0.200
G1 E3.20000 F2400.00000
M204 S800
G1 F1200.000
G1 X66.440 Y63.830 E0.05788
G1 X67.364 Y63.027 E0.03838
G1 X68.808 Y61.878 E0.05788
G1 X70.309 Y60.807 E0.05780
G1 X71.864 Y59.817 E0.05780
G1 X73.469 Y58.909 E0.05780
G1 X75.118 Y58.086 E0.05780
G1 X76.809 Y57.351 E0.05780
G1 X78.538 Y56.705 E0.05788
G1 X79.702 Y56.327 E0.03838
G1 X81.481 Y55.833 E0.05788
G1 X83.281 Y55.434 E0.05780
G1 X85.099 Y55.130 E0.05780
G1 X86.931 Y54.921 E0.05780
G1 X88.773 Y54.809 E0.05787
G1 X90.058 Y54.788 E0.04029
G1 X91.843 Y54.835 E0.05598
G1 X93.681 Y54.980 E0.05781
G1 X95.508 Y55.221 E0.05780
G1 X97.321 Y55.557 E0.05780
G1 X99.116 Y55.988 E0.05788
G1 X100.293 Y56.325 E0.03838
G1 X102.043 Y56.911 E0.05788
G1 X103.761 Y57.587 E0.05788
G1 X104.879 Y58.085 E0.03838
G1 X106.531 Y58.909 E0.05788
G1 X108.136 Y59.817 E0.05780
G1 X109.691 Y60.807 E0.05780
G1 X111.192 Y61.878 E0.05780
G1 X112.636 Y63.027 E0.05788
G1 X113.560 Y63.830 E0.03838
G1 X114.899 Y65.101 E0.05788
G1 X116.170 Y66.440 E0.05788
G1 X116.973 Y67.364 E0.03838
G1 X118.122 Y68.808 E0.05788
G1 X119.193 Y70.309 E0.05780
G1 X120.183 Y71.864 E0.05780
G1 X121.091 Y73.469 E0.05780
G1 X121.915 Y75.121 E0.05788
G1 X122.413 Y76.239 E0.03838
G1 X123.089 Y77.957 E0.05788
G1 X123.674 Y79.705 E0.05780
G1 X124.167 Y81.481 E0.05780
G1 X124.566 Y83.281 E0.05780
G1 X124.870 Y85.102 E0.05788
G1 X125.020 Y86.317 E0.03838
G1 X125.164 Y88.157 E0.05788
G1 X125.213 Y90.000 E0.05780
G1 X125.164 Y91.843 E0.05780
G1 X125.020 Y93.683 E0.05788
G1 X124.870 Y94.898 E0.03838
G1 X124.566 Y96.719 E0.05788
G1 X124.167 Y98.519 E0.05780
G1 X123.674 Y100.295 E0.05780
G1 X123.089 Y102.043 E0.05780
G1 X122.413 Y103.761 E0.05788
G1 X121.915 Y104.879 E0.03838
G1 X121.091 Y106.531 E0.05788
G1 X120.183 Y108.136 E0.05780
G1 X119.193 Y109.691 E0.05780
G1 X118.122 Y111.192 E0.05780
G1 X116.973 Y112.636 E0.05788
G1 X116.170 Y113.560 E0.03838
G1 X114.899 Y114.899 E0.05788
G1 X113.560 Y116.170 E0.05788
G1 X112.636 Y116.973 E0.03838
G1 X111.192 Y118.122 E0.05788
G1 X109.691 Y119.193 E0.05780
G1 X108.136 Y120.183 E0.05780
G1 X106.531 Y121.091 E0.05780
G1 X104.879 Y121.915 E0.05788
G1 X103.761 Y122.413 E0.03838
G1 X102.043 Y123.089 E0.05788
G1 X100.295 Y123.674 E0.05780
G1 X98.519 Y124.167 E0.05780
G1 X96.719 Y124.566 E0.05780
G1 X94.898 Y124.870 E0.05788
G1 X93.683 Y125.020 E0.03838
G1 X91.843 Y125.164 E0.05788
G1 X90.000 Y125.213 E0.05780
G1 X88.157 Y125.164 E0.05780
G1 X86.317 Y125.020 E0.05788
G1 X85.102 Y124.870 E0.03838
G1 X83.281 Y124.566 E0.05788
G1 X81.481 Y124.167 E0.05780
G1 X79.705 Y123.674 E0.05780
G1 X77.957 Y123.089 E0.05780
G1 X76.239 Y122.413 E0.05788
G1 X75.121 Y121.915 E0.03838
G1 X73.469 Y121.091 E0.05788
G1 X71.864 Y120.183 E0.05780
G1 X70.309 Y119.193 E0.05780
G1 X68.808 Y118.122 E0.05780
G1 X67.364 Y116.973 E0.05788
G1 X66.440 Y116.170 E0.03838
G1 X65.101 Y114.899 E0.05788
G1 X63.830 Y113.560 E0.05788
G1 X63.027 Y112.636 E0.03838
G1 X61.878 Y111.192 E0.05788
G1 X60.807 Y109.691 E0.05780
G1 X59.817 Y108.136 E0.05780
G1 X58.909 Y106.531 E0.05780
G1 X58.085 Y104.879 E0.05788
G1 X57.587 Y103.761 E0.03838
G1 X56.911 Y102.043 E0.05788
G1 X56.326 Y100.295 E0.05780
G1 X55.833 Y98.519 E0.05780
G1 X55.434 Y96.719 E0.05780
G1 X55.130 Y94.898 E0.05788
G1 X54.980 Y93.683 E0.03838
G1 X54.836 Y91.843 E0.05788
G1 X54.787 Y90.000 E0.05780
G1 X54.836 Y88.157 E0.05780
G1 X54.980 Y86.317 E0.05788
G1 X55.130 Y85.102 E0.03838
G1 X55.434 Y83.281 E0.05788
G1 X55.833 Y81.481 E0.05780
G1 X56.326 Y79.705 E0.05780
G1 X56.911 Y77.957 E0.05780
G1 X57.587 Y76.239 E0.05788
G1 X58.085 Y75.121 E0.03838
G1 X58.909 Y73.469 E0.05788
G1 X59.817 Y71.864 E0.05780
G1 X60.807 Y70.309 E0.05780
G1 X61.878 Y68.808 E0.05780
G1 X63.027 Y67.364 E0.05788
G1 X63.830 Y66.440 E0.03838
G1 X65.060 Y65.144 E0.05600
M204 S1250
G1 X64.786 Y64.885 F9000.000
M204 S800
G1 F1200.000
G1 X66.186 Y63.551 E0.06064
G1 X67.122 Y62.737 E0.03889
G1 X68.581 Y61.577 E0.05845
G1 X70.098 Y60.495 E0.05842
G1 X71.670 Y59.494 E0.05842
G1 X73.292 Y58.576 E0.05842
G1 X74.959 Y57.745 E0.05842
G1 X76.668 Y57.002 E0.05842
G1 X78.414 Y56.349 E0.05845
G1 X79.594 Y55.965 E0.03889
G1 X81.390 Y55.467 E0.05845
G1 X83.209 Y55.064 E0.05842
G1 X85.047 Y54.756 E0.05842
G1 X86.898 Y54.546 E0.05842
G1 X88.759 Y54.432 E0.05845
G1 X90.060 Y54.411 E0.04081
G1 X91.863 Y54.459 E0.05654
G1 X93.720 Y54.605 E0.05842
G1 X95.567 Y54.848 E0.05842
G1 X97.400 Y55.188 E0.05842
G1 X99.212 Y55.623 E0.05845
G1 X100.405 Y55.965 E0.03889
G1 X102.172 Y56.556 E0.05845
G1 X103.907 Y57.240 E0.05845
G1 X105.040 Y57.744 E0.03889
G1 X106.708 Y58.576 E0.05845
G1 X108.330 Y59.494 E0.05842
G1 X109.902 Y60.495 E0.05842
G1 X111.419 Y61.577 E0.05842
G1 X112.878 Y62.737 E0.05845
G1 X113.814 Y63.551 E0.03889
G1 X115.166 Y64.834 E0.05845
G1 X116.449 Y66.186 E0.05845
G1 X117.263 Y67.122 E0.03889
G1 X118.423 Y68.581 E0.05845
G1 X119.505 Y70.098 E0.05842
G1 X120.506 Y71.670 E0.05842
G1 X121.424 Y73.292 E0.05842
G1 X122.256 Y74.960 E0.05845
G1 X122.760 Y76.093 E0.03889
G1 X123.444 Y77.828 E0.05845
G1 X124.035 Y79.594 E0.05842
G1 X124.533 Y81.390 E0.05842
G1 X124.936 Y83.209 E0.05842
G1 X125.244 Y85.048 E0.05845
G1 X125.395 Y86.279 E0.03889
G1 X125.541 Y88.137 E0.05845
G1 X125.590 Y90.000 E0.05842
G1 X125.541 Y91.863 E0.05842
G1 X125.395 Y93.721 E0.05845
G1 X125.244 Y94.952 E0.03889
G1 X124.936 Y96.791 E0.05845
G1 X124.533 Y98.610 E0.05842
G1 X124.035 Y100.406 E0.05842
G1 X123.444 Y102.172 E0.05842
G1 X122.760 Y103.907 E0.05845
G1 X122.256 Y105.040 E0.03889
G1 X121.424 Y106.708 E0.05845
G1 X120.506 Y108.330 E0.05842
G1 X119.505 Y109.902 E0.05842
G1 X118.423 Y111.419 E0.05842
G1 X117.263 Y112.878 E0.05845
G1 X116.449 Y113.814 E0.03889
G1 X115.166 Y115.166 E0.05845
G1 X113.814 Y116.449 E0.05845
G1 X112.878 Y117.263 E0.03889
G1 X111.419 Y118.423 E0.05845
G1 X109.902 Y119.505 E0.05842
G1 X108.330 Y120.506 E0.05842
G1 X106.708 Y121.424 E0.05842
G1 X105.040 Y122.256 E0.05845
G1 X103.907 Y122.760 E0.03889
G1 X102.172 Y123.444 E0.05845
G1 X100.406 Y124.035 E0.05842
G1 X98.610 Y124.533 E0.05842
G1 X96.791 Y124.936 E0.05842
G1 X94.952 Y125.244 E0.05845
G1 X93.721 Y125.395 E0.03889
G1 X91.863 Y125.541 E0.05845
G1 X90.000 Y125.590 E0.05842
G1 X88.137 Y125.541 E0.05842
G1 X86.279 Y125.395 E0.05845
G1 X85.048 Y125.244 E0.03889
G1 X83.209 Y124.936 E0.05845
G1 X81.390 Y124.533 E0.05842
G1 X79.594 Y124.035 E0.05842
G1 X77.828 Y123.444 E0.05842
G1 X76.093 Y122.760 E0.05845
G1 X74.960 Y122.256 E0.03889
G1 X73.292 Y121.424 E0.05845
G1 X71.670 Y120.506 E0.05842
G1 X70.098 Y119.505 E0.05842
G1 X68.581 Y118.423 E0.05842
G1 X67.122 Y117.263 E0.05845
G1 X66.186 Y116.449 E0.03889
G1 X64.834 Y115.166 E0.05845
G1 X63.551 Y113.814 E0.05845
G1 X62.737 Y112.878 E0.03889
G1 X61.577 Y111.419 E0.05845
G1 X60.495 Y109.902 E0.05842
G1 X59.494 Y108.330 E0.05842
G1 X58.576 Y106.708 E0.05842
G1 X57.744 Y105.040 E0.05845
G1 X57.240 Y103.907 E0.03889
G1 X56.556 Y102.172 E0.05845
G1 X55.965 Y100.406 E0.05842
G1 X55.467 Y98.610 E0.05842
G1 X55.064 Y96.791 E0.05842
G1 X54.756 Y94.952 E0.05845
G1 X54.605 Y93.721 E0.03889
G1 X54.459 Y91.863 E0.05845
G1 X54.410 Y90.000 E0.05842
G1 X54.459 Y88.137 E0.05842
G1 X54.605 Y86.279 E0.05845
G1 X54.756 Y85.048 E0.03889
G1 X55.064 Y83.209 E0.05845
G1 X55.467 Y81.390 E0.05842
G1 X55.965 Y79.594 E0.05842
G1 X56.556 Y77.828 E0.05842
G1 X57.240 Y76.093 E0.05845
G1 X57.744 Y74.960 E0.03889
G1 X58.576 Y73.292 E0.05845
G1 X59.494 Y71.670 E0.05842
G1 X60.495 Y70.098 E0.05842
G1 X61.577 Y68.581 E0.05842
G1 X62.737 Y67.122 E0.05845
G1 X63.551 Y66.186 E0.03889
G1 X64.745 Y64.928 E0.05438
M204 S1250
G1 X65.172 Y64.989 F9000.000
G1 E-2.24000 F4200.00000
G1 F7200.000
G1 X65.935 Y63.791 E-0.91200
G1 E-0.04800 F4200.00000
G1 Z0.400 F9000.000
G1 X117.089 Y67.691
G1 Z0.200
G1 E3.20000 F2400.00000
M204 S800
G1 F1200.000
G1 X114.692 Y65.294 E0.10642
G1 X113.370 Y64.039 E0.05723
G1 X112.455 Y63.245 E0.03804
G1 X110.834 Y61.970 E0.06476
G1 X118.030 Y69.166 E0.31954
G1 X118.958 Y70.468 E0.05019
G1 X119.241 Y70.911 E0.01651
G1 X109.089 Y60.759 E0.45078
G1 X107.990 Y60.059 E0.04091
G1 X107.679 Y59.883 E0.01123
G1 X120.117 Y72.321 E0.55231
G1 X120.813 Y73.551 E0.04437
G1 X106.449 Y59.187 E0.63782
G1 X105.377 Y58.650 E0.03765
G1 X121.350 Y74.623 E0.70929
G1 X121.839 Y75.645 E0.03556
G1 X104.355 Y58.161 E0.77635
G1 X103.414 Y57.755 E0.03218
G1 X122.245 Y76.586 E0.83617
G1 X122.592 Y77.467 E0.02973
G1 X102.533 Y57.408 E0.89071
G1 X101.679 Y57.087 E0.02867
G1 X122.913 Y78.321 E0.94291
G1 X123.182 Y79.124 E0.02657
G1 X100.876 Y56.818 E0.99048
G1 X100.082 Y56.559 E0.02621
G1 X123.439 Y79.916 E1.03715
G1 X123.644 Y80.655 E0.02408
G1 X99.334 Y56.344 E1.07949
G1 X98.613 Y56.158 E0.02337
G1 X123.849 Y81.394 E1.12058
G1 X124.012 Y82.091 E0.02249
M73 P3 R33
G1 X97.910 Y55.989 E1.15904
G1 X97.211 Y55.824 E0.02255
G1 X124.164 Y82.777 E1.19684
G1 X124.308 Y83.455 E0.02176
G1 X96.556 Y55.703 E1.23233
G1 X95.900 Y55.581 E0.02093
G1 X124.415 Y84.096 E1.26621
G1 X124.523 Y84.738 E0.02042
G1 X95.258 Y55.473 E1.29948
G1 X94.643 Y55.392 E0.01948
G1 X124.618 Y85.367 E1.33102
G1 X124.693 Y85.976 E0.01926
G1 X94.028 Y55.311 E1.36165
G1 X93.427 Y55.244 E0.01900
G1 X124.756 Y86.573 E1.39116
G1 X124.802 Y87.153 E0.01826
G1 X92.847 Y55.198 E1.41893
G1 X92.268 Y55.153 E0.01826
G1 X124.847 Y87.732 E1.44669
G1 X124.885 Y88.304 E0.01800
G1 X91.696 Y55.114 E1.47379
G1 X91.147 Y55.100 E0.01724
G1 X124.900 Y88.853 E1.49879
G1 X124.914 Y89.401 E0.01722
G1 X90.598 Y55.085 E1.52380
G1 X90.050 Y55.071 E0.01723
G1 X124.928 Y89.950 E1.54878
G1 X124.917 Y90.473 E0.01642
G1 X89.524 Y55.079 E1.57163
G1 X88.999 Y55.088 E0.01650
G1 X124.904 Y90.993 E1.59436
G1 X124.890 Y91.513 E0.01635
G1 X88.486 Y55.109 E1.61650
G1 X87.983 Y55.140 E0.01583
G1 X124.867 Y92.024 E1.63780
G1 X124.828 Y92.519 E0.01559
G1 X87.480 Y55.171 E1.65842
G1 X86.977 Y55.202 E0.01583
G1 X124.789 Y93.014 E1.67903
G1 X124.750 Y93.509 E0.01559
G1 X86.496 Y55.255 E1.69864
G1 X86.017 Y55.310 E0.01515
G1 X124.697 Y93.990 E1.71759
G1 X124.639 Y94.466 E0.01505
G1 X85.537 Y55.365 E1.73628
G1 X85.062 Y55.423 E0.01505
G1 X124.577 Y94.938 E1.75467
G1 X124.500 Y95.396 E0.01456
G1 X84.604 Y55.500 E1.77159
M73 P6 R32
G1 X84.147 Y55.576 E0.01456
G1 X124.424 Y95.853 E1.78850
G1 X124.347 Y96.311 E0.01456
G1 X83.689 Y55.653 E1.80541
G1 X83.236 Y55.734 E0.01445
G1 X124.266 Y96.764 E1.82192
G1 X124.169 Y97.201 E0.01406
G1 X82.799 Y55.831 E1.83702
G1 X82.362 Y55.928 E0.01406
G1 X124.072 Y97.638 E1.85213
G1 X123.975 Y98.075 E0.01406
G1 X81.925 Y56.025 E1.86724
G1 X81.491 Y56.124 E0.01399
G1 X123.876 Y98.509 E1.88210
G1 X123.760 Y98.927 E0.01362
G1 X81.073 Y56.240 E1.89552
G1 X80.654 Y56.356 E0.01362
G1 X123.644 Y99.346 E1.90894
G1 X123.528 Y99.764 E0.01362
G1 X80.236 Y56.472 E1.92236
G1 X79.818 Y56.588 E0.01362
G1 X123.412 Y100.182 E1.93578
G1 X123.280 Y100.583 E0.01327
G1 X79.414 Y56.718 E1.94784
G1 X79.011 Y56.849 E0.01331
G1 X123.146 Y100.983 E1.95979
G1 X123.012 Y101.383 E0.01325
G1 X78.609 Y56.980 E1.97171
G1 X78.220 Y57.126 E0.01303
G1 X122.878 Y101.784 E1.98302
G1 X122.734 Y102.174 E0.01305
G1 X77.831 Y57.271 E1.99389
G1 X77.443 Y57.416 E0.01303
G1 X122.583 Y102.557 E2.00445
G1 X122.432 Y102.940 E0.01293
G1 X77.054 Y57.562 E2.01501
G1 X76.676 Y57.718 E0.01284
G1 X122.281 Y103.323 E2.02509
G1 X122.128 Y103.704 E0.01290
G1 X76.304 Y57.880 E2.03484
M73 P9 R31
G1 X75.931 Y58.041 E0.01274
