; generated by PrusaSlicer 2.2.0+ on 2022-03-13 at 15:54:41 UTC


;
;

;
;
; 

; external perimeters extrusion width = 0.45mm
; perimeters extrusion width = 0.45mm
; infill extrusion width = 0.45mm
; solid infill extrusion width = 0.45mm
; top infill extrusion width = 0.40mm
; first layer extrusion width = 0.42mm

M73 P0 R34
M201 X1250 Y1250 Z400 E5000 ; sets maximum accelerations, mm/sec^2
M203 X180 Y180 Z12 E80 ; sets maximum feedrates, mm/sec
M204 P1250 R1250 T1250 ; sets acceleration (P, T) and retract acceleration (R), mm/sec^2
M205 X8.00 Y8.00 Z2.00 E10.00 ; sets the jerk limits, mm/sec
M205 S0 T0 ; sets the minimum extruding and travel feed rate, mm/sec
M107
G90 ; use absolute coordinates
M83 ; extruder relative mode
M104 S170 ; set extruder temp for bed leveling
M140 S60 ; set bed temp
M109 R170 ; wait for bed leveling temp
M190 S60 ; wait for bed temp
G28 ; home all without mesh bed level
G29 ; mesh bed leveling 
M104 S215 ; set extruder temp
G92 E0.0
G1 Y-2.0 X179 F2400
G1 Z3 F720
M109 S215 ; wait for extruder temp

; intro line
G1 X170 F1000
G1 Z0.2 F720
G1 X110.0 E8.0 F900
M73 P0 R33
G1 X40.0 E10.0 F700
G92 E0.0

M221 S95 ; set flow
G21 ; set units to millimeters
G90 ; use absolute coordinates
M83 ; use relative distances for extrusion
M900 K0.2 ; Filament gcode LA 1.5
; ; Filament gcode LA 1.0
;BEFORE_LAYER_CHANGE
G92 E0.0
;0.2


G1 Z0.200 F9000.000
;AFTER_LAYER_CHANGE
;0.2
G1 E-3.20000 F4200.00000
G1 Z0.400 F9000.000
G1 X64.277 Y64.279
G1 Z0.200
G1 E3.20000 F2400.00000
M204 S800
G1 F1200.000
G1 X67.091 Y61.743 E0.11878
G1 X69.660 Y59.841 E0.10022
G1 X72.904 Y57.891 E0.11868
G1 X75.805 Y56.507 E0.10080
G1 X79.366 Y55.212 E0.11880
G1 X83.039 Y54.295 E0.11868
G1 X86.218 Y53.820 E0.10080
G1 X90.002 Y53.623 E0.11880
G1 X93.782 Y53.820 E0.11868
G1 X96.961 Y54.295 E0.10080
G1 X100.638 Y55.213 E0.11880
G1 X104.195 Y56.507 E0.11867
G1 X107.096 Y57.891 E0.10080
G1 X110.340 Y59.841 E0.11868
G1 X112.909 Y61.743 E0.10021
G1 X115.721 Y64.277 E0.11869
G1 X118.257 Y67.091 E0.11878
G1 X120.159 Y69.660 E0.10022
G1 X122.109 Y72.904 E0.11868
G1 X123.493 Y75.805 E0.10080
G1 X124.788 Y79.366 E0.11880
G1 X125.705 Y83.039 E0.11868
G1 X126.180 Y86.218 E0.10080
G1 X126.377 Y89.998 E0.11868
G1 X126.237 Y93.191 E0.10021
G1 X125.709 Y96.940 E0.11869
G1 X124.794 Y100.616 E0.11878
G1 X123.720 Y103.646 E0.10080
G1 X122.120 Y107.077 E0.11869
G1 X120.170 Y110.324 E0.11878
G1 X118.257 Y112.909 E0.10081
G1 X115.723 Y115.721 E0.11869
G1 X112.909 Y118.257 E0.11878
G1 X110.340 Y120.159 E0.10022
G1 X107.096 Y122.109 E0.11868
G1 X104.195 Y123.493 E0.10080
G1 X100.634 Y124.788 E0.11880
G1 X96.961 Y125.705 E0.11868
G1 X93.782 Y126.180 E0.10080
G1 X90.002 Y126.377 E0.11868
G1 X86.809 Y126.237 E0.10021
G1 X83.060 Y125.709 E0.11869
G1 X79.384 Y124.794 E0.11878
G1 X76.354 Y123.720 E0.10080
G1 X72.923 Y122.120 E0.11869
G1 X69.676 Y120.170 E0.11878
G1 X67.091 Y118.257 E0.10081
G1 X64.279 Y115.723 E0.11869
G1 X61.743 Y112.909 E0.11878
G1 X59.841 Y110.340 E0.10022
G1 X57.891 Y107.096 E0.11868
G1 X56.507 Y104.195 E0.10080
G1 X55.212 Y100.634 E0.11880
G1 X54.295 Y96.961 E0.11868
G1 X53.820 Y93.782 E0.10080
G1 X53.623 Y90.002 E0.11868
G1 X53.763 Y86.809 E0.10021
G1 X54.291 Y83.060 E0.11869
G1 X55.206 Y79.384 E0.11878
G1 X56.280 Y76.354 E0.10080
G1 X57.880 Y72.923 E0.11869
G1 X59.830 Y69.676 E0.11878
G1 X61.743 Y67.091 E0.10081
G1 X64.236 Y64.323 E0.11681
M204 S1250
; printing object ZaunPixel_ArrowDisk.stl id:0 copy 0
G1 E-2.24000 F4200.00000
G1 F7200.000
G1 X65.457 Y63.220 E-0.91200
G1 E-0.04800 F4200.00000
G1 Z0.400 F9000.000
G1 X88.089 Y88.089
G1 Z0.200
G1 E3.20000 F2400.00000
M204 S800
G1 F1200.000
G1 X88.966 Y87.503 E0.03306
G1 X90.000 Y87.298 E0.03306
G1 X91.034 Y87.503 E0.03306
G1 X91.911 Y88.089 E0.03306
G1 X92.497 Y88.966 E0.03306
G1 X92.702 Y90.000 E0.03306
G1 X92.497 Y91.034 E0.03306
G1 X91.911 Y91.911 E0.03306
G1 X91.034 Y92.497 E0.03306
G1 X90.000 Y92.702 E0.03306
G1 X88.966 Y92.497 E0.03306
G1 X88.089 Y91.911 E0.03306
G1 X87.503 Y91.034 E0.03306
G1 X87.298 Y90.000 E0.03306
G1 X87.503 Y88.966 E0.03306
G1 X88.056 Y88.139 E0.03118
M204 S1250
G1 X88.361 Y88.361 F9000.000
M204 S800
G1 F1200.000
G1 X89.113 Y87.858 E0.02836
G1 X90.000 Y87.682 E0.02836
G1 X90.887 Y87.858 E0.02836
G1 X91.639 Y88.361 E0.02836
G1 X92.142 Y89.113 E0.02836
G1 X92.318 Y90.000 E0.02836
G1 X92.142 Y90.887 E0.02836
G1 X91.639 Y91.639 E0.02836
G1 X90.887 Y92.142 E0.02836
G1 X90.000 Y92.318 E0.02836
G1 X89.113 Y92.142 E0.02836
G1 X88.361 Y91.639 E0.02836
G1 X87.858 Y90.887 E0.02836
G1 X87.682 Y90.000 E0.02836
G1 X87.858 Y89.113 E0.02836
G1 X88.328 Y88.411 E0.02648
M204 S1250
G1 X88.257 Y87.975 F9000.000
G1 E-2.24000 F4200.00000
G1 F7200.000
G1 X89.113 Y87.858 E-0.53209
G1 X89.785 Y87.725 E-0.37991
G1 E-0.04800 F4200.00000
G1 Z0.400 F9000.000
G1 X66.291 Y66.758
G1 Z0.200
G1 E3.20000 F2400.00000
M204 S800
G1 F1200.000
G1 X66.928 Y66.109 E0.02853
G1 X68.211 Y64.934 E0.05452
G1 X69.552 Y63.828 E0.05452
G1 X70.952 Y62.792 E0.05460
G1 X71.909 Y62.147 E0.03619
G1 X73.394 Y61.237 E0.05460
G1 X74.924 Y60.406 E0.05460
G1 X75.961 Y59.900 E0.03619
G1 X77.558 Y59.206 E0.05460
G1 X79.189 Y58.596 E0.05460
G1 X80.287 Y58.239 E0.03619
G1 X81.965 Y57.774 E0.05460
G1 X83.663 Y57.398 E0.05452
G1 X85.378 Y57.111 E0.05452
G1 X87.105 Y56.914 E0.05452
G1 X88.842 Y56.807 E0.05455
G1 X90.319 Y56.790 E0.04633
G1 X91.737 Y56.833 E0.04448
G1 X93.472 Y56.969 E0.05456
G1 X95.196 Y57.196 E0.05452
G1 X96.908 Y57.514 E0.05460
G1 X98.032 Y57.773 E0.03619
G1 X99.710 Y58.238 E0.05460
G1 X101.359 Y58.790 E0.05452
G1 X102.977 Y59.427 E0.05452
G1 X104.559 Y60.149 E0.05452
G1 X106.104 Y60.953 E0.05460
G1 X107.104 Y61.530 E0.03619
G1 X108.572 Y62.465 E0.05460
G1 X109.988 Y63.475 E0.05452
G1 X111.349 Y64.558 E0.05452
G1 X112.651 Y65.710 E0.05452
G1 X113.891 Y66.928 E0.05452
G1 X115.066 Y68.211 E0.05452
G1 X116.172 Y69.552 E0.05452
G1 X117.208 Y70.952 E0.05460
G1 X117.853 Y71.909 E0.03619
G1 X118.763 Y73.394 E0.05460
G1 X119.594 Y74.924 E0.05460
G1 X120.100 Y75.961 E0.03619
G1 X120.794 Y77.558 E0.05460
G1 X121.403 Y79.187 E0.05452
G1 X121.926 Y80.845 E0.05452
G1 X122.361 Y82.529 E0.05452
G1 X122.708 Y84.233 E0.05452
G1 X122.965 Y85.952 E0.05452
G1 X123.132 Y87.686 E0.05460
G1 X123.192 Y88.838 E0.03619
G1 X123.208 Y90.580 E0.05460
G1 X123.132 Y92.317 E0.05452
G1 X122.965 Y94.048 E0.05452
G1 X122.708 Y95.770 E0.05460
G1 X122.487 Y96.905 E0.03627
G1 X122.227 Y98.032 E0.03627
G1 X121.762 Y99.710 E0.05460
G1 X121.210 Y101.359 E0.05452
G1 X120.573 Y102.977 E0.05452
G1 X119.851 Y104.559 E0.05452
G1 X119.047 Y106.104 E0.05460
G1 X118.470 Y107.104 E0.03619
G1 X117.535 Y108.572 E0.05460
G1 X116.525 Y109.988 E0.05452
G1 X115.442 Y111.349 E0.05452
G1 X114.290 Y112.651 E0.05452
G1 X113.072 Y113.891 E0.05452
G1 X111.789 Y115.066 E0.05452
G1 X110.448 Y116.172 E0.05452
G1 X109.048 Y117.208 E0.05460
G1 X108.091 Y117.853 E0.03619
G1 X106.606 Y118.763 E0.05460
G1 X105.076 Y119.594 E0.05460
G1 X104.039 Y120.100 E0.03619
G1 X102.442 Y120.794 E0.05460
G1 X100.813 Y121.403 E0.05452
G1 X99.155 Y121.926 E0.05452
G1 X97.471 Y122.361 E0.05452
G1 X95.767 Y122.708 E0.05452
G1 X94.048 Y122.965 E0.05452
G1 X92.314 Y123.132 E0.05460
G1 X91.162 Y123.192 E0.03619
G1 X89.420 Y123.208 E0.05460
G1 X87.683 Y123.132 E0.05452
G1 X85.952 Y122.965 E0.05452
G1 X84.230 Y122.708 E0.05460
G1 X83.095 Y122.487 E0.03627
G1 X81.968 Y122.227 E0.03627
G1 X80.290 Y121.762 E0.05460
G1 X78.641 Y121.210 E0.05452
G1 X77.023 Y120.573 E0.05452
G1 X75.441 Y119.851 E0.05452
G1 X73.896 Y119.047 E0.05460
G1 X72.896 Y118.470 E0.03619
G1 X71.428 Y117.535 E0.05460
G1 X70.012 Y116.525 E0.05452
G1 X68.651 Y115.442 E0.05452
G1 X67.349 Y114.290 E0.05452
G1 X66.109 Y113.072 E0.05452
G1 X64.934 Y111.789 E0.05452
G1 X63.828 Y110.448 E0.05452
G1 X62.792 Y109.048 E0.05460
G1 X62.147 Y108.091 E0.03619
G1 X61.237 Y106.606 E0.05460
G1 X60.406 Y105.076 E0.05460
G1 X59.900 Y104.039 E0.03619
G1 X59.206 Y102.442 E0.05460
G1 X58.597 Y100.813 E0.05452
G1 X58.074 Y99.155 E0.05452
G1 X57.639 Y97.471 E0.05452
G1 X57.292 Y95.767 E0.05452
G1 X57.035 Y94.048 E0.05452
G1 X56.868 Y92.314 E0.05460
G1 X56.808 Y91.162 E0.03619
G1 X56.792 Y89.420 E0.05460
G1 X56.868 Y87.683 E0.05452
G1 X57.035 Y85.952 E0.05452
G1 X57.292 Y84.230 E0.05460
G1 X57.513 Y83.095 E0.03627
G1 X57.773 Y81.968 E0.03627
G1 X58.238 Y80.290 E0.05460
G1 X58.790 Y78.641 E0.05452
G1 X59.427 Y77.023 E0.05452
G1 X60.149 Y75.441 E0.05452
G1 X60.953 Y73.896 E0.05460
G1 X61.530 Y72.896 E0.03619
G1 X62.465 Y71.428 E0.05460
G1 X63.475 Y70.012 E0.05452
G1 X64.558 Y68.651 E0.05452
G1 X65.710 Y67.349 E0.05452
G1 X66.249 Y66.800 E0.02411
M204 S1250
G1 X65.980 Y66.536 F9000.000
M204 S800
G1 F1200.000
G1 X66.666 Y65.837 E0.03072
G1 X67.963 Y64.649 E0.05514
G1 X69.320 Y63.531 E0.05514
G1 X70.734 Y62.484 E0.05517
G1 X71.705 Y61.830 E0.03670
G1 X73.205 Y60.910 E0.05517
G1 X74.751 Y60.071 E0.05517
G1 X75.803 Y59.558 E0.03671
G1 X77.417 Y58.856 E0.05517
G1 X79.065 Y58.240 E0.05517
G1 X80.178 Y57.878 E0.03670
G1 X81.874 Y57.408 E0.05517
G1 X83.591 Y57.027 E0.05514
G1 X85.325 Y56.737 E0.05514
G1 X87.072 Y56.538 E0.05514
G1 X88.828 Y56.431 E0.05515
G1 X90.323 Y56.413 E0.04687
G1 X91.758 Y56.456 E0.04501
G1 X93.511 Y56.594 E0.05515
G1 X95.255 Y56.824 E0.05514
G1 X96.985 Y57.144 E0.05517
G1 X98.125 Y57.408 E0.03670
G1 X99.821 Y57.878 E0.05517
G1 X101.488 Y58.436 E0.05514
G1 X103.125 Y59.080 E0.05514
G1 X104.725 Y59.810 E0.05514
G1 X106.286 Y60.622 E0.05517
G1 X107.299 Y61.207 E0.03670
G1 X108.783 Y62.153 E0.05517
G1 X110.215 Y63.174 E0.05514
G1 X111.591 Y64.269 E0.05514
G1 X112.908 Y65.434 E0.05514
G1 X114.163 Y66.666 E0.05514
G1 X115.351 Y67.963 E0.05514
G1 X116.469 Y69.320 E0.05514
G1 X117.516 Y70.734 E0.05517
G1 X118.170 Y71.705 E0.03670
G1 X119.090 Y73.205 E0.05517
G1 X119.929 Y74.751 E0.05517
G1 X120.442 Y75.803 E0.03671
G1 X121.144 Y77.417 E0.05517
G1 X121.760 Y79.064 E0.05514
G1 X122.289 Y80.741 E0.05514
G1 X122.729 Y82.444 E0.05514
G1 X123.080 Y84.167 E0.05514
G1 X123.340 Y85.906 E0.05514
G1 X123.508 Y87.658 E0.05517
G1 X123.569 Y88.827 E0.03670
G1 X123.585 Y90.586 E0.05517
G1 X123.508 Y92.343 E0.05514
G1 X123.340 Y94.094 E0.05514
G1 X123.080 Y95.834 E0.05517
G1 X122.856 Y96.984 E0.03673
G1 X122.592 Y98.125 E0.03673
G1 X122.122 Y99.821 E0.05517
G1 X121.564 Y101.488 E0.05514
G1 X120.920 Y103.125 E0.05514
G1 X120.190 Y104.725 E0.05514
G1 X119.378 Y106.286 E0.05517
G1 X118.793 Y107.299 E0.03670
G1 X117.847 Y108.783 E0.05517
G1 X116.826 Y110.215 E0.05514
G1 X115.731 Y111.591 E0.05514
G1 X114.566 Y112.908 E0.05514
G1 X113.334 Y114.163 E0.05514
G1 X112.037 Y115.351 E0.05514
G1 X110.680 Y116.469 E0.05514
G1 X109.266 Y117.516 E0.05517
G1 X108.295 Y118.170 E0.03670
G1 X106.795 Y119.090 E0.05517
G1 X105.249 Y119.929 E0.05517
G1 X104.197 Y120.442 E0.03671
G1 X102.583 Y121.144 E0.05517
G1 X100.936 Y121.760 E0.05514
G1 X99.259 Y122.289 E0.05514
G1 X97.556 Y122.729 E0.05514
G1 X95.833 Y123.080 E0.05514
G1 X94.094 Y123.340 E0.05514
G1 X92.342 Y123.508 E0.05517
G1 X91.173 Y123.569 E0.03670
G1 X89.414 Y123.585 E0.05517
G1 X87.657 Y123.508 E0.05514
G1 X85.906 Y123.340 E0.05514
G1 X84.166 Y123.080 E0.05517
G1 X83.016 Y122.856 E0.03673
G1 X81.875 Y122.592 E0.03673
G1 X80.179 Y122.122 E0.05517
G1 X78.512 Y121.564 E0.05514
G1 X76.875 Y120.920 E0.05514
G1 X75.275 Y120.190 E0.05514
G1 X73.714 Y119.378 E0.05517
G1 X72.701 Y118.793 E0.03670
G1 X71.217 Y117.847 E0.05517
G1 X69.785 Y116.826 E0.05514
G1 X68.409 Y115.731 E0.05514
G1 X67.092 Y114.566 E0.05514
G1 X65.837 Y113.334 E0.05514
G1 X64.649 Y112.037 E0.05514
G1 X63.531 Y110.680 E0.05514
G1 X62.484 Y109.266 E0.05517
G1 X61.830 Y108.295 E0.03670
G1 X60.910 Y106.795 E0.05517
G1 X60.071 Y105.249 E0.05517
G1 X59.558 Y104.197 E0.03671
G1 X58.856 Y102.583 E0.05517
G1 X58.240 Y100.936 E0.05514
G1 X57.711 Y99.259 E0.05514
G1 X57.271 Y97.556 E0.05514
G1 X56.920 Y95.833 E0.05514
G1 X56.660 Y94.094 E0.05514
G1 X56.492 Y92.342 E0.05517
G1 X56.431 Y91.173 E0.03670
G1 X56.415 Y89.414 E0.05517
G1 X56.492 Y87.657 E0.05514
G1 X56.660 Y85.906 E0.05514
G1 X56.920 Y84.166 E0.05517
G1 X57.144 Y83.016 E0.03673
G1 X57.408 Y81.875 E0.03673
G1 X57.878 Y80.179 E0.05517
G1 X58.436 Y78.512 E0.05514
G1 X59.080 Y76.875 E0.05514
G1 X59.810 Y75.275 E0.05514
G1 X60.622 Y73.714 E0.05517
G1 X61.207 Y72.701 E0.03670
G1 X62.153 Y71.217 E0.05517
G1 X63.174 Y69.785 E0.05514
G1 X64.269 Y68.409 E0.05514
G1 X65.434 Y67.092 E0.05514
G1 X65.938 Y66.579 E0.02254
M204 S1250
G1 X66.368 Y66.632 F9000.000
G1 E-2.24000 F4200.00000
G1 F7200.000
G1 X66.666 Y65.837 E-0.57616
G1 X67.113 Y65.428 E-0.33584
G1 E-0.04800 F4200.00000
G1 Z0.400 F9000.000
G1 X68.548 Y64.802
G1 Z0.200
G1 E3.20000 F2400.00000
M204 S800
G1 F1200.000
G1 X90.943 Y87.197 E0.99660
G1 X90.275 Y87.064 E0.02143
G1 X68.377 Y65.165 E0.97451
G1 X68.097 Y65.421 E0.01192
G1 X89.737 Y87.061 E0.96301
G1 X89.291 Y87.150 E0.01432
G1 X67.818 Y65.677 E0.95558
G1 X67.539 Y65.933 E0.01192
G1 X88.848 Y87.242 E0.94828
G1 X88.527 Y87.456 E0.01214
G1 X67.259 Y66.189 E0.94643
G1 X66.987 Y66.452 E0.01191
G1 X88.206 Y87.671 E0.94426
G1 X87.885 Y87.885 E0.01214
G1 X66.722 Y66.722 E0.94178
G1 X66.457 Y66.992 E0.01191
G1 X87.671 Y88.206 E0.94405
G1 X87.456 Y88.527 E0.01214
G1 X66.192 Y67.262 E0.94631
G1 X65.926 Y67.532 E0.01191
G1 X87.242 Y88.848 E0.94858
G1 X87.150 Y89.291 E0.01425
G1 X65.675 Y67.816 E0.95569
M73 P3 R32
G1 X65.423 Y68.099 E0.01193
G1 X87.061 Y89.737 E0.96292
G1 X87.009 Y90.000 E0.00842
G1 X87.064 Y90.275 E0.00883
G1 X65.172 Y68.383 E0.97421
G1 X64.921 Y68.667 E0.01193
G1 X87.197 Y90.943 E0.99131
G1 X87.237 Y91.145 E0.00646
G1 X87.885 Y92.115 E0.03672
G1 X88.855 Y92.763 E0.03672
G1 X89.057 Y92.803 E0.00646
G1 X111.331 Y115.077 E0.99124
G1 X111.623 Y114.835 E0.01196
G1 X89.725 Y92.936 E0.97452
G1 X90.000 Y92.991 E0.00883
G1 X90.263 Y92.939 E0.00842
G1 X111.903 Y114.579 E0.96302
G1 X112.182 Y114.323 E0.01192
G1 X90.709 Y92.850 E0.95558
G1 X91.152 Y92.758 E0.01425
G1 X112.461 Y114.067 E0.94828
G1 X112.741 Y113.811 E0.01192
G1 X91.473 Y92.544 E0.94643
G1 X91.794 Y92.329 E0.01214
G1 X113.013 Y113.548 E0.94426
G1 X113.278 Y113.278 E0.01191
G1 X92.115 Y92.115 E0.94178
G1 X92.329 Y91.794 E0.01214
G1 X113.543 Y113.008 E0.94405
G1 X113.808 Y112.738 E0.01191
G1 X92.544 Y91.473 E0.94631
G1 X92.758 Y91.152 E0.01214
G1 X114.074 Y112.468 E0.94858
G1 X114.325 Y112.185 E0.01193
G1 X92.850 Y90.709 E0.95569
G1 X92.939 Y90.263 E0.01432
G1 X114.577 Y111.901 E0.96292
G1 X114.828 Y111.617 E0.01193
G1 X92.936 Y89.725 E0.97421
G1 X92.803 Y89.057 E0.02143
G1 X115.079 Y111.333 E0.99130
G1 X115.324 Y111.043 E0.01195
G1 X68.962 Y64.681 E2.06318
G1 X69.256 Y64.439 E0.01196
G1 X115.561 Y110.745 E2.06068
G1 X115.799 Y110.447 E0.01199
G1 X69.549 Y64.197 E2.05818
G1 X69.848 Y63.961 E0.01199
G1 X116.036 Y110.149 E2.05542
G1 X116.273 Y109.851 E0.01199
G1 X70.156 Y63.733 E2.05229
G1 X70.463 Y63.506 E0.01204
G1 X116.497 Y109.540 E2.04858
G1 X116.720 Y109.227 E0.01207
G1 X70.771 Y63.278 E2.04481
G1 X71.078 Y63.051 E0.01204
G1 X116.943 Y108.915 E2.04104
G1 X117.166 Y108.603 E0.01207
G1 X71.397 Y62.833 E2.03680
G1 X71.716 Y62.618 E0.01213
G1 X117.383 Y108.284 E2.03223
M73 P6 R31
G1 X117.591 Y107.958 E0.01220
G1 X72.036 Y62.402 E2.02728
G1 X72.367 Y62.198 E0.01224
G1 X117.799 Y107.631 E2.02182
G1 X118.007 Y107.304 E0.01220
G1 X72.698 Y61.995 E2.01632
G1 X73.030 Y61.791 E0.01225
G1 X118.216 Y106.977 E2.01082
G1 X118.412 Y106.638 E0.01232
G1 X73.362 Y61.588 E2.00481
G1 X73.701 Y61.392 E0.01233
G1 X118.608 Y106.299 E1.99844
G1 X118.804 Y105.959 E0.01233
G1 X74.048 Y61.203 E1.99170
G1 X74.395 Y61.015 E0.01242
G1 X118.987 Y105.607 E1.98442
G1 X119.170 Y105.255 E0.01249
G1 X74.742 Y60.827 E1.97714
G1 X75.090 Y60.640 E0.01244
G1 X119.354 Y104.903 E1.96980
G1 X119.537 Y104.551 E0.01249
G1 X75.450 Y60.464 E1.96194
G1 X75.809 Y60.289 E0.01259
G1 X119.709 Y104.189 E1.95362
G1 X119.877 Y103.821 E0.01271
G1 X76.172 Y60.117 E1.94492
G1 X76.545 Y59.954 E0.01280
G1 X120.045 Y103.454 E1.93578
G1 X120.212 Y103.086 E0.01271
G1 X76.918 Y59.792 E1.92664
G1 X77.291 Y59.630 E0.01280
G1 X120.373 Y102.712 E1.91720
G1 X120.524 Y102.328 E0.01299
