; generated by PrusaSlicer 2.2.0+ on 2022-03-14 at 19:06:54 UTC


;
;

;
;
; 

; external perimeters extrusion width = 0.45mm
; perimeters extrusion width = 0.45mm
; infill extrusion width = 0.45mm
; solid infill extrusion width = 0.45mm
; top infill extrusion width = 0.40mm
; first layer extrusion width = 0.42mm

M73 P0 R126
M201 X1250 Y1250 Z400 E5000 ; sets maximum accelerations, mm/sec^2
M203 X180 Y180 Z12 E80 ; sets maximum feedrates, mm/sec
M204 P1250 R1250 T1250 ; sets acceleration (P, T) and retract acceleration (R), mm/sec^2
M205 X8.00 Y8.00 Z2.00 E10.00 ; sets the jerk limits, mm/sec
M205 S0 T0 ; sets the minimum extruding and travel feed rate, mm/sec
M107
G90 ; use absolute coordinates
M83 ; extruder relative mode
M104 S170 ; set extruder temp for bed leveling
M140 S60 ; set bed temp
M109 R170 ; wait for bed leveling temp
M190 S60 ; wait for bed temp
G28 ; home all without mesh bed level
G29 ; mesh bed leveling 
M104 S215 ; set extruder temp
G92 E0.0
G1 Y-2.0 X179 F2400
G1 Z3 F720
M109 S215 ; wait for extruder temp

; intro line
G1 X170 F1000
G1 Z0.2 F720
G1 X110.0 E8.0 F900
M73 P0 R126
G1 X40.0 E10.0 F700
G92 E0.0

M221 S95 ; set flow
G21 ; set units to millimeters
G90 ; use absolute coordinates
M83 ; use relative distances for extrusion
M900 K0.2 ; Filament gcode LA 1.5
; ; Filament gcode LA 1.0
;BEFORE_LAYER_CHANGE
G92 E0.0
;0.2


G1 Z0.200 F9000.000
;AFTER_LAYER_CHANGE
;0.2
G1 E-3.20000 F4200.00000
G1 Z0.400 F9000.000
G1 X39.285 Y56.137
G1 Z0.200
G1 E3.20000 F2400.00000
M204 S800
G1 F1200.000
G1 X39.677 Y55.474 E0.02414
G1 X48.371 Y47.442 E0.37111
G1 X49.436 Y46.579 E0.04298
G1 X50.759 Y45.736 E0.04918
G1 X52.178 Y45.060 E0.04930
G1 X53.669 Y44.561 E0.04929
G1 X55.217 Y44.247 E0.04954
G1 X56.994 Y44.123 E0.05586
G1 X123.004 Y44.123 E2.06968
G1 X125.013 Y44.281 E0.06319
G1 X126.959 Y44.747 E0.06276
G1 X128.664 Y45.435 E0.05763
G1 X130.394 Y46.457 E0.06299
G1 X131.621 Y47.434 E0.04918
G1 X140.165 Y55.304 E0.36423
G1 X140.637 Y55.959 E0.02532
G1 X140.862 Y56.735 E0.02532
G1 X140.870 Y67.179 E0.32747
G1 X135.806 Y124.347 E1.79949
G1 X135.444 Y126.310 E0.06258
G1 X134.855 Y128.029 E0.05697
G1 X134.027 Y129.650 E0.05706
G1 X132.867 Y131.274 E0.06257
G1 X131.944 Y132.264 E0.04245
G1 X130.926 Y133.149 E0.04230
G1 X129.822 Y133.921 E0.04224
G1 X128.626 Y134.583 E0.04285
G1 X127.384 Y135.108 E0.04228
G1 X125.913 Y135.543 E0.04809
G1 X124.571 Y135.781 E0.04275
G1 X123.226 Y135.875 E0.04225
G1 X56.537 Y135.869 E2.09100
G1 X54.343 Y135.600 E0.06929
G1 X52.383 Y135.021 E0.06409
G1 X50.386 Y134.048 E0.06965
G1 X48.725 Y132.866 E0.06393
G1 X47.880 Y132.091 E0.03595
G1 X46.996 Y131.108 E0.04144
G1 X46.315 Y130.187 E0.03592
G1 X45.641 Y129.065 E0.04105
G1 X45.146 Y128.031 E0.03592
G1 X44.747 Y126.960 E0.03584
G1 X44.408 Y125.693 E0.04113
G1 X44.217 Y124.556 E0.03617
G1 X39.128 Y67.157 E1.80677
G1 X39.125 Y56.890 E0.32191
G1 X39.273 Y56.195 E0.02226
M204 S1250
; printing object AP9_ZipTieFixture.stl id:0 copy 0
G1 E-2.24000 F4200.00000
G1 F7200.000
G1 X39.677 Y55.474 E-0.45824
G1 X40.279 Y54.918 E-0.45376
G1 E-0.04800 F4200.00000
G1 Z0.400 F9000.000
G1 X132.713 Y58.713
G1 Z0.200
G1 E3.20000 F2400.00000
M204 S800
G1 F1200.000
G1 X136.287 Y58.713 E0.11207
G1 X136.287 Y65.287 E0.20613
G1 X132.713 Y65.287 E0.11207
G1 X132.713 Y58.773 E0.20425
M204 S1250
G1 X133.090 Y59.090 F9000.000
M204 S800
G1 F1200.000
G1 X135.910 Y59.090 E0.08842
G1 X135.910 Y64.910 E0.18248
G1 X133.090 Y64.910 E0.08842
G1 X133.090 Y59.150 E0.18060
M204 S1250
G1 X133.030 Y58.695 F9000.000
G1 E-2.24000 F4200.00000
G1 F7200.000
G1 X134.735 Y59.115 E-0.91200
G1 E-0.04800 F4200.00000
G1 Z0.400 F9000.000
G1 X128.546 Y50.841
G1 Z0.200
G1 E3.20000 F2400.00000
M204 S800
G1 F1200.000
G1 X129.157 Y51.453 E0.02712
G1 X129.619 Y52.012 E0.02275
G1 X130.028 Y52.608 E0.02267
G1 X130.384 Y53.238 E0.02267
G1 X130.684 Y53.895 E0.02267
G1 X130.926 Y54.577 E0.02267
G1 X131.107 Y55.277 E0.02267
G1 X131.226 Y55.990 E0.02267
G1 X131.282 Y56.708 E0.02259
G1 X131.287 Y123.016 E2.07904
G1 X131.242 Y123.867 E0.02670
G1 X131.107 Y124.723 E0.02720
G1 X130.882 Y125.561 E0.02720
G1 X130.571 Y126.371 E0.02720
G1 X130.178 Y127.144 E0.02720
G1 X129.705 Y127.872 E0.02720
G1 X129.159 Y128.546 E0.02720
G1 X128.547 Y129.157 E0.02712
G1 X127.988 Y129.619 E0.02275
G1 X127.392 Y130.028 E0.02267
G1 X126.763 Y130.384 E0.02267
G1 X126.105 Y130.684 E0.02267
G1 X125.423 Y130.926 E0.02267
G1 X124.723 Y131.107 E0.02267
G1 X124.010 Y131.226 E0.02267
G1 X123.292 Y131.282 E0.02259
G1 X56.984 Y131.287 E2.07904
G1 X56.134 Y131.242 E0.02669
G1 X55.277 Y131.107 E0.02720
G1 X54.439 Y130.882 E0.02720
G1 X53.629 Y130.571 E0.02720
G1 X52.856 Y130.178 E0.02720
G1 X52.129 Y129.705 E0.02720
G1 X51.454 Y129.159 E0.02720
G1 X50.843 Y128.547 E0.02712
G1 X50.381 Y127.988 E0.02275
G1 X49.972 Y127.392 E0.02267
G1 X49.616 Y126.762 E0.02267
G1 X49.316 Y126.104 E0.02267
G1 X49.074 Y125.423 E0.02267
G1 X48.893 Y124.723 E0.02267
G1 X48.774 Y124.010 E0.02267
G1 X48.718 Y123.292 E0.02259
G1 X48.713 Y56.989 E2.07888
G1 X48.733 Y56.419 E0.01787
G1 X48.814 Y55.703 E0.02259
G1 X48.959 Y54.995 E0.02267
G1 X49.165 Y54.299 E0.02275
G1 X49.488 Y53.500 E0.02704
G1 X49.824 Y52.854 E0.02283
G1 X50.295 Y52.128 E0.02712
G1 X50.839 Y51.456 E0.02712
G1 X51.348 Y50.939 E0.02275
G1 X51.898 Y50.469 E0.02267
G1 X52.486 Y50.049 E0.02267
G1 X53.111 Y49.681 E0.02275
G1 X53.893 Y49.317 E0.02704
G1 X54.579 Y49.074 E0.02283
G1 X55.416 Y48.865 E0.02704
G1 X56.136 Y48.757 E0.02283
G1 X56.984 Y48.713 E0.02661
G1 X123.294 Y48.718 E2.07912
G1 X124.153 Y48.793 E0.02704
G1 X125.002 Y48.958 E0.02712
G1 X125.701 Y49.165 E0.02283
G1 X126.503 Y49.489 E0.02712
G1 X127.266 Y49.895 E0.02712
G1 X127.873 Y50.297 E0.02283
G1 X128.499 Y50.803 E0.02524
M204 S1250
G1 X128.262 Y51.096 F9000.000
M204 S800
G1 F1200.000
G1 X128.878 Y51.706 E0.02719
G1 X129.317 Y52.240 E0.02167
G1 X129.708 Y52.808 E0.02163
G1 X130.048 Y53.409 E0.02164
G1 X130.334 Y54.037 E0.02164
G1 X130.565 Y54.687 E0.02164
G1 X130.737 Y55.356 E0.02164
G1 X130.851 Y56.036 E0.02164
G1 X130.905 Y56.723 E0.02161
G1 X130.910 Y123.006 E2.07826
G1 X130.867 Y123.827 E0.02577
G1 X130.737 Y124.645 E0.02596
G1 X130.523 Y125.445 E0.02596
G1 X130.226 Y126.218 E0.02596
G1 X129.850 Y126.955 E0.02596
G1 X129.399 Y127.650 E0.02596
G1 X128.878 Y128.293 E0.02596
G1 X128.294 Y128.878 E0.02593
G1 X127.760 Y129.317 E0.02167
G1 X127.192 Y129.708 E0.02163
G1 X126.591 Y130.048 E0.02164
G1 X125.963 Y130.334 E0.02164
G1 X125.313 Y130.565 E0.02163
G1 X124.645 Y130.737 E0.02164
G1 X123.964 Y130.851 E0.02164
G1 X123.277 Y130.905 E0.02161
G1 X56.994 Y130.910 E2.07827
G1 X56.173 Y130.867 E0.02576
G1 X55.355 Y130.737 E0.02596
G1 X54.556 Y130.523 E0.02596
G1 X53.783 Y130.226 E0.02596
G1 X53.045 Y129.851 E0.02596
G1 X52.350 Y129.400 E0.02596
G1 X51.707 Y128.879 E0.02596
G1 X51.122 Y128.294 E0.02594
G1 X50.683 Y127.760 E0.02167
G1 X50.292 Y127.192 E0.02164
G1 X49.952 Y126.591 E0.02164
G1 X49.666 Y125.963 E0.02164
G1 X49.435 Y125.313 E0.02163
G1 X49.263 Y124.644 E0.02164
G1 X49.149 Y123.964 E0.02164
G1 X49.095 Y123.277 E0.02161
G1 X49.090 Y56.995 E2.07821
G1 X49.109 Y56.447 E0.01720
G1 X49.187 Y55.762 E0.02161
G1 X49.325 Y55.086 E0.02164
G1 X49.521 Y54.424 E0.02167
G1 X49.831 Y53.658 E0.02590
G1 X50.150 Y53.044 E0.02169
G1 X50.601 Y52.350 E0.02593
G1 X51.121 Y51.708 E0.02593
G1 X51.605 Y51.215 E0.02166
G1 X52.130 Y50.767 E0.02164
G1 X52.692 Y50.366 E0.02164
G1 X53.287 Y50.015 E0.02167
G1 X54.036 Y49.666 E0.02590
G1 X54.688 Y49.435 E0.02169
G1 X55.490 Y49.235 E0.02590
G1 X56.174 Y49.133 E0.02169
G1 X56.994 Y49.090 E0.02573
G1 X123.278 Y49.095 E2.07830
G1 X124.101 Y49.167 E0.02590
G1 X124.913 Y49.324 E0.02593
G1 X125.576 Y49.521 E0.02170
G1 X126.343 Y49.831 E0.02593
G1 X127.073 Y50.219 E0.02593
G1 X127.650 Y50.601 E0.02169
G1 X128.215 Y51.058 E0.02279
M204 S1250
G1 X128.642 Y50.972 F9000.000
G1 E-2.24000 F4200.00000
G1 F7200.000
G1 X128.878 Y51.706 E-0.51368
G1 X129.317 Y52.240 E-0.38294
G1 X129.333 Y52.263 E-0.01538
G1 E-0.04800 F4200.00000
G1 Z0.400 F9000.000
G1 X47.287 Y58.713
G1 Z0.200
G1 E3.20000 F2400.00000
M73 P0 R125
M204 S800
G1 F1200.000
G1 X47.287 Y65.287 E0.20613
G1 X43.713 Y65.287 E0.11207
G1 X43.713 Y58.713 E0.20613
G1 X47.227 Y58.713 E0.11018
M204 S1250
G1 X46.910 Y59.090 F9000.000
M204 S800
G1 F1200.000
G1 X46.910 Y64.910 E0.18248
G1 X44.090 Y64.910 E0.08842
G1 X44.090 Y59.090 E0.18248
G1 X46.850 Y59.090 E0.08654
M204 S1250
G1 X47.282 Y58.944 F9000.000
G1 E-2.24000 F4200.00000
G1 F7200.000
G1 X46.867 Y60.736 E-0.91200
G1 E-0.04800 F4200.00000
G1 Z0.400 F9000.000
G1 X42.287 Y57.345
G1 Z0.200
G1 E3.20000 F2400.00000
M204 S800
G1 F1200.000
G1 X50.496 Y49.787 E0.34987
G1 X51.018 Y49.348 E0.02139
G1 X51.710 Y48.855 E0.02665
G1 X52.443 Y48.423 E0.02665
G1 X53.047 Y48.128 E0.02110
G1 X53.840 Y47.816 E0.02673
G1 X54.484 Y47.619 E0.02110
G1 X55.316 Y47.435 E0.02673
G1 X55.985 Y47.341 E0.02118
G1 X56.664 Y47.293 E0.02135
G1 X57.498 Y47.287 E0.02617
G1 X122.992 Y47.287 E2.05351
G1 X123.506 Y47.301 E0.01611
G1 X124.186 Y47.360 E0.02142
G1 X124.684 Y47.434 E0.01578
G1 X125.350 Y47.576 E0.02133
G1 X126.001 Y47.763 E0.02126
G1 X126.638 Y47.995 E0.02126
G1 X127.260 Y48.271 E0.02134
G1 X127.707 Y48.504 E0.01578
G1 X128.292 Y48.856 E0.02142
G1 X128.709 Y49.142 E0.01586
G1 X129.112 Y49.452 E0.01595
G1 X129.502 Y49.785 E0.01608
G1 X137.713 Y57.345 E0.34995
G1 X137.713 Y66.965 E0.30163
G1 X132.640 Y124.181 E1.80099
G1 X132.499 Y125.024 E0.02682
G1 X132.382 Y125.514 E0.01578
G1 X132.239 Y125.996 E0.01578
G1 X131.940 Y126.795 E0.02673
G1 X131.573 Y127.564 E0.02673
G1 X131.325 Y128.002 E0.01578
G1 X131.055 Y128.427 E0.01579
G1 X130.548 Y129.112 E0.02673
G1 X129.987 Y129.747 E0.02656
G1 X129.372 Y130.330 E0.02657
G1 X128.709 Y130.857 E0.02657
G1 X128.002 Y131.325 E0.02657
G1 X127.258 Y131.729 E0.02656
G1 X126.478 Y132.068 E0.02665
G1 X125.842 Y132.287 E0.02109
G1 X125.019 Y132.500 E0.02665
G1 X124.184 Y132.640 E0.02657
G1 X123.336 Y132.707 E0.02665
G1 X56.833 Y132.711 E2.08516
G1 X56.323 Y132.689 E0.01602
G1 X55.816 Y132.640 E0.01594
G1 X55.313 Y132.565 E0.01595
G1 X54.815 Y132.464 E0.01594
G1 X54.323 Y132.336 E0.01595
G1 X53.838 Y132.184 E0.01594
G1 X53.362 Y132.005 E0.01594
G1 X52.895 Y131.803 E0.01594
G1 X52.440 Y131.576 E0.01594
G1 X51.998 Y131.325 E0.01594
G1 X51.569 Y131.052 E0.01595
G1 X51.155 Y130.757 E0.01594
G1 X50.757 Y130.440 E0.01594
G1 X50.376 Y130.103 E0.01594
G1 X50.013 Y129.747 E0.01594
G1 X49.671 Y129.374 E0.01586
G1 X49.245 Y128.847 E0.02125
G1 X48.762 Y128.145 E0.02673
G1 X48.426 Y127.562 E0.02109
G1 X48.059 Y126.793 E0.02673
G1 X47.818 Y126.165 E0.02109
G1 X47.575 Y125.347 E0.02673
G1 X47.435 Y124.687 E0.02117
G1 X47.340 Y124.010 E0.02143
G1 X42.287 Y66.965 E1.79560
G1 X42.287 Y57.405 E0.29975
M204 S1250
G1 X41.910 Y57.180 F9000.000
M204 S800
G1 F1200.000
G1 X50.247 Y49.503 E0.35533
G1 X50.787 Y49.050 E0.02213
G1 X51.505 Y48.538 E0.02763
G1 X52.264 Y48.091 E0.02763
G1 X52.895 Y47.783 E0.02202
G1 X53.716 Y47.460 E0.02766
G1 X54.388 Y47.254 E0.02202
G1 X55.249 Y47.063 E0.02766
G1 X55.945 Y46.965 E0.02205
G1 X56.649 Y46.916 E0.02213
G1 X57.497 Y46.910 E0.02658
G1 X122.997 Y46.910 E2.05371
G1 X123.527 Y46.924 E0.01662
G1 X124.231 Y46.985 E0.02214
G1 X124.751 Y47.063 E0.01651
G1 X125.441 Y47.210 E0.02211
G1 X126.118 Y47.404 E0.02208
G1 X126.780 Y47.645 E0.02208
G1 X127.424 Y47.932 E0.02211
G1 X127.891 Y48.175 E0.01650
G1 X128.496 Y48.538 E0.02214
G1 X128.931 Y48.837 E0.01653
G1 X129.350 Y49.159 E0.01657
G1 X129.753 Y49.503 E0.01661
G1 X138.090 Y57.180 E0.35535
G1 X138.090 Y66.982 E0.30734
G1 X133.015 Y124.229 E1.80197
G1 X132.869 Y125.100 E0.02769
G1 X132.746 Y125.611 E0.01650
G1 X132.597 Y126.116 E0.01651
G1 X132.288 Y126.942 E0.02766
G1 X131.908 Y127.739 E0.02766
G1 X131.649 Y128.197 E0.01650
G1 X131.366 Y128.641 E0.01651
G1 X130.841 Y129.350 E0.02766
G1 X130.258 Y130.009 E0.02759
G1 X129.619 Y130.615 E0.02760
G1 X128.931 Y131.163 E0.02760
G1 X128.197 Y131.649 E0.02760
G1 X127.423 Y132.069 E0.02760
G1 X126.615 Y132.420 E0.02763
G1 X125.951 Y132.649 E0.02202
G1 X125.098 Y132.869 E0.02763
G1 X124.230 Y133.015 E0.02760
G1 X123.351 Y133.084 E0.02763
G1 X56.825 Y133.088 E2.08589
G1 X56.296 Y133.065 E0.01659
G1 X55.770 Y133.015 E0.01656
G1 X55.248 Y132.937 E0.01656
G1 X54.730 Y132.831 E0.01656
G1 X54.219 Y132.699 E0.01656
G1 X53.715 Y132.540 E0.01656
G1 X53.220 Y132.355 E0.01656
G1 X52.736 Y132.145 E0.01656
G1 X52.263 Y131.909 E0.01656
G1 X51.803 Y131.649 E0.01656
G1 X51.358 Y131.365 E0.01656
G1 X50.928 Y131.058 E0.01656
G1 X50.514 Y130.729 E0.01656
G1 X50.119 Y130.379 E0.01656
G1 X49.742 Y130.009 E0.01656
G1 X49.386 Y129.620 E0.01653
G1 X48.942 Y129.073 E0.02208
G1 X48.443 Y128.346 E0.02766
G1 X48.092 Y127.738 E0.02202
G1 X47.712 Y126.942 E0.02766
G1 X47.460 Y126.286 E0.02202
G1 X47.210 Y125.440 E0.02766
G1 X47.063 Y124.752 E0.02205
G1 X46.965 Y124.053 E0.02214
G1 X41.910 Y66.982 E1.79642
G1 X41.910 Y57.240 E0.30546
M204 S1250
G1 X42.310 Y57.181 F9000.000
G1 E-2.24000 F4200.00000
G1 F7200.000
G1 X43.116 Y56.120 E-0.91200
G1 E-0.04800 F4200.00000
G1 Z0.400 F9000.000
G1 X44.249 Y55.693
G1 Z0.200
G1 E3.20000 F2400.00000
M204 S800
G1 F1200.000
G1 X46.986 Y58.430 E0.12167
G1 X46.451 Y58.430 E0.01680
G1 X44.090 Y56.069 E0.10494
G1 X43.812 Y56.325 E0.01189
G1 X45.917 Y58.430 E0.09355
G1 X45.382 Y58.430 E0.01680
G1 X43.534 Y56.582 E0.08216
G1 X43.255 Y56.838 E0.01189
G1 X44.848 Y58.430 E0.07077
G1 X44.313 Y58.430 E0.01680
G1 X42.977 Y57.094 E0.05938
G1 X42.699 Y57.350 E0.01189
G1 X43.779 Y58.430 E0.04799
G1 X43.430 Y58.430 E0.01095
G1 X43.430 Y58.616 E0.00585
G1 X42.570 Y57.756 E0.03824
G1 X42.570 Y58.291 E0.01680
G1 X43.430 Y59.151 E0.03824
G1 X43.430 Y59.685 E0.01680
G1 X42.570 Y58.825 E0.03824
G1 X42.570 Y59.360 E0.01680
G1 X43.430 Y60.220 E0.03824
G1 X43.430 Y60.754 E0.01680
G1 X42.570 Y59.894 E0.03824
G1 X42.570 Y60.429 E0.01680
G1 X43.430 Y61.289 E0.03824
G1 X43.430 Y61.824 E0.01680
G1 X42.570 Y60.963 E0.03824
G1 X42.570 Y61.498 E0.01680
G1 X43.430 Y62.358 E0.03824
G1 X43.430 Y62.893 E0.01680
G1 X42.570 Y62.032 E0.03824
G1 X42.570 Y62.567 E0.01680
G1 X43.430 Y63.427 E0.03824
G1 X43.430 Y63.962 E0.01680
G1 X42.570 Y63.102 E0.03824
G1 X42.570 Y63.636 E0.01680
G1 X43.430 Y64.496 E0.03824
G1 X43.430 Y65.031 E0.01680
G1 X42.570 Y64.171 E0.03824
G1 X42.570 Y64.705 E0.01680
G1 X48.431 Y70.566 E0.26052
G1 X48.431 Y70.032 E0.01680
G1 X43.969 Y65.570 E0.19833
G1 X44.504 Y65.570 E0.01680
G1 X48.431 Y69.497 E0.17457
G1 X48.431 Y68.963 E0.01680
G1 X45.038 Y65.570 E0.15080
G1 X45.573 Y65.570 E0.01680
G1 X48.431 Y68.428 E0.12704
G1 X48.431 Y67.893 E0.01680
G1 X46.107 Y65.570 E0.10328
G1 X46.642 Y65.570 E0.01680
G1 X48.431 Y67.359 E0.07952
G1 X48.431 Y66.824 E0.01680
G1 X47.176 Y65.570 E0.05576
G1 X47.570 Y65.570 E0.01237
G1 X47.570 Y65.429 E0.00443
G1 X48.431 Y66.290 E0.03827
G1 X48.431 Y65.755 E0.01680
G1 X47.570 Y64.894 E0.03826
G1 X47.570 Y64.360 E0.01680
G1 X48.431 Y65.221 E0.03826
G1 X48.431 Y64.686 E0.01680
G1 X47.570 Y63.825 E0.03826
G1 X47.570 Y63.291 E0.01680
G1 X48.431 Y64.151 E0.03826
G1 X48.431 Y63.617 E0.01680
G1 X47.570 Y62.756 E0.03826
G1 X47.570 Y62.221 E0.01680
G1 X48.431 Y63.082 E0.03826
G1 X48.431 Y62.548 E0.01680
G1 X47.570 Y61.687 E0.03825
G1 X47.570 Y61.152 E0.01680
G1 X48.430 Y62.013 E0.03825
G1 X48.430 Y61.478 E0.01680
G1 X47.570 Y60.618 E0.03825
G1 X47.570 Y60.083 E0.01680
G1 X48.430 Y60.944 E0.03825
G1 X48.430 Y60.409 E0.01680
G1 X47.570 Y59.549 E0.03825
G1 X47.570 Y59.014 E0.01680
G1 X48.430 Y59.875 E0.03825
G1 X48.430 Y59.340 E0.01680
G1 X44.647 Y55.557 E0.16816
G1 X44.925 Y55.300 E0.01189
G1 X48.430 Y58.805 E0.15579
G1 X48.430 Y58.271 E0.01680
G1 X45.204 Y55.044 E0.14342
G1 X45.482 Y54.788 E0.01189
G1 X48.430 Y57.736 E0.13105
G1 X48.430 Y57.202 E0.01680
G1 X45.760 Y54.532 E0.11868
G1 X46.038 Y54.275 E0.01189
G1 X48.441 Y56.678 E0.10678
G1 X48.476 Y56.178 E0.01574
G1 X46.317 Y54.019 E0.09596
G1 X46.595 Y53.763 E0.01189
G1 X48.530 Y55.698 E0.08602
G1 X48.618 Y55.251 E0.01432
G1 X46.873 Y53.507 E0.07754
G1 X47.152 Y53.250 E0.01189
G1 X48.717 Y54.815 E0.06957
G1 X48.839 Y54.403 E0.01352
