; generated by PrusaSlicer 2.2.0+ on 2022-10-15 at 13:04:05 UTC

; 

; external perimeters extrusion width = 0.45mm
; perimeters extrusion width = 0.45mm
; infill extrusion width = 0.45mm
; solid infill extrusion width = 0.45mm
; top infill extrusion width = 0.40mm
; first layer extrusion width = 0.42mm

M73 P0 R77
M73 Q0 S77
M201 X1000 Y1000 Z200 E5000 ; sets maximum accelerations, mm/sec^2
M203 X200 Y200 Z12 E120 ; sets maximum feedrates, mm/sec
M204 P1250 R1250 T1250 ; sets acceleration (P, T) and retract acceleration (R), mm/sec^2
M205 X8.00 Y8.00 Z0.40 E4.50 ; sets the jerk limits, mm/sec
M205 S0 T0 ; sets the minimum extruding and travel feed rate, mm/sec
M107
M862.3 P "MK3" ; printer model check
M862.1 P0.4 ; nozzle diameter check
M115 U3.11.0 ; tell printer latest fw version
G90 ; use absolute coordinates
M83 ; extruder relative mode
M104 S215 ; set extruder temp
M140 S60 ; set bed temp
M190 S60 ; wait for bed temp
M109 S215 ; wait for extruder temp
G28 W ; home all without mesh bed level
G80 ; mesh bed leveling
G1 Y-3.0 F1000.0 ; go outside print area
G92 E0.0
G1 X60.0 E9.0 F1000.0 ; intro line
M73 Q0 S77
M73 P0 R77
G1 X100.0 E12.5 F1000.0 ; intro line
G92 E0.0
M221 S95

; Don't change E values below. Excessive value can damage the printer.
M907 E430 ; set extruder motor current
G21 ; set units to millimeters
G90 ; use absolute coordinates
M83 ; use relative distances for extrusion
M900 K0.05 ; Filament gcode LA 1.5
M900 K30 ; Filament gcode LA 1.0
;BEFORE_LAYER_CHANGE
G92 E0.0
;0.2


G1 E-0.80000 F2100.00000
G1 Z0.400 F10800.000
;AFTER_LAYER_CHANGE
;0.2
G1 X152.166 Y120.202
G1 Z0.200
G1 E0.80000 F2100.00000
M204 S1000
G1 F1200.000
G1 X151.607 Y120.975 E0.02989
G1 X150.875 Y121.433 E0.02708
G1 X150.028 Y121.600 E0.02708
G1 X99.992 Y121.600 E1.56882
G1 X99.508 Y121.549 E0.01526
G1 X99.042 Y121.398 E0.01538
G1 X98.615 Y121.155 E0.01538
G1 X98.248 Y120.830 E0.01538
G1 X97.796 Y120.112 E0.02661
G1 X97.624 Y119.281 E0.02661
G1 X97.629 Y96.233 E0.72267
G1 X97.788 Y94.819 E0.04461
G1 X98.103 Y93.673 E0.03725
G1 X98.599 Y92.588 E0.03740
G1 X99.459 Y91.309 E0.04833
G1 X100.394 Y90.358 E0.04181
G1 X101.593 Y89.502 E0.04621
G1 X102.838 Y88.917 E0.04312
G1 X104.191 Y88.549 E0.04395
G1 X105.461 Y88.427 E0.04002
G1 X133.604 Y88.423 E0.88239
G1 X135.173 Y88.585 E0.04947
G1 X136.334 Y88.906 E0.03775
G1 X137.480 Y89.433 E0.03955
G1 X151.188 Y96.941 E0.49008
G1 X151.696 Y97.334 E0.02012
G1 X152.080 Y97.849 E0.02012
G1 X152.298 Y98.392 E0.01835
G1 X152.377 Y98.967 E0.01823
G1 X152.377 Y119.273 E0.63665
G1 X152.179 Y120.144 E0.02801
; printing object AccessPoint_SwitchFixture.stl id:2 copy 0
G1 F8640.000
G1 X151.607 Y120.975 E-0.23294
G1 X150.875 Y121.433 E-0.19941
G1 X150.028 Y121.600 E-0.19942
G1 X149.472 Y121.600 E-0.12823
G1 E-0.04000 F2100.00000
G1 Z0.600 F10800.000
G1 X108.536 Y98.095
G1 Z0.200
G1 E0.80000 F2100.00000
G1 F1200.000
G1 X108.197 Y98.579 E0.01853
G1 X107.779 Y98.997 E0.01853
G1 X107.295 Y99.336 E0.01853
G1 X106.759 Y99.586 E0.01853
G1 X106.189 Y99.739 E0.01853
G1 X105.600 Y99.790 E0.01853
G1 X105.011 Y99.739 E0.01853
G1 X104.441 Y99.586 E0.01853
G1 X103.905 Y99.336 E0.01853
G1 X103.421 Y98.997 E0.01853
G1 X103.003 Y98.579 E0.01853
G1 X102.664 Y98.095 E0.01853
G1 X102.414 Y97.559 E0.01853
G1 X102.261 Y96.989 E0.01853
G1 X102.210 Y96.400 E0.01853
G1 X102.261 Y95.811 E0.01853
G1 X102.414 Y95.241 E0.01853
G1 X102.664 Y94.705 E0.01853
G1 X103.003 Y94.221 E0.01853
G1 X103.421 Y93.803 E0.01853
G1 X103.905 Y93.464 E0.01853
G1 X104.441 Y93.214 E0.01853
G1 X105.011 Y93.061 E0.01853
G1 X105.600 Y93.010 E0.01853
G1 X106.189 Y93.061 E0.01853
G1 X106.759 Y93.214 E0.01853
G1 X107.295 Y93.464 E0.01853
G1 X107.779 Y93.803 E0.01853
G1 X108.197 Y94.221 E0.01853
G1 X108.536 Y94.705 E0.01853
G1 X108.786 Y95.241 E0.01853
G1 X108.939 Y95.811 E0.01853
G1 X108.990 Y96.400 E0.01853
G1 X108.939 Y96.989 E0.01853
G1 X108.786 Y97.559 E0.01853
G1 X108.561 Y98.041 E0.01665
G1 X108.220 Y97.881 F10800.000
G1 F1200.000
G1 X107.907 Y98.336 E0.01729
G1 X107.536 Y98.707 E0.01646
G1 X107.106 Y99.008 E0.01646
G1 X106.630 Y99.230 E0.01646
G1 X106.123 Y99.366 E0.01646
G1 X105.600 Y99.412 E0.01646
G1 X105.077 Y99.366 E0.01646
G1 X104.570 Y99.230 E0.01646
G1 X104.094 Y99.008 E0.01646
G1 X103.664 Y98.707 E0.01646
G1 X103.293 Y98.336 E0.01646
G1 X102.992 Y97.906 E0.01646
G1 X102.770 Y97.430 E0.01646
G1 X102.634 Y96.923 E0.01646
G1 X102.588 Y96.400 E0.01646
G1 X102.634 Y95.877 E0.01646
G1 X102.770 Y95.370 E0.01646
G1 X102.992 Y94.894 E0.01646
G1 X103.293 Y94.464 E0.01646
G1 X103.664 Y94.093 E0.01646
G1 X104.094 Y93.792 E0.01646
G1 X104.570 Y93.570 E0.01646
G1 X105.077 Y93.434 E0.01646
G1 X105.600 Y93.388 E0.01646
G1 X106.123 Y93.434 E0.01646
G1 X106.630 Y93.570 E0.01646
G1 X107.106 Y93.792 E0.01646
G1 X107.536 Y94.093 E0.01646
G1 X107.907 Y94.464 E0.01646
G1 X108.208 Y94.894 E0.01646
G1 X108.430 Y95.370 E0.01646
G1 X108.566 Y95.877 E0.01646
G1 X108.612 Y96.400 E0.01646
G1 X108.566 Y96.923 E0.01646
G1 X108.430 Y97.430 E0.01646
G1 X108.245 Y97.827 E0.01373
G1 X108.422 Y98.226 F10800.000
G1 F8640.000
G1 X107.907 Y98.336 E-0.14104
G1 X107.536 Y98.707 E-0.12121
G1 X107.106 Y99.008 E-0.12121
G1 X106.630 Y99.230 E-0.12121
G1 X106.123 Y99.366 E-0.12121
G1 X105.600 Y99.412 E-0.12121
G1 X105.544 Y99.407 E-0.01289
G1 E-0.04000 F2100.00000
G1 Z0.600 F10800.000
G1 X100.787 Y101.213
G1 Z0.200
G1 E0.80000 F2100.00000
G1 F1200.000
G1 X100.787 Y96.434 E0.14983
G1 X100.863 Y95.565 E0.02737
G1 X101.080 Y94.755 E0.02629
G1 X101.434 Y93.995 E0.02629
G1 X101.915 Y93.308 E0.02629
G1 X102.508 Y92.715 E0.02629
G1 X103.195 Y92.234 E0.02629
G1 X103.955 Y91.880 E0.02629
G1 X104.765 Y91.663 E0.02629
G1 X105.600 Y91.590 E0.02629
G1 X106.435 Y91.663 E0.02629
G1 X107.245 Y91.880 E0.02629
G1 X108.044 Y92.253 E0.02765
G1 X121.213 Y99.466 E0.47078
G1 X121.213 Y101.213 E0.05476
G1 X100.847 Y101.213 E0.63856
G1 X100.410 Y101.590 F10800.000
G1 F1200.000
G1 X100.410 Y96.418 E0.16217
G1 X100.490 Y95.499 E0.02892
G1 X100.724 Y94.625 E0.02836
G1 X101.107 Y93.806 E0.02836
G1 X101.625 Y93.065 E0.02836
G1 X102.265 Y92.425 E0.02836
G1 X103.006 Y91.907 E0.02836
G1 X103.825 Y91.524 E0.02836
G1 X104.699 Y91.290 E0.02836
G1 X105.600 Y91.212 E0.02836
G1 X106.501 Y91.290 E0.02836
G1 X107.375 Y91.524 E0.02836
G1 X108.215 Y91.916 E0.02907
G1 X121.590 Y99.243 E0.47817
G1 X121.590 Y101.590 E0.07359
G1 X100.470 Y101.590 E0.66220
G1 X100.597 Y101.236 F10800.000
G1 F8640.000
G1 X100.432 Y98.299 E-0.76000
G1 E-0.04000 F2100.00000
G1 Z0.600 F10800.000
G1 X101.681 Y101.100
G1 Z0.200
G1 E0.80000 F2100.00000
G1 F1200.000
G1 X101.070 Y100.488 E0.02775
G1 X101.070 Y99.943 E0.01752
G1 X102.057 Y100.930 E0.04482
G1 X102.603 Y100.930 E0.01752
G1 X101.070 Y99.397 E0.06959
G1 X101.070 Y98.851 E0.01752
G1 X103.149 Y100.930 E0.09437
G1 X103.695 Y100.930 E0.01752
G1 X101.070 Y98.305 E0.11914
G1 X101.070 Y97.759 E0.01752
G1 X104.410 Y101.100 E0.15162
G1 F8640.000
G1 X102.083 Y98.772 E-0.76000
G1 E-0.04000 F2100.00000
G1 Z0.600 F10800.000
G1 X114.782 Y101.100
G1 Z0.200
G1 E0.80000 F2100.00000
G1 F1200.000
G1 X109.136 Y95.454 E0.25625
G1 X109.218 Y95.762 E0.01024
G1 X109.249 Y96.113 E0.01131
G1 X114.066 Y100.930 E0.21864
G1 X113.520 Y100.930 E0.01752
G1 X109.251 Y96.661 E0.19376
G1 X109.218 Y97.038 E0.01214
G1 X109.189 Y97.145 E0.00356
G1 X112.974 Y100.930 E0.17179
G1 X112.428 Y100.930 E0.01752
G1 X109.074 Y97.576 E0.15225
G1 X108.911 Y97.959 E0.01336
G1 X111.883 Y100.930 E0.13485
G1 X111.337 Y100.930 E0.01752
G1 X108.725 Y98.318 E0.11855
G1 X108.500 Y98.639 E0.01258
G1 X110.791 Y100.930 E0.10398
G1 X110.245 Y100.930 E0.01752
G1 X108.245 Y98.931 E0.09076
G1 X107.973 Y99.203 E0.01239
G1 X109.699 Y100.930 E0.07837
G1 X109.153 Y100.930 E0.01752
G1 X107.653 Y99.430 E0.06808
G1 X107.437 Y99.582 E0.00848
G1 X107.316 Y99.638 E0.00429
G1 X108.608 Y100.930 E0.05863
G1 X108.062 Y100.930 E0.01752
G1 X106.943 Y99.812 E0.05075
G1 X106.857 Y99.852 E0.00308
G1 X106.527 Y99.941 E0.01097
G1 X107.516 Y100.930 E0.04490
G1 X106.970 Y100.930 E0.01752
G1 X106.072 Y100.033 E0.04073
G1 X105.565 Y100.071 E0.01634
G1 X106.424 Y100.930 E0.03900
G1 X105.878 Y100.930 E0.01752
G1 X104.967 Y100.019 E0.04137
G1 X104.343 Y99.852 E0.02070
G1 X104.177 Y99.775 E0.00589
G1 X105.332 Y100.930 E0.05243
G1 X104.787 Y100.930 E0.01752
G1 X101.070 Y97.213 E0.16869
G1 X101.070 Y96.668 E0.01752
G1 X102.225 Y97.823 E0.05243
G1 X102.148 Y97.657 E0.00589
G1 X101.981 Y97.033 E0.02070
G1 X101.096 Y96.148 E0.04019
G1 X101.140 Y95.646 E0.01617
G1 X101.929 Y96.435 E0.03582
G1 X101.967 Y95.928 E0.01634
G1 X101.251 Y95.211 E0.03253
G1 X101.376 Y94.790 E0.01409
G1 X102.059 Y95.473 E0.03102
G1 X102.148 Y95.143 E0.01097
G1 X102.188 Y95.057 E0.00308
G1 X101.549 Y94.418 E0.02899
G1 X101.680 Y94.137 E0.00995
G1 X101.736 Y94.058 E0.00309
G1 X102.362 Y94.684 E0.02842
G1 X102.418 Y94.563 E0.00429
G1 X102.570 Y94.347 E0.00848
G1 X101.960 Y93.737 E0.02766
G1 X102.196 Y93.427 E0.01250
G1 X102.797 Y94.027 E0.02724
G1 X103.069 Y93.755 E0.01239
G1 X102.469 Y93.154 E0.02724
G1 X102.751 Y92.890 E0.01239
G1 X103.361 Y93.500 E0.02766
G1 X103.682 Y93.275 E0.01258
G1 X103.072 Y92.666 E0.02766
G1 X103.402 Y92.450 E0.01266
G1 X104.041 Y93.089 E0.02899
G1 X104.424 Y92.926 E0.01336
G1 X103.775 Y92.276 E0.02949
G1 X104.052 Y92.147 E0.00982
G1 X104.162 Y92.118 E0.00364
G1 X104.855 Y92.811 E0.03146
G1 X104.962 Y92.782 E0.00356
G1 X105.339 Y92.749 E0.01214
G1 X104.592 Y92.002 E0.03389
G1 X104.814 Y91.943 E0.00737
G1 X105.057 Y91.921 E0.00784
G1 X105.887 Y92.751 E0.03766
G1 X106.238 Y92.782 E0.01131
G1 X106.546 Y92.864 E0.01024
G1 X105.559 Y91.878 E0.04479
G1 X106.150 Y91.922 E0.01900
G1 X115.158 Y100.930 E0.40885
G1 X115.704 Y100.930 E0.01752
G1 X106.837 Y92.064 E0.40243
G1 X107.148 Y92.147 E0.01033
G1 X107.744 Y92.425 E0.02111
G1 X116.249 Y100.930 E0.38603
G1 X116.795 Y100.930 E0.01752
G1 X108.920 Y93.055 E0.35743
G1 X110.127 Y93.716 E0.04417
G1 X117.341 Y100.930 E0.32742
G1 X117.887 Y100.930 E0.01752
G1 X111.334 Y94.377 E0.29741
G1 X112.541 Y95.039 E0.04417
G1 X118.433 Y100.930 E0.26740
G1 X118.979 Y100.930 E0.01752
G1 X113.748 Y95.700 E0.23739
G1 X114.955 Y96.361 E0.04417
G1 X119.524 Y100.930 E0.20738
G1 X120.070 Y100.930 E0.01752
G1 X116.162 Y97.022 E0.17737
G1 X117.369 Y97.683 E0.04417
G1 X120.616 Y100.930 E0.14736
G1 X120.930 Y100.930 E0.01008
G1 X120.930 Y100.698 E0.00744
G1 X118.576 Y98.344 E0.10683
G1 X119.783 Y99.006 E0.04417
G1 X121.100 Y100.322 E0.05975
; stop printing object AccessPoint_SwitchFixture.stl id:2 copy 0
; printing object AccessPoint_SwitchFixture.stl id:3 copy 0
G1 F8640.000
G1 X119.783 Y99.006 E-0.42989
G1 X118.576 Y98.344 E-0.31778
G1 X118.614 Y98.382 E-0.01233
G1 E-0.04000 F2100.00000
G1 Z0.600 F10800.000
G1 X108.197 Y111.444
G1 Z0.200
G1 E0.80000 F2100.00000
G1 F1200.000
G1 X108.536 Y111.928 E0.01853
G1 X108.786 Y112.464 E0.01853
G1 X108.939 Y113.034 E0.01853
G1 X108.990 Y113.623 E0.01853
G1 X108.939 Y114.212 E0.01853
G1 X108.786 Y114.782 E0.01853
G1 X108.536 Y115.318 E0.01853
G1 X108.197 Y115.802 E0.01853
G1 X107.779 Y116.220 E0.01853
G1 X107.295 Y116.559 E0.01853
G1 X106.759 Y116.809 E0.01853
G1 X106.189 Y116.962 E0.01853
G1 X105.600 Y117.013 E0.01853
G1 X105.011 Y116.962 E0.01853
G1 X104.441 Y116.809 E0.01853
G1 X103.905 Y116.559 E0.01853
G1 X103.421 Y116.220 E0.01853
G1 X103.003 Y115.802 E0.01853
G1 X102.664 Y115.318 E0.01853
G1 X102.414 Y114.782 E0.01853
G1 X102.261 Y114.212 E0.01853
G1 X102.210 Y113.623 E0.01853
G1 X102.261 Y113.034 E0.01853
G1 X102.414 Y112.464 E0.01853
G1 X102.664 Y111.928 E0.01853
G1 X103.003 Y111.444 E0.01853
G1 X103.421 Y111.026 E0.01853
G1 X103.905 Y110.687 E0.01853
G1 X104.441 Y110.437 E0.01853
G1 X105.011 Y110.284 E0.01853
G1 X105.600 Y110.233 E0.01853
G1 X106.189 Y110.284 E0.01853
G1 X106.759 Y110.437 E0.01853
G1 X107.295 Y110.687 E0.01853
G1 X107.779 Y111.026 E0.01853
G1 X108.155 Y111.401 E0.01665
G1 X107.888 Y111.668 F10800.000
G1 F1200.000
G1 X108.208 Y112.117 E0.01729
G1 X108.430 Y112.593 E0.01646
G1 X108.566 Y113.100 E0.01646
G1 X108.612 Y113.623 E0.01646
G1 X108.566 Y114.146 E0.01646
G1 X108.430 Y114.653 E0.01646
G1 X108.208 Y115.129 E0.01646
G1 X107.907 Y115.559 E0.01646
G1 X107.536 Y115.930 E0.01646
G1 X107.106 Y116.231 E0.01646
G1 X106.630 Y116.453 E0.01646
G1 X106.123 Y116.589 E0.01646
G1 X105.600 Y116.635 E0.01646
G1 X105.077 Y116.589 E0.01646
G1 X104.570 Y116.453 E0.01646
G1 X104.094 Y116.231 E0.01646
G1 X103.664 Y115.930 E0.01646
G1 X103.293 Y115.559 E0.01646
G1 X102.992 Y115.129 E0.01646
G1 X102.770 Y114.653 E0.01646
G1 X102.634 Y114.146 E0.01646
G1 X102.588 Y113.623 E0.01646
G1 X102.634 Y113.100 E0.01646
G1 X102.770 Y112.593 E0.01646
G1 X102.992 Y112.117 E0.01646
G1 X103.293 Y111.687 E0.01646
G1 X103.664 Y111.316 E0.01646
G1 X104.094 Y111.015 E0.01646
G1 X104.570 Y110.793 E0.01646
G1 X105.077 Y110.657 E0.01646
G1 X105.600 Y110.611 E0.01646
G1 X106.123 Y110.657 E0.01646
G1 X106.630 Y110.793 E0.01646
G1 X107.106 Y111.015 E0.01646
G1 X107.536 Y111.316 E0.01646
G1 X107.845 Y111.626 E0.01373
G1 X108.281 Y111.596 F10800.000
G1 F8640.000
G1 X108.208 Y112.117 E-0.14104
G1 X108.430 Y112.593 E-0.12121
G1 X108.566 Y113.100 E-0.12121
G1 X108.612 Y113.623 E-0.12121
G1 X108.566 Y114.146 E-0.12121
G1 X108.430 Y114.653 E-0.12121
G1 X108.406 Y114.704 E-0.01290
G1 E-0.04000 F2100.00000
G1 Z0.600 F10800.000
G1 X121.213 Y116.689
G1 Z0.200
G1 E0.80000 F2100.00000
G1 F1200.000
G1 X121.213 Y118.436 E0.05476
G1 X100.787 Y118.436 E0.64044
G1 X100.787 Y113.657 E0.14983
G1 X100.863 Y112.788 E0.02737
G1 X101.080 Y111.978 E0.02629
G1 X101.434 Y111.218 E0.02629
G1 X101.915 Y110.531 E0.02629
G1 X102.508 Y109.938 E0.02629
G1 X103.195 Y109.458 E0.02629
G1 X103.955 Y109.103 E0.02629
G1 X104.765 Y108.886 E0.02629
G1 X105.600 Y108.813 E0.02629
G1 X106.435 Y108.886 E0.02629
G1 X107.245 Y109.103 E0.02629
G1 X108.044 Y109.476 E0.02765
G1 X121.160 Y116.660 E0.46890
G1 X121.590 Y116.466 F10800.000
G1 F1200.000
G1 X121.590 Y118.813 E0.07359
G1 X100.410 Y118.813 E0.66408
G1 X100.410 Y113.641 E0.16217
G1 X100.490 Y112.722 E0.02892
G1 X100.724 Y111.848 E0.02836
G1 X101.107 Y111.029 E0.02836
G1 X101.625 Y110.288 E0.02836
G1 X102.265 Y109.648 E0.02836
G1 X103.006 Y109.130 E0.02836
G1 X103.825 Y108.747 E0.02836
G1 X104.699 Y108.513 E0.02836
G1 X105.600 Y108.435 E0.02836
G1 X106.501 Y108.513 E0.02836
G1 X107.375 Y108.747 E0.02836
G1 X108.215 Y109.139 E0.02907
G1 X121.537 Y116.437 E0.47629
G1 X121.336 Y116.775 F10800.000
G1 F8640.000
G1 X121.590 Y118.813 E-0.54874
G1 X120.675 Y118.813 E-0.21126
G1 E-0.04000 F2100.00000
G1 Z0.600 F10800.000
G1 X121.100 Y117.545
G1 Z0.200
G1 E0.80000 F2100.00000
G1 F1200.000
G1 X119.783 Y116.229 E0.05975
G1 X118.576 Y115.567 E0.04417
G1 X120.930 Y117.921 E0.10683
G1 X120.930 Y118.153 E0.00744
G1 X120.616 Y118.153 E0.01008
G1 X117.369 Y114.906 E0.14736
G1 X116.162 Y114.245 E0.04417
G1 X120.070 Y118.153 E0.17737
G1 X119.524 Y118.153 E0.01752
G1 X114.955 Y113.584 E0.20738
G1 X113.748 Y112.923 E0.04417
G1 X118.979 Y118.153 E0.23739
G1 X118.433 Y118.153 E0.01752
G1 X112.541 Y112.262 E0.26740
G1 X111.334 Y111.600 E0.04417
G1 X117.887 Y118.153 E0.29741
G1 X117.341 Y118.153 E0.01752
G1 X110.127 Y110.939 E0.32742
G1 X108.920 Y110.278 E0.04417
G1 X116.795 Y118.153 E0.35743
G1 X116.249 Y118.153 E0.01752
G1 X107.744 Y109.648 E0.38603
G1 X107.148 Y109.370 E0.02111
G1 X106.837 Y109.287 E0.01033
G1 X115.704 Y118.153 E0.40243
G1 X115.158 Y118.153 E0.01752
G1 X106.150 Y109.145 E0.40885
G1 X105.559 Y109.101 E0.01900
G1 X106.546 Y110.087 E0.04479
G1 X106.238 Y110.005 E0.01024
G1 X105.887 Y109.974 E0.01131
G1 X105.057 Y109.144 E0.03766
G1 X104.814 Y109.166 E0.00784
G1 X104.592 Y109.225 E0.00737
G1 X105.339 Y109.972 E0.03389
G1 X104.962 Y110.005 E0.01214
G1 X104.855 Y110.034 E0.00356
G1 X104.162 Y109.341 E0.03146
G1 X104.052 Y109.370 E0.00364
G1 X103.775 Y109.499 E0.00982
G1 X104.424 Y110.149 E0.02949
G1 X104.041 Y110.312 E0.01336
G1 X103.402 Y109.673 E0.02899
G1 X103.072 Y109.889 E0.01266
G1 X103.682 Y110.498 E0.02766
G1 X103.361 Y110.723 E0.01258
G1 X102.751 Y110.113 E0.02766
G1 X102.469 Y110.377 E0.01239
G1 X103.069 Y110.978 E0.02724
