; generated by PrusaSlicer 2.5.0+MacOS-x64 on 2023-02-08 at 15:05:58 UTC


;
;
; 

; external perimeters extrusion width = 0.45mm
; perimeters extrusion width = 0.45mm
; infill extrusion width = 0.45mm
; solid infill extrusion width = 0.45mm
; top infill extrusion width = 0.40mm
; first layer extrusion width = 0.42mm

M73 P0 R24
M73 Q0 S26
M201 X1000 Y1000 Z200 E5000 ; sets maximum accelerations, mm/sec^2
M203 X200 Y200 Z12 E120 ; sets maximum feedrates, mm / sec
M204 P1250 R1250 T1250 ; sets acceleration (P, T) and retract acceleration (R), mm/sec^2
M205 X8.00 Y8.00 Z0.40 E4.50 ; sets the jerk limits, mm/sec
M205 S0 T0 ; sets the minimum extruding and travel feed rate, mm/sec
M107
;TYPE:Custom
M862.3 P "MK3S" ; printer model check
M862.1 P0.4 ; nozzle diameter check
M115 U3.11.0 ; tell printer latest fw version
G90 ; use absolute coordinates
M83 ; extruder relative mode
M104 S240 ; set extruder temp
M140 S50 ; set bed temp
M190 S50 ; wait for bed temp
M109 S240 ; wait for extruder temp
G28 W ; home all without mesh bed level
G80 ; mesh bed leveling

G1 Z0.2 F720
G1 Y-3 F1000 ; go outside print area
G92 E0
G1 X60 E9 F1000 ; intro line
G1 X100 E12.5 F1000 ; intro line

G92 E0
M221 S95

; Don't change E values below. Excessive value can damage the printer.
M907 E430 ; set extruder motor current
G21 ; set units to millimeters
G90 ; use absolute coordinates
M83 ; use relative distances for extrusion
M900 K0
M107
;LAYER_CHANGE
;Z:0.2
;HEIGHT:0.2
;BEFORE_LAYER_CHANGE
G92 E0.0
;0.2


G1 E-.4 F2100
G1 Z.2 F720
;AFTER_LAYER_CHANGE
;0.2
G1 X113.622 Y95.61 F10800
G1 E.4 F2100
M204 S800
;TYPE:Skirt/Brim
;WIDTH:0.42
G1 F1200
G1 X114.484 Y94.654 E.04842
G1 X115.426 Y93.777 E.04842
G1 X116.637 Y92.847 E.05745
G1 X117.728 Y92.165 E.04842
G1 X118.875 Y91.58 E.04842
G1 X120.068 Y91.097 E.04842
G1 X121.298 Y90.72 E.04842
G1 X122.557 Y90.452 E.04843
G1 X124.88 Y90.248 E.08773
G1 X126.166 Y90.294 E.04843
G1 X127.443 Y90.452 E.04841
G1 X128.702 Y90.72 E.04843
G1 X130.158 Y91.179 E.05745
G1 X131.343 Y91.681 E.04842
G1 X133.363 Y92.847 E.08774
G1 X134.39 Y93.622 E.04842
G1 X135.346 Y94.484 E.04842
G1 X136.223 Y95.426 E.04842
G1 X137.153 Y96.637 E.05745
G1 X137.835 Y97.728 E.04842
G1 X138.42 Y98.875 E.04842
G1 X138.903 Y100.068 E.04842
G1 X139.28 Y101.298 E.04842
G1 X139.548 Y102.557 E.04843
G1 X139.752 Y104.88 E.08773
G1 X139.706 Y106.166 E.04843
G1 X139.548 Y107.443 E.04841
G1 X139.28 Y108.702 E.04843
G1 X138.821 Y110.158 E.05745
G1 X138.319 Y111.343 E.04842
G1 X137.153 Y113.363 E.08774
G1 X136.378 Y114.39 E.04842
G1 X135.516 Y115.346 E.04842
G1 X134.574 Y116.223 E.04842
G1 X133.363 Y117.153 E.05745
G1 X132.272 Y117.835 E.04842
G1 X131.125 Y118.42 E.04842
G1 X129.932 Y118.903 E.04842
G1 X128.702 Y119.28 E.04842
G1 X127.443 Y119.548 E.04843
G1 X125.12 Y119.752 E.08773
G1 X123.834 Y119.706 E.04843
G1 X122.557 Y119.548 E.04841
G1 X121.298 Y119.28 E.04843
G1 X119.842 Y118.821 E.05745
G1 X118.657 Y118.319 E.04842
G1 X116.637 Y117.153 E.08774
G1 X115.61 Y116.378 E.04842
G1 X114.654 Y115.516 E.04842
G1 X113.777 Y114.574 E.04842
G1 X112.847 Y113.363 E.05745
G1 X112.165 Y112.272 E.04842
G1 X111.58 Y111.125 E.04842
G1 X111.097 Y109.932 E.04842
G1 X110.72 Y108.702 E.04842
G1 X110.452 Y107.443 E.04843
G1 X110.248 Y105.12 E.08773
G1 X110.294 Y103.834 E.04843
G1 X110.452 Y102.557 E.04841
G1 X110.72 Y101.298 E.04843
G1 X111.179 Y99.842 E.05745
G1 X111.681 Y98.657 E.04842
G1 X112.847 Y96.637 E.08774
G1 X113.586 Y95.658 E.04616
M204 S1000
G1 X113.887 Y95.885 F10800
M204 S800
G1 F1200
G1 X114.762 Y94.909 E.04933
G1 X115.681 Y94.055 E.04719
G1 X116.84 Y93.165 E.05498
G1 X117.902 Y92.499 E.04718
G1 X119.019 Y91.928 E.04719
G1 X120.181 Y91.457 E.04718
G1 X121.38 Y91.088 E.04718
G1 X122.606 Y90.826 E.04719
G1 X124.896 Y90.625 E.0865
G1 X126.15 Y90.671 E.04719
G1 X127.394 Y90.826 E.04718
G1 X128.62 Y91.088 E.04719
G1 X130.014 Y91.528 E.05498
G1 X131.169 Y92.016 E.04719
G1 X133.16 Y93.165 E.0865
G1 X134.161 Y93.922 E.04718
G1 X135.091 Y94.762 E.04718
G1 X135.945 Y95.681 E.04719
G1 X136.835 Y96.84 E.05498
G1 X137.501 Y97.902 E.04718
G1 X138.072 Y99.019 E.04719
G1 X138.543 Y100.181 E.04718
G1 X138.912 Y101.38 E.04718
G1 X139.174 Y102.606 E.04719
G1 X139.375 Y104.896 E.0865
G1 X139.329 Y106.15 E.04719
G1 X139.174 Y107.394 E.04718
G1 X138.912 Y108.62 E.04719
G1 X138.472 Y110.014 E.05498
G1 X137.984 Y111.169 E.04719
G1 X136.835 Y113.16 E.0865
G1 X136.078 Y114.161 E.04718
G1 X135.238 Y115.091 E.04718
G1 X134.319 Y115.945 E.04719
G1 X133.16 Y116.835 E.05498
G1 X132.098 Y117.501 E.04718
G1 X130.981 Y118.072 E.04719
G1 X129.819 Y118.543 E.04718
G1 X128.62 Y118.912 E.04718
G1 X127.394 Y119.174 E.04719
G1 X125.104 Y119.375 E.0865
G1 X123.85 Y119.329 E.04719
G1 X122.606 Y119.174 E.04718
G1 X121.38 Y118.912 E.04719
G1 X119.986 Y118.472 E.05498
G1 X118.831 Y117.984 E.04719
M73 P1 R24
G1 X116.84 Y116.835 E.0865
G1 X115.839 Y116.078 E.04718
G1 X114.909 Y115.238 E.04718
G1 X114.055 Y114.319 E.04719
G1 X113.165 Y113.16 E.05498
G1 X112.499 Y112.098 E.04718
G1 X111.928 Y110.981 E.04719
G1 X111.457 Y109.819 E.04718
G1 X111.088 Y108.62 E.04718
G1 X110.826 Y107.394 E.04719
G1 X110.625 Y105.104 E.0865
M73 Q1 S26
G1 X110.671 Y103.85 E.04719
G1 X110.826 Y102.606 E.04718
G1 X111.088 Y101.38 E.04719
G1 X111.528 Y99.986 E.05498
G1 X112.016 Y98.831 E.04719
G1 X113.165 Y96.84 E.0865
G1 X113.851 Y95.933 E.04277
M204 S1000
; printing object RJ45_WireGland_Tube.stl id:0 copy 0
;WIPE_START
G1 F8640
G1 X114.762 Y94.909 E-.31656
G1 X114.963 Y94.722 E-.06344
;WIPE_END
G1 E-.02 F2100
G1 X115.811 Y105 F10800
G1 X115.846 Y105.801
G1 X115.951 Y106.596
G1 X116.124 Y107.378
G1 X116.365 Y108.143
G1 X116.672 Y108.883
G1 X117.042 Y109.594
G1 X117.473 Y110.27
G1 X117.961 Y110.906
G1 X118.503 Y111.497
G1 X119.094 Y112.039
G1 X119.73 Y112.527
G1 X120.406 Y112.958
G1 X121.117 Y113.328
G1 X121.857 Y113.635
G1 X122.622 Y113.876
G1 X123.404 Y114.049
G1 X124.199 Y114.154
G1 X125 Y114.189
G1 X131.431 Y114.184
G1 E.4 F2100
M204 S800
;TYPE:Perimeter
;WIDTH:0.419999
G1 F1200
G1 X130.606 Y114.71 E.0368
G1 X129.738 Y115.162 E.0368
G1 X128.835 Y115.536 E.0368
G1 X127.902 Y115.83 E.0368
G1 X126.947 Y116.042 E.0368
G1 X125.977 Y116.169 E.0368
G1 X125 Y116.212 E.0368
G1 X124.023 Y116.169 E.0368
G1 X123.053 Y116.042 E.0368
G1 X122.098 Y115.83 E.0368
G1 X121.165 Y115.536 E.0368
G1 X120.262 Y115.162 E.0368
G1 X119.394 Y114.71 E.0368
G1 X118.569 Y114.184 E.0368
G1 X117.793 Y113.589 E.0368
G1 X117.072 Y112.928 E.0368
G1 X116.411 Y112.207 E.0368
G1 X115.816 Y111.431 E.0368
G1 X115.29 Y110.606 E.0368
G1 X114.838 Y109.738 E.0368
G1 X114.464 Y108.835 E.0368
G1 X114.17 Y107.902 E.0368
G1 X113.958 Y106.947 E.0368
G1 X113.831 Y105.977 E.0368
G1 X113.788 Y105 E.0368
G1 X113.831 Y104.023 E.0368
G1 X113.958 Y103.053 E.0368
G1 X114.17 Y102.098 E.0368
G1 X114.464 Y101.165 E.0368
G1 X114.838 Y100.262 E.0368
G1 X115.29 Y99.394 E.0368
G1 X115.816 Y98.569 E.0368
G1 X116.411 Y97.793 E.0368
G1 X117.072 Y97.072 E.0368
G1 X117.793 Y96.411 E.0368
G1 X118.569 Y95.816 E.0368
G1 X119.394 Y95.29 E.0368
G1 X120.262 Y94.838 E.0368
G1 X121.165 Y94.464 E.0368
G1 X122.098 Y94.17 E.0368
G1 X123.053 Y93.958 E.0368
G1 X124.023 Y93.831 E.0368
G1 X125 Y93.788 E.0368
G1 X125.977 Y93.831 E.0368
G1 X126.947 Y93.958 E.0368
G1 X127.902 Y94.17 E.0368
G1 X128.835 Y94.464 E.0368
G1 X129.738 Y94.838 E.0368
G1 X130.606 Y95.29 E.0368
G1 X131.431 Y95.816 E.0368
G1 X132.207 Y96.411 E.0368
G1 X132.928 Y97.072 E.0368
G1 X133.589 Y97.793 E.0368
G1 X134.184 Y98.569 E.0368
G1 X134.71 Y99.394 E.0368
G1 X135.162 Y100.262 E.0368
G1 X135.536 Y101.165 E.0368
G1 X135.83 Y102.098 E.0368
G1 X136.042 Y103.053 E.0368
G1 X136.169 Y104.023 E.0368
G1 X136.212 Y105 E.0368
G1 X136.169 Y105.977 E.0368
G1 X136.042 Y106.947 E.0368
G1 X135.83 Y107.902 E.0368
G1 X135.536 Y108.835 E.0368
G1 X135.162 Y109.738 E.0368
G1 X134.71 Y110.606 E.0368
G1 X134.184 Y111.431 E.0368
G1 X133.589 Y112.207 E.0368
G1 X132.928 Y112.928 E.0368
G1 X132.207 Y113.589 E.0368
G1 X131.479 Y114.148 E.03454
M204 S1000
G1 X131.648 Y114.494 F10800
M204 S800
;TYPE:External perimeter
G1 F1200
G1 X130.795 Y115.037 E.03804
G1 X129.898 Y115.504 E.03804
G1 X128.964 Y115.891 E.03804
G1 X128 Y116.195 E.03804
G1 X127.013 Y116.414 E.03804
G1 X126.01 Y116.545 E.03804
G1 X125 Y116.59 E.03804
G1 X123.99 Y116.545 E.03804
G1 X122.987 Y116.414 E.03804
G1 X122 Y116.195 E.03804
G1 X121.036 Y115.891 E.03804
G1 X120.102 Y115.504 E.03804
G1 X119.205 Y115.037 E.03804
G1 X118.352 Y114.494 E.03804
G1 X117.55 Y113.878 E.03804
G1 X116.805 Y113.195 E.03804
G1 X116.122 Y112.45 E.03804
G1 X115.506 Y111.648 E.03804
G1 X114.963 Y110.795 E.03804
G1 X114.496 Y109.898 E.03804
G1 X114.109 Y108.964 E.03804
G1 X113.805 Y108 E.03804
G1 X113.586 Y107.013 E.03804
G1 X113.455 Y106.01 E.03804
G1 X113.41 Y105 E.03804
G1 X113.455 Y103.99 E.03804
G1 X113.586 Y102.987 E.03804
G1 X113.805 Y102 E.03804
G1 X114.109 Y101.036 E.03804
G1 X114.496 Y100.102 E.03804
G1 X114.963 Y99.205 E.03804
G1 X115.506 Y98.352 E.03804
G1 X116.122 Y97.55 E.03804
G1 X116.805 Y96.805 E.03804
G1 X117.55 Y96.122 E.03804
G1 X118.352 Y95.506 E.03804
G1 X119.205 Y94.963 E.03804
G1 X120.102 Y94.496 E.03804
G1 X121.036 Y94.109 E.03804
G1 X122 Y93.805 E.03804
G1 X122.987 Y93.586 E.03804
G1 X123.99 Y93.455 E.03804
G1 X125 Y93.41 E.03804
G1 X126.01 Y93.455 E.03804
G1 X127.013 Y93.586 E.03804
G1 X128 Y93.805 E.03804
G1 X128.964 Y94.109 E.03804
G1 X129.898 Y94.496 E.03804
G1 X130.795 Y94.963 E.03804
G1 X131.648 Y95.506 E.03804
G1 X132.45 Y96.122 E.03804
G1 X133.195 Y96.805 E.03804
G1 X133.878 Y97.55 E.03804
G1 X134.494 Y98.352 E.03804
G1 X135.037 Y99.205 E.03804
G1 X135.504 Y100.102 E.03804
G1 X135.891 Y101.036 E.03804
G1 X136.195 Y102 E.03804
G1 X136.414 Y102.987 E.03804
G1 X136.545 Y103.99 E.03804
G1 X136.59 Y105 E.03804
G1 X136.545 Y106.01 E.03804
G1 X136.414 Y107.013 E.03804
G1 X136.195 Y108 E.03804
G1 X135.891 Y108.964 E.03804
G1 X135.504 Y109.898 E.03804
G1 X135.037 Y110.795 E.03804
G1 X134.494 Y111.648 E.03804
G1 X133.878 Y112.45 E.03804
G1 X133.195 Y113.195 E.03804
G1 X132.45 Y113.878 E.03804
G1 X131.695 Y114.457 E.03578
M204 S1000
G1 X131.285 Y114.325 F10800
G1 E-.4 F2100
G1 X130.608 Y113.019 F10800
G1 E.4 F2100
M204 S800
;TYPE:Perimeter
G1 F1200
G1 X129.915 Y113.463 E.03097
G1 X129.158 Y113.859 E.03212
G1 X128.37 Y114.188 E.03212
G1 X127.557 Y114.447 E.03212
G1 X126.724 Y114.634 E.03212
G1 X125.878 Y114.747 E.03212
G1 X125.025 Y114.787 E.03212
G1 X124.172 Y114.752 E.03212
G1 X123.325 Y114.642 E.03212
G1 X122.491 Y114.46 E.03212
G1 X121.676 Y114.205 E.03212
G1 X120.886 Y113.88 E.03212
G1 X120.128 Y113.488 E.03213
G1 X119.407 Y113.031 E.03212
G1 X118.728 Y112.513 E.03212
G1 X118.097 Y111.938 E.03213
G1 X117.519 Y111.31 E.03212
G1 X116.997 Y110.634 E.03212
G1 X116.537 Y109.915 E.03212
G1 X116.141 Y109.158 E.03213
G1 X115.812 Y108.37 E.03212
G1 X115.553 Y107.557 E.03212
G1 X115.366 Y106.724 E.03212
G1 X115.253 Y105.878 E.03212
G1 X115.213 Y105.025 E.03212
G1 X115.248 Y104.172 E.03212
G1 X115.358 Y103.325 E.03212
G1 X115.54 Y102.491 E.03212
G1 X115.795 Y101.676 E.03212
G1 X116.12 Y100.886 E.03212
G1 X116.512 Y100.128 E.03212
G1 X116.969 Y99.407 E.03212
G1 X117.487 Y98.728 E.03212
G1 X118.062 Y98.097 E.03212
G1 X118.69 Y97.519 E.03212
G1 X119.366 Y96.997 E.03212
G1 X120.085 Y96.537 E.03212
G1 X120.842 Y96.141 E.03212
G1 X121.63 Y95.812 E.03212
G1 X122.443 Y95.553 E.03212
G1 X123.276 Y95.366 E.03212
G1 X124.122 Y95.253 E.03212
G1 X124.975 Y95.213 E.03212
G1 X125.828 Y95.248 E.03212
G1 X126.675 Y95.358 E.03212
G1 X127.509 Y95.54 E.03212
G1 X128.324 Y95.795 E.03212
G1 X129.114 Y96.12 E.03212
G1 X129.872 Y96.512 E.03213
G1 X130.593 Y96.969 E.03212
G1 X131.272 Y97.487 E.03212
G1 X131.903 Y98.062 E.03213
G1 X132.481 Y98.69 E.03212
G1 X133.003 Y99.366 E.03212
G1 X133.463 Y100.085 E.03212
G1 X133.859 Y100.842 E.03212
G1 X134.188 Y101.63 E.03212
G1 X134.447 Y102.443 E.03212
G1 X134.634 Y103.276 E.03212
G1 X134.747 Y104.122 E.03212
G1 X134.787 Y104.975 E.03212
G1 X134.752 Y105.828 E.03212
G1 X134.642 Y106.675 E.03212
G1 X134.46 Y107.509 E.03212
G1 X134.205 Y108.324 E.03212
G1 X133.88 Y109.114 E.03212
G1 X133.488 Y109.872 E.03212
G1 X133.031 Y110.593 E.03212
G1 X132.513 Y111.272 E.03212
G1 X131.938 Y111.903 E.03212
G1 X131.31 Y112.481 E.03212
G1 X130.657 Y112.985 E.03102
M204 S1000
G1 X130.41 Y112.699 F10800
M204 S800
;TYPE:External perimeter
G1 F1200
G1 X129.712 Y113.145 E.03117
G1 X128.984 Y113.525 E.03089
G1 X128.226 Y113.84 E.03089
G1 X127.443 Y114.087 E.03089
G1 X126.642 Y114.266 E.03089
G1 X125.828 Y114.374 E.03089
G1 X125.008 Y114.41 E.03089
G1 X124.188 Y114.375 E.03089
G1 X123.374 Y114.269 E.03089
G1 X122.572 Y114.092 E.03089
G1 X121.789 Y113.845 E.03089
G1 X121.031 Y113.532 E.03089
G1 X120.302 Y113.153 E.03089
G1 X119.609 Y112.713 E.03089
G1 X118.958 Y112.214 E.03089
G1 X118.352 Y111.66 E.03089
G1 X117.797 Y111.055 E.03089
G1 X117.296 Y110.404 E.03089
G1 X116.855 Y109.712 E.03089
G1 X116.475 Y108.984 E.03089
G1 X116.16 Y108.226 E.03089
G1 X115.913 Y107.443 E.03089
G1 X115.734 Y106.642 E.03089
G1 X115.626 Y105.828 E.03089
G1 X115.59 Y105.008 E.03089
G1 X115.625 Y104.188 E.03089
G1 X115.732 Y103.374 E.03089
G1 X115.908 Y102.572 E.03089
G1 X116.155 Y101.789 E.03089
G1 X116.468 Y101.031 E.03089
G1 X116.847 Y100.302 E.03089
G1 X117.287 Y99.609 E.03089
G1 X117.786 Y98.958 E.03089
G1 X118.34 Y98.352 E.03088
G1 X118.945 Y97.797 E.03089
G1 X119.596 Y97.296 E.03089
G1 X120.288 Y96.855 E.03089
G1 X121.016 Y96.475 E.03089
G1 X121.774 Y96.16 E.03089
G1 X122.557 Y95.913 E.03089
G1 X123.358 Y95.734 E.03089
G1 X124.172 Y95.626 E.03089
G1 X124.992 Y95.59 E.03089
G1 X125.812 Y95.625 E.03089
G1 X126.626 Y95.732 E.03089
G1 X127.428 Y95.908 E.03089
G1 X128.211 Y96.155 E.03089
G1 X128.969 Y96.468 E.03089
G1 X129.698 Y96.847 E.03089
G1 X130.391 Y97.287 E.03089
G1 X131.042 Y97.786 E.03089
G1 X131.648 Y98.34 E.03089
G1 X132.203 Y98.945 E.03089
G1 X132.704 Y99.596 E.03089
G1 X133.145 Y100.288 E.03089
G1 X133.525 Y101.016 E.03089
G1 X133.84 Y101.774 E.03089
G1 X134.087 Y102.557 E.03089
G1 X134.266 Y103.358 E.03089
G1 X134.374 Y104.172 E.03089
M73 Q1 S25
G1 X134.41 Y104.992 E.03089
M73 P2 R24
G1 X134.375 Y105.812 E.03089
G1 X134.268 Y106.626 E.03089
G1 X134.092 Y107.428 E.03089
G1 X133.845 Y108.211 E.03089
G1 X133.532 Y108.969 E.03089
G1 X133.153 Y109.698 E.03089
G1 X132.713 Y110.391 E.03089
G1 X132.214 Y111.042 E.03089
G1 X131.66 Y111.648 E.03088
G1 X131.055 Y112.203 E.03089
G1 X130.458 Y112.662 E.02834
M204 S1000
G1 X130.446 Y113.097 F10800
G1 E-.4 F2100
G1 X130.553 Y112.786 F10800
G1 X131.149 Y112.328
G1 X131.764 Y111.764
G1 X132.328 Y111.149
G1 X132.836 Y110.487
G1 X133.285 Y109.783
G1 X133.67 Y109.043
G1 X133.989 Y108.272
G1 X134.24 Y107.476
G1 X134.421 Y106.661
G1 X134.53 Y105.834
G1 X134.566 Y105
G1 X134.53 Y104.166
G1 X134.421 Y103.339
G1 X134.24 Y102.524
G1 X133.989 Y101.728
G1 X133.67 Y100.957
G1 X133.558 Y100.742
G1 X134.384 Y98.471
G1 X134.102 Y98.65
G1 E.4 F2100
M204 S800
;TYPE:Solid infill
;WIDTH:0.426293
G1 F1200
G1 X132.677 Y97.225 E.0771
G1 X132.025 Y96.628 E.03383
G1 X131.269 Y96.047 E.03647
G1 X130.423 Y95.514 E.03825
G1 X134.486 Y99.577 E.21981
M73 Q2 S25
G1 X134.905 Y100.381 E.03469
G1 X135.016 Y100.648 E.01106
G1 X129.352 Y94.984 E.30642
G1 X128.738 Y94.73 E.02541
G1 X128.471 Y94.646 E.0107
G1 X130.23 Y96.405 E.09514
G1 X130.748 Y96.733 E.02347
G1 X131.473 Y97.286 E.03487
G1 X132.121 Y97.879 E.03361
G1 X132.714 Y98.527 E.03361
G1 X133.249 Y99.224 E.03361
G1 X133.6 Y99.774 E.02496
G1 X135.614 Y101.789 E.10897
M204 S1000
G1 E-.4 F2100
G1 X133.832 Y100.549 F10800
G1 E.4 F2100
M204 S800
G1 F1200
G1 X135.586 Y102.303 E.09486
G1 X135.74 Y102.999 E.02729
G1 X134.54 Y101.799 E.06495
G1 X134.718 Y102.362 E.02259
G1 X134.763 Y102.565 E.00795
G1 X135.833 Y103.634 E.05787
G1 X135.896 Y104.239 E.02326
G1 X134.916 Y103.26 E.053
G1 X135 Y103.886 E.02417
G1 X135.921 Y104.806 E.0498
G1 X135.914 Y105.342 E.02049
G1 X135.047 Y104.475 E.0469
G1 X135.069 Y105.038 E.02157
G1 X135.891 Y105.861 E.04452
G1 X135.887 Y105.953 E.00349
G1 X135.835 Y106.348 E.01524
G1 X135.046 Y105.558 E.04272
G1 X135.008 Y106.062 E.01933
