; generated by PrusaSlicer 2.2.0+ on 2021-08-12 at 10:00:00 UTC

; 

; external perimeters extrusion width = 0.45mm
; perimeters extrusion width = 0.45mm
; infill extrusion width = 0.45mm
; solid infill extrusion width = 0.45mm
; top infill extrusion width = 0.40mm
; first layer extrusion width = 0.42mm

M73 P0 R88
M73 Q0 S88
M201 X1000 Y1000 Z200 E5000 ; sets maximum accelerations, mm/sec^2
M203 X200 Y200 Z12 E120 ; sets maximum feedrates, mm/sec
M204 P1250 R1250 T1250 ; sets acceleration (P, T) and retract acceleration (R), mm/sec^2
M205 X8.00 Y8.00 Z0.40 E4.50 ; sets the jerk limits, mm/sec
M205 S0 T0 ; sets the minimum extruding and travel feed rate, mm/sec
M107
M862.3 P "MK3" ; printer model check
M862.1 P0.4 ; nozzle diameter check
M115 U3.10.0 ; tell printer latest fw version
G90 ; use absolute coordinates
M83 ; extruder relative mode
M104 S215 ; set extruder temp
M140 S60 ; set bed temp
M190 S60 ; wait for bed temp
M109 S215 ; wait for extruder temp
G28 W ; home all without mesh bed level
G80 ; mesh bed leveling
G1 Y-3.0 F1000.0 ; go outside print area
G92 E0.0
G1 X60.0 E9.0 F1000.0 ; intro line
M73 Q0 S88
M73 P0 R88
G1 X100.0 E12.5 F1000.0 ; intro line
G92 E0.0
M221 S95

; Don't change E values below. Excessive value can damage the printer.

M907 E538 ; set extruder motor current
G21 ; set units to millimeters
G90 ; use absolute coordinates
M83 ; use relative distances for extrusion
M900 K0.05 ; Filament gcode LA 1.5
M900 K30 ; Filament gcode LA 1.0
;BEFORE_LAYER_CHANGE
G92 E0.0
;0.2


G1 E-0.80000 F2100.00000
G1 Z0.400 F10800.000
;AFTER_LAYER_CHANGE
;0.2
G1 X113.549 Y95.696
G1 Z0.200
G1 E0.80000 F2100.00000
M204 S1000
G1 F1200.000
G1 X114.565 Y94.570 E0.04756
G1 X115.535 Y93.682 E0.04122
G1 X116.750 Y92.768 E0.04769
G1 X118.055 Y91.983 E0.04775
G1 X119.258 Y91.409 E0.04178
G1 X120.687 Y90.890 E0.04766
G1 X122.166 Y90.521 E0.04781
G1 X123.479 Y90.324 E0.04162
G1 X125.005 Y90.246 E0.04792
G1 X126.521 Y90.325 E0.04761
G1 X127.838 Y90.521 E0.04174
G1 X129.313 Y90.890 E0.04768
G1 X130.742 Y91.409 E0.04767
G1 X131.945 Y91.983 E0.04179
G1 X133.247 Y92.766 E0.04764
G1 X134.304 Y93.549 E0.04123
G1 X135.433 Y94.568 E0.04769
G1 X136.450 Y95.695 E0.04760
G1 X137.232 Y96.750 E0.04118
G1 X138.017 Y98.055 E0.04775
G1 X138.590 Y99.256 E0.04172
G1 X139.108 Y100.683 E0.04761
G1 X139.478 Y102.160 E0.04775
G1 X139.675 Y103.475 E0.04167
G1 X139.754 Y104.998 E0.04781
G1 X139.675 Y106.521 E0.04785
G1 X139.479 Y107.838 E0.04174
G1 X139.110 Y109.313 E0.04768
G1 X138.592 Y110.739 E0.04756
G1 X138.018 Y111.943 E0.04181
G1 X137.232 Y113.250 E0.04783
G1 X136.320 Y114.463 E0.04758
G1 X135.432 Y115.433 E0.04123
G1 X134.304 Y116.451 E0.04765
G1 X133.250 Y117.232 E0.04113
G1 X131.945 Y118.017 E0.04775
G1 X130.742 Y118.591 E0.04178
G1 X129.313 Y119.110 E0.04766
G1 X127.834 Y119.479 E0.04781
G1 X126.521 Y119.676 E0.04162
G1 X124.999 Y119.754 E0.04779
G1 X123.479 Y119.675 E0.04773
G1 X122.163 Y119.479 E0.04172
G1 X120.690 Y119.111 E0.04759
G1 X119.259 Y118.591 E0.04774
G1 X118.058 Y118.019 E0.04171
G1 X116.750 Y117.232 E0.04786
G1 X115.537 Y116.319 E0.04761
G1 X114.568 Y115.433 E0.04118
G1 X113.550 Y114.304 E0.04766
G1 X112.758 Y113.235 E0.04171
G1 X111.973 Y111.927 E0.04784
G1 X111.330 Y110.550 E0.04765
G1 X110.885 Y109.295 E0.04175
G1 X110.518 Y107.819 E0.04770
G1 X110.324 Y106.519 E0.04119
G1 X110.246 Y105.000 E0.04771
G1 X110.325 Y103.479 E0.04775
G1 X110.521 Y102.166 E0.04162
G1 X110.890 Y100.688 E0.04776
G1 X111.409 Y99.258 E0.04771
G1 X111.983 Y98.055 E0.04179
G1 X112.766 Y96.753 E0.04764
G1 X113.513 Y95.745 E0.03935
G1 X113.816 Y95.969 F10800.000
G1 F1200.000
G1 X114.833 Y94.835 E0.04774
G1 X115.775 Y93.973 E0.04003
G1 X116.962 Y93.080 E0.04660
G1 X118.235 Y92.314 E0.04657
G1 X119.402 Y91.758 E0.04054
G1 X120.798 Y91.251 E0.04658
G1 X122.237 Y90.891 E0.04649
G1 X123.515 Y90.700 E0.04050
G1 X125.002 Y90.623 E0.04671
G1 X126.485 Y90.700 E0.04655
G1 X127.763 Y90.891 E0.04051
G1 X129.205 Y91.251 E0.04659
G1 X130.598 Y91.758 E0.04648
G1 X131.765 Y92.314 E0.04053
G1 X133.038 Y93.080 E0.04658
G1 X134.064 Y93.840 E0.04004
G1 X135.165 Y94.833 E0.04648
G1 X136.159 Y95.935 E0.04653
G1 X136.920 Y96.962 E0.04010
G1 X137.686 Y98.235 E0.04656
G1 X138.242 Y99.400 E0.04049
G1 X138.748 Y100.795 E0.04652
G1 X139.109 Y102.236 E0.04657
G1 X139.300 Y103.511 E0.04042
G1 X139.377 Y104.995 E0.04661
G1 X139.301 Y106.481 E0.04666
G1 X139.112 Y107.746 E0.04008
G1 X138.754 Y109.186 E0.04655
G1 X138.323 Y110.404 E0.04052
G1 X137.694 Y111.749 E0.04654
G1 X136.929 Y113.025 E0.04664
G1 X136.160 Y114.064 E0.04053
G1 X135.167 Y115.165 E0.04648
G1 X134.064 Y116.160 E0.04659
G1 X133.038 Y116.920 E0.04004
G1 X131.765 Y117.686 E0.04657
G1 X130.598 Y118.242 E0.04054
G1 X129.202 Y118.749 E0.04658
G1 X127.763 Y119.109 E0.04649
G1 X126.485 Y119.300 E0.04050
G1 X125.001 Y119.377 E0.04659
G1 X123.515 Y119.300 E0.04667
G1 X122.238 Y119.109 E0.04049
G1 X120.799 Y118.750 E0.04651
G1 X119.403 Y118.243 E0.04656
G1 X118.235 Y117.686 E0.04058
G1 X116.963 Y116.921 E0.04655
G1 X115.776 Y116.028 E0.04654
G1 X114.833 Y115.165 E0.04009
G1 X113.838 Y114.062 E0.04659
G1 X113.070 Y113.024 E0.04047
G1 X112.305 Y111.748 E0.04664
G1 X111.678 Y110.406 E0.04647
G1 X111.246 Y109.188 E0.04051
G1 X110.887 Y107.745 E0.04663
G1 X110.700 Y106.483 E0.04000
G1 X110.623 Y105.002 E0.04651
G1 X110.700 Y103.515 E0.04668
G1 X110.890 Y102.241 E0.04039
G1 X111.251 Y100.797 E0.04667
G1 X111.758 Y99.402 E0.04652
G1 X112.314 Y98.235 E0.04053
G1 X113.080 Y96.962 E0.04658
G1 X113.780 Y96.017 E0.03689
G1 F8640.000
G1 X114.833 Y94.835 E-0.36540
G1 X115.775 Y93.973 E-0.29480
G1 X116.120 Y93.713 E-0.09980
G1 E-0.04000 F2100.00000
G1 Z0.600 F10800.000
G1 X111.949 Y94.567
G1 Z0.200
G1 E0.80000 F2100.00000
G1 F1200.000
G1 X112.167 Y94.291 E0.01102
G1 X113.258 Y93.106 E0.05051
G1 X114.296 Y92.164 E0.04395
G1 X114.989 Y91.617 E0.02768
G1 X115.706 Y91.109 E0.02755
G1 X116.399 Y90.670 E0.02572
G1 X117.113 Y90.264 E0.02575
G1 X118.512 Y89.597 E0.04861
G1 X119.282 Y89.295 E0.02594
G1 X120.069 Y89.030 E0.02603
G1 X121.573 Y88.641 E0.04870
G1 X122.444 Y88.483 E0.02774
G1 X123.312 Y88.372 E0.02743
G1 X124.185 Y88.306 E0.02745
G1 X125.069 Y88.287 E0.02773
G1 X125.911 Y88.311 E0.02641
G1 X126.750 Y88.378 E0.02640
G1 X127.591 Y88.489 E0.02659
G1 X128.429 Y88.642 E0.02671
G1 X129.931 Y89.030 E0.04864
G1 X130.718 Y89.295 E0.02603
G1 X131.488 Y89.597 E0.02594
G1 X132.888 Y90.265 E0.04865
G1 X133.629 Y90.686 E0.02672
G1 X134.347 Y91.145 E0.02672
G1 X135.039 Y91.637 E0.02662
G1 X135.707 Y92.166 E0.02673
G1 X136.851 Y93.214 E0.04864
G1 X137.421 Y93.817 E0.02602
G1 X137.960 Y94.445 E0.02594
G1 X138.879 Y95.688 E0.04847
G1 X139.325 Y96.389 E0.02605
G1 X139.735 Y97.112 E0.02605
G1 X140.403 Y98.511 E0.04863
G1 X140.705 Y99.282 E0.02594
G1 X140.970 Y100.068 E0.02603
G1 X141.359 Y101.572 E0.04870
G1 X141.517 Y102.443 E0.02775
G1 X141.628 Y103.311 E0.02743
G1 X141.694 Y104.190 E0.02765
G1 X141.713 Y105.067 E0.02749
G1 X141.689 Y105.910 E0.02645
G1 X141.621 Y106.756 E0.02662
G1 X141.511 Y107.591 E0.02641
G1 X141.358 Y108.429 E0.02671
G1 X140.970 Y109.931 E0.04863
G1 X140.705 Y110.717 E0.02602
G1 X140.404 Y111.487 E0.02593
G1 X139.735 Y112.889 E0.04869
G1 X139.302 Y113.647 E0.02739
G1 X138.832 Y114.382 E0.02736
G1 X138.344 Y115.063 E0.02625
G1 X137.833 Y115.708 E0.02581
G1 X136.741 Y116.895 E0.05056
G1 X135.704 Y117.836 E0.04392
G1 X135.011 Y118.383 E0.02768
G1 X134.294 Y118.891 E0.02755
G1 X133.601 Y119.330 E0.02572
G1 X132.887 Y119.736 E0.02575
G1 X131.488 Y120.403 E0.04861
G1 X130.718 Y120.705 E0.02594
G1 X129.931 Y120.970 E0.02603
G1 X128.427 Y121.359 E0.04870
G1 X127.557 Y121.517 E0.02774
G1 X126.689 Y121.628 E0.02743
G1 X125.809 Y121.694 E0.02765
G1 X124.933 Y121.713 E0.02749
G1 X124.091 Y121.689 E0.02640
G1 X123.251 Y121.622 E0.02642
G1 X122.406 Y121.511 E0.02671
G1 X121.572 Y121.359 E0.02661
G1 X120.070 Y120.970 E0.04863
G1 X119.283 Y120.705 E0.02603
G1 X118.513 Y120.404 E0.02594
G1 X117.112 Y119.736 E0.04865
G1 X116.372 Y119.314 E0.02671
G1 X115.654 Y118.856 E0.02672
G1 X114.962 Y118.363 E0.02663
G1 X114.293 Y117.834 E0.02673
G1 X113.149 Y116.786 E0.04864
G1 X112.581 Y116.185 E0.02595
G1 X112.040 Y115.555 E0.02604
G1 X111.118 Y114.309 E0.04860
G1 X110.675 Y113.610 E0.02594
G1 X110.265 Y112.888 E0.02603
G1 X109.597 Y111.489 E0.04862
G1 X109.295 Y110.718 E0.02594
G1 X109.030 Y109.931 E0.02603
G1 X108.641 Y108.428 E0.04869
G1 X108.484 Y107.561 E0.02763
G1 X108.372 Y106.693 E0.02744
G1 X108.306 Y105.816 E0.02757
G1 X108.287 Y104.933 E0.02771
G1 X108.311 Y104.091 E0.02639
G1 X108.378 Y103.251 E0.02642
G1 X108.489 Y102.406 E0.02671
G1 X108.641 Y101.572 E0.02661
G1 X109.030 Y100.070 E0.04863
G1 X109.295 Y99.283 E0.02604
G1 X109.597 Y98.512 E0.02595
G1 X110.265 Y97.111 E0.04868
G1 X110.698 Y96.352 E0.02738
G1 X111.169 Y95.617 E0.02736
G1 X111.650 Y94.944 E0.02597
G1 X111.912 Y94.614 E0.01320
G1 X112.207 Y94.848 F10800.000
G1 F1200.000
G1 X112.459 Y94.531 E0.01268
G1 X113.518 Y93.379 E0.04906
G1 X114.535 Y92.455 E0.04307
G1 X115.211 Y91.921 E0.02701
G1 X115.912 Y91.425 E0.02694
G1 X116.597 Y90.991 E0.02543
G1 X117.293 Y90.595 E0.02510
G1 X118.656 Y89.945 E0.04734
G1 X119.416 Y89.648 E0.02559
G1 X120.183 Y89.389 E0.02539
G1 X121.647 Y89.011 E0.04742
G1 X122.497 Y88.857 E0.02707
G1 X123.345 Y88.748 E0.02682
G1 X124.198 Y88.683 E0.02683
G1 X125.063 Y88.664 E0.02711
G1 X125.895 Y88.688 E0.02611
G1 X126.715 Y88.754 E0.02580
G1 X127.537 Y88.862 E0.02599
G1 X128.354 Y89.011 E0.02605
G1 X129.817 Y89.389 E0.04736
G1 X130.584 Y89.648 E0.02539
G1 X131.344 Y89.945 E0.02559
G1 X132.708 Y90.596 E0.04738
G1 X133.430 Y91.007 E0.02606
G1 X134.132 Y91.455 E0.02611
G1 X134.816 Y91.942 E0.02631
G1 X135.468 Y92.457 E0.02607
G1 X136.582 Y93.478 E0.04737
G1 X137.138 Y94.066 E0.02538
G1 X137.669 Y94.686 E0.02558
G1 X138.565 Y95.896 E0.04721
G1 X138.999 Y96.580 E0.02540
G1 X139.404 Y97.292 E0.02570
G1 X140.054 Y98.655 E0.04736
G1 X140.352 Y99.415 E0.02559
G1 X140.610 Y100.182 E0.02538
G1 X140.989 Y101.646 E0.04742
G1 X141.143 Y102.496 E0.02707
G1 X141.252 Y103.344 E0.02681
G1 X141.317 Y104.204 E0.02702
G1 X141.336 Y105.061 E0.02688
G1 X141.312 Y105.885 E0.02585
G1 X141.246 Y106.712 E0.02602
G1 X141.138 Y107.537 E0.02611
G1 X140.989 Y108.355 E0.02605
G1 X140.611 Y109.817 E0.04736
G1 X140.352 Y110.584 E0.02537
G1 X140.055 Y111.343 E0.02557
G1 X139.404 Y112.708 E0.04740
G1 X138.982 Y113.448 E0.02672
G1 X138.522 Y114.167 E0.02675
G1 X138.046 Y114.833 E0.02566
G1 X137.542 Y115.469 E0.02545
G1 X136.481 Y116.621 E0.04911
G1 X135.465 Y117.545 E0.04305
G1 X134.789 Y118.079 E0.02701
G1 X134.088 Y118.575 E0.02694
G1 X133.403 Y119.009 E0.02543
G1 X132.707 Y119.405 E0.02510
G1 X131.344 Y120.055 E0.04734
G1 X130.584 Y120.352 E0.02559
G1 X129.817 Y120.611 E0.02539
G1 X128.353 Y120.989 E0.04741
G1 X127.504 Y121.143 E0.02706
G1 X126.655 Y121.252 E0.02681
G1 X125.796 Y121.317 E0.02703
G1 X124.939 Y121.336 E0.02688
G1 X124.107 Y121.312 E0.02609
G1 X123.286 Y121.246 E0.02582
G1 X122.460 Y121.138 E0.02612
G1 X121.646 Y120.989 E0.02595
G1 X120.184 Y120.611 E0.04736
G1 X119.416 Y120.352 E0.02539
G1 X118.657 Y120.055 E0.02558
G1 X117.293 Y119.405 E0.04737
G1 X116.571 Y118.994 E0.02606
G1 X115.868 Y118.546 E0.02611
G1 X115.184 Y118.059 E0.02632
G1 X114.533 Y117.543 E0.02606
G1 X113.419 Y116.523 E0.04736
G1 X112.858 Y115.929 E0.02559
G1 X112.331 Y115.314 E0.02539
G1 X111.433 Y114.101 E0.04733
G1 X110.996 Y113.412 E0.02559
G1 X110.596 Y112.708 E0.02539
G1 X109.946 Y111.345 E0.04735
G1 X109.648 Y110.585 E0.02559
G1 X109.390 Y109.818 E0.02539
G1 X109.011 Y108.354 E0.04741
G1 X108.857 Y107.508 E0.02695
G1 X108.748 Y106.659 E0.02683
G1 X108.683 Y105.802 E0.02694
G1 X108.664 Y104.939 E0.02709
G1 X108.688 Y104.107 E0.02609
G1 X108.754 Y103.286 E0.02582
G1 X108.862 Y102.460 E0.02612
G1 X109.011 Y101.646 E0.02595
G1 X109.389 Y100.184 E0.04736
G1 X109.648 Y99.416 E0.02540
G1 X109.945 Y98.656 E0.02560
G1 X110.596 Y97.291 E0.04740
G1 X111.018 Y96.551 E0.02671
G1 X111.478 Y95.833 E0.02675
G1 X112.170 Y94.895 E0.03654
G1 X112.466 Y95.129 F10800.000
G1 F1200.000
G1 X112.750 Y94.770 E0.01435
G1 X113.778 Y93.652 E0.04762
G1 X114.774 Y92.747 E0.04219
G1 X115.433 Y92.226 E0.02634
G1 X116.118 Y91.741 E0.02633
G1 X116.787 Y91.316 E0.02484
G1 X117.473 Y90.927 E0.02475
G1 X118.800 Y90.294 E0.04608
G1 X119.540 Y90.004 E0.02494
G1 X120.297 Y89.749 E0.02503
G1 X121.722 Y89.381 E0.04614
G1 X122.550 Y89.230 E0.02639
G1 X123.378 Y89.123 E0.02620
G1 X124.212 Y89.060 E0.02621
G1 X125.057 Y89.041 E0.02649
G1 X125.870 Y89.064 E0.02550
G1 X126.680 Y89.129 E0.02550
G1 X127.483 Y89.235 E0.02539
G1 X128.280 Y89.381 E0.02539
G1 X129.703 Y89.749 E0.04609
G1 X130.460 Y90.004 E0.02503
G1 X131.200 Y90.294 E0.02494
G1 X132.527 Y90.927 E0.04610
G1 X133.240 Y91.332 E0.02569
G1 X133.925 Y91.770 E0.02551
G1 X134.593 Y92.246 E0.02571
G1 X135.228 Y92.749 E0.02540
G1 X136.312 Y93.742 E0.04610
G1 X136.861 Y94.322 E0.02502
G1 X137.378 Y94.926 E0.02494
G1 X138.250 Y96.103 E0.04594
G1 X138.678 Y96.778 E0.02505
G1 X139.073 Y97.472 E0.02505
G1 X139.706 Y98.799 E0.04609
G1 X139.996 Y99.540 E0.02494
G1 X140.251 Y100.296 E0.02503
G1 X140.619 Y101.721 E0.04614
G1 X140.770 Y102.549 E0.02639
G1 X140.877 Y103.377 E0.02619
G1 X140.940 Y104.217 E0.02640
G1 X140.959 Y105.055 E0.02627
G1 X140.936 Y105.869 E0.02554
G1 X140.871 Y106.677 E0.02541
G1 X140.765 Y107.483 E0.02551
G1 X140.619 Y108.280 E0.02539
G1 X140.251 Y109.703 E0.04609
G1 X139.997 Y110.459 E0.02502
G1 X139.706 Y111.199 E0.02493
G1 X139.073 Y112.527 E0.04613
G1 X138.662 Y113.249 E0.02605
G1 X138.212 Y113.951 E0.02614
G1 X137.748 Y114.602 E0.02507
G1 X137.251 Y115.229 E0.02508
G1 X136.221 Y116.348 E0.04767
G1 X135.226 Y117.253 E0.04217
G1 X134.567 Y117.774 E0.02634
G1 X133.882 Y118.259 E0.02633
G1 X133.213 Y118.684 E0.02484
G1 X132.527 Y119.073 E0.02475
G1 X131.200 Y119.706 E0.04608
G1 X130.460 Y119.996 E0.02494
G1 X129.703 Y120.251 E0.02503
G1 X128.278 Y120.619 E0.04613
G1 X127.451 Y120.770 E0.02639
G1 X126.622 Y120.877 E0.02619
G1 X125.782 Y120.940 E0.02641
G1 X124.945 Y120.959 E0.02626
G1 X124.132 Y120.936 E0.02549
G1 X123.321 Y120.871 E0.02552
G1 X122.514 Y120.765 E0.02551
G1 X121.721 Y120.619 E0.02529
G1 X120.298 Y120.251 E0.04608
G1 X119.541 Y119.997 E0.02503
G1 X118.800 Y119.706 E0.02494
G1 X117.473 Y119.073 E0.04610
G1 X116.761 Y118.668 E0.02569
G1 X116.075 Y118.231 E0.02551
G1 X115.407 Y117.755 E0.02572
G1 X114.772 Y117.252 E0.02540
G1 X113.688 Y116.258 E0.04609
G1 X113.141 Y115.680 E0.02495
G1 X112.622 Y115.074 E0.02504
G1 X111.748 Y113.893 E0.04606
G1 X111.321 Y113.222 E0.02494
G1 X110.927 Y112.527 E0.02503
G1 X110.294 Y111.201 E0.04608
G1 X110.004 Y110.460 E0.02494
G1 X109.749 Y109.704 E0.02504
G1 X109.381 Y108.279 E0.04613
G1 X109.231 Y107.455 E0.02628
G1 X109.124 Y106.626 E0.02621
G1 X109.060 Y105.789 E0.02632
G1 X109.041 Y104.945 E0.02647
G1 X109.064 Y104.132 E0.02548
G1 X109.129 Y103.321 E0.02552
G1 X109.235 Y102.514 E0.02551
G1 X109.381 Y101.721 E0.02529
G1 X109.749 Y100.298 E0.04609
G1 X110.004 Y99.541 E0.02504
G1 X110.294 Y98.800 E0.02495
G1 X110.927 Y97.472 E0.04612
G1 X111.338 Y96.750 E0.02604
G1 X111.788 Y96.048 E0.02614
G1 X112.428 Y95.176 E0.03392
G1 X112.724 Y95.410 F10800.000
G1 F1200.000
G1 X113.041 Y95.010 E0.01601
G1 X114.038 Y93.926 E0.04618
G1 X115.013 Y93.039 E0.04131
G1 X115.663 Y92.525 E0.02598
G1 X116.324 Y92.056 E0.02542
G1 X116.977 Y91.642 E0.02425
G1 X117.654 Y91.258 E0.02439
G1 X118.944 Y90.643 E0.04481
G1 X119.674 Y90.356 E0.02458
G1 X120.411 Y90.109 E0.02438
G1 X121.796 Y89.750 E0.04486
G1 X122.603 Y89.603 E0.02571
G1 X123.412 Y89.499 E0.02558
G1 X124.226 Y89.437 E0.02558
G1 X125.051 Y89.418 E0.02588
G1 X125.844 Y89.441 E0.02489
G1 X126.636 Y89.504 E0.02490
G1 X127.420 Y89.607 E0.02479
G1 X128.205 Y89.751 E0.02503
G1 X129.589 Y90.109 E0.04482
G1 X130.326 Y90.356 E0.02438
G1 X131.056 Y90.643 E0.02458
G1 X132.347 Y91.258 E0.04483
G1 X133.041 Y91.653 E0.02503
G1 X133.711 Y92.080 E0.02491
G1 X134.363 Y92.544 E0.02511
G1 X134.989 Y93.040 E0.02504
G1 X136.043 Y94.006 E0.04482
G1 X136.584 Y94.578 E0.02466
G1 X137.088 Y95.166 E0.02429
