; generated by PrusaSlicer 2.2.0+ on 2022-04-30 at 12:15:32 UTC


;
;

;
;
; 

; external perimeters extrusion width = 0.45mm
; perimeters extrusion width = 0.45mm
; infill extrusion width = 0.45mm
; solid infill extrusion width = 0.45mm
; top infill extrusion width = 0.40mm
; first layer extrusion width = 0.42mm

M73 P0 R31
M201 X1250 Y1250 Z400 E5000 ; sets maximum accelerations, mm/sec^2
M203 X180 Y180 Z12 E80 ; sets maximum feedrates, mm/sec
M204 P1250 R1250 T1250 ; sets acceleration (P, T) and retract acceleration (R), mm/sec^2
M205 X8.00 Y8.00 Z2.00 E10.00 ; sets the jerk limits, mm/sec
M205 S0 T0 ; sets the minimum extruding and travel feed rate, mm/sec
M107
G90 ; use absolute coordinates
M83 ; extruder relative mode
M104 S170 ; set extruder temp for bed leveling
M140 S60 ; set bed temp
M109 R170 ; wait for bed leveling temp
M190 S60 ; wait for bed temp
G28 ; home all without mesh bed level
G29 ; mesh bed leveling 
M104 S215 ; set extruder temp
G92 E0.0
G1 Y-2.0 X179 F2400
G1 Z3 F720
M109 S215 ; wait for extruder temp

; intro line
G1 X170 F1000
G1 Z0.2 F720
G1 X110.0 E8.0 F900
M73 P0 R31
G1 X40.0 E10.0 F700
G92 E0.0

M221 S95 ; set flow
G21 ; set units to millimeters
G90 ; use absolute coordinates
M83 ; use relative distances for extrusion
M900 K0.2 ; Filament gcode LA 1.5
; ; Filament gcode LA 1.0
;BEFORE_LAYER_CHANGE
G92 E0.0
;0.2


G1 Z0.200 F9000.000
;AFTER_LAYER_CHANGE
;0.2
G1 E-3.20000 F4200.00000
G1 Z0.400 F9000.000
G1 X73.256 Y57.945
G1 Z0.200
G1 E3.20000 F2400.00000
M204 S800
G1 F1200.000
G1 X73.741 Y57.519 E0.02024
G1 X74.318 Y57.240 E0.02012
G1 X74.954 Y57.125 E0.02024
G1 X104.938 Y57.123 E0.94012
G1 X105.826 Y57.297 E0.02837
G1 X106.587 Y57.792 E0.02849
G1 X107.107 Y58.537 E0.02849
G1 X107.310 Y59.423 E0.02849
G1 X107.331 Y118.508 E1.85256
G1 X107.303 Y120.695 E0.06859
G1 X107.083 Y121.515 E0.02661
G1 X106.729 Y122.059 E0.02036
G1 X106.240 Y122.486 E0.02036
G1 X105.654 Y122.765 E0.02036
G1 X105.014 Y122.876 E0.02036
G1 X75.035 Y122.877 E0.93998
G1 X74.525 Y122.818 E0.01609
G1 X74.040 Y122.650 E0.01609
G1 X73.490 Y122.290 E0.02060
G1 X73.058 Y121.791 E0.02071
G1 X72.781 Y121.195 E0.02060
G1 X72.677 Y120.543 E0.02071
G1 X72.677 Y59.492 E1.91420
G1 X72.735 Y58.975 E0.01633
G1 X72.904 Y58.486 E0.01621
G1 X73.223 Y57.995 E0.01836
M204 S1250
; printing object PoePiCam_SDCardProtection.stl id:0 copy 0
G1 E-2.24000 F4200.00000
G1 F7200.000
G1 X73.741 Y57.519 E-0.38986
G1 X74.318 Y57.240 E-0.35564
G1 X74.614 Y57.186 E-0.16650
G1 E-0.04800 F4200.00000
G1 Z0.400 F9000.000
G1 X75.841 Y60.287
G1 Z0.200
G1 E3.20000 F2400.00000
M204 S800
G1 F1200.000
G1 X104.147 Y60.287 E0.88751
G1 X104.140 Y80.713 E0.64044
G1 X84.267 Y80.713 E0.62312
G1 X84.267 Y99.287 E0.58238
G1 X104.140 Y99.287 E0.62312
G1 X104.147 Y119.713 E0.64044
G1 X75.841 Y119.713 E0.88750
G1 X75.841 Y60.347 E1.86137
M204 S1250
G1 E-2.24000 F4200.00000
G1 F7200.000
G1 X77.487 Y60.344 E-0.91200
G1 E-0.04800 F4200.00000
G1 Z0.400 F9000.000
G1 X84.644 Y81.090
G1 Z0.200
G1 E3.20000 F2400.00000
M204 S800
G1 F1200.000
G1 X84.644 Y98.910 E0.55873
G1 X104.517 Y98.910 E0.62311
G1 X104.524 Y120.090 E0.66408
G1 X75.464 Y120.090 E0.91115
G1 X75.464 Y59.910 E1.88690
G1 X104.524 Y59.910 E0.91116
G1 X104.517 Y81.090 E0.66408
G1 X84.704 Y81.090 E0.62123
M204 S1250
G1 X84.259 Y81.198 F9000.000
G1 E-2.24000 F4200.00000
G1 F7200.000
G1 X84.698 Y82.736 E-0.91200
G1 E-0.04800 F4200.00000
G1 Z0.400 F9000.000
G1 X84.388 Y99.400
G1 Z0.200
G1 E3.20000 F2400.00000
M204 S800
G1 F1200.000
G1 X103.864 Y118.875 E0.86785
G1 X103.863 Y118.339 E0.01689
G1 X85.094 Y99.570 E0.83640
G1 X85.630 Y99.570 E0.01689
G1 X103.863 Y117.803 E0.81251
G1 X103.863 Y117.267 E0.01689
G1 X86.166 Y99.570 E0.78862
G1 X86.702 Y99.570 E0.01689
G1 X103.863 Y116.731 E0.76473
G1 X103.863 Y116.195 E0.01689
G1 X87.238 Y99.570 E0.74084
G1 X87.773 Y99.570 E0.01689
G1 X103.863 Y115.659 E0.71695
G1 X103.862 Y115.123 E0.01689
G1 X88.309 Y99.570 E0.69307
G1 X88.845 Y99.570 E0.01689
G1 X103.862 Y114.587 E0.66918
G1 X103.862 Y114.051 E0.01689
G1 X89.381 Y99.570 E0.64529
G1 X89.917 Y99.570 E0.01689
G1 X103.862 Y113.515 E0.62140
G1 X103.862 Y112.978 E0.01689
G1 X90.453 Y99.570 E0.59751
G1 X90.989 Y99.570 E0.01689
G1 X103.861 Y112.442 E0.57362
G1 X103.861 Y111.906 E0.01689
G1 X91.525 Y99.570 E0.54973
G1 X92.061 Y99.570 E0.01689
G1 X103.861 Y111.370 E0.52584
G1 X103.861 Y110.834 E0.01689
G1 X92.597 Y99.570 E0.50195
G1 X93.133 Y99.570 E0.01689
G1 X103.861 Y110.298 E0.47806
G1 X103.861 Y109.762 E0.01689
G1 X93.669 Y99.570 E0.45418
G1 X94.205 Y99.570 E0.01689
G1 X103.860 Y109.226 E0.43029
M73 P3 R30
G1 X103.860 Y108.690 E0.01689
G1 X94.740 Y99.570 E0.40640
G1 X95.276 Y99.570 E0.01689
G1 X103.860 Y108.154 E0.38251
G1 X103.860 Y107.618 E0.01689
G1 X95.812 Y99.570 E0.35862
G1 X96.348 Y99.570 E0.01689
G1 X103.860 Y107.082 E0.33473
G1 X103.860 Y106.545 E0.01689
G1 X96.884 Y99.570 E0.31084
G1 X97.420 Y99.570 E0.01689
G1 X103.859 Y106.009 E0.28695
G1 X103.859 Y105.473 E0.01689
G1 X97.956 Y99.570 E0.26306
G1 X98.492 Y99.570 E0.01689
G1 X103.859 Y104.937 E0.23918
G1 X103.859 Y104.401 E0.01689
G1 X99.028 Y99.570 E0.21529
G1 X99.564 Y99.570 E0.01689
G1 X103.859 Y103.865 E0.19140
G1 X103.859 Y103.329 E0.01689
G1 X100.100 Y99.570 E0.16751
G1 X100.636 Y99.570 E0.01689
G1 X103.858 Y102.793 E0.14362
G1 X103.858 Y102.257 E0.01689
G1 X101.171 Y99.570 E0.11973
G1 X101.707 Y99.570 E0.01689
G1 X103.858 Y101.721 E0.09584
G1 X103.858 Y101.185 E0.01689
G1 X102.243 Y99.570 E0.07195
G1 X102.779 Y99.570 E0.01689
G1 X103.858 Y100.648 E0.04806
G1 X103.858 Y100.112 E0.01689
G1 X103.315 Y99.570 E0.02418
G1 X103.851 Y99.570 E0.01689
G1 X104.027 Y99.746 E0.00785
M204 S1250
G1 E-2.24000 F4200.00000
G1 F7200.000
G1 X103.851 Y99.570 E-0.13806
G1 X103.315 Y99.570 E-0.29699
G1 X103.858 Y100.112 E-0.42517
G1 X103.858 Y100.206 E-0.05179
G1 E-0.04800 F4200.00000
G1 Z0.400 F9000.000
G1 X75.954 Y118.834
G1 Z0.200
G1 E3.20000 F2400.00000
M204 S800
G1 F1200.000
G1 X76.551 Y119.430 E0.02658
G1 X77.086 Y119.430 E0.01689
G1 X76.124 Y118.467 E0.04290
G1 X76.124 Y117.931 E0.01689
G1 X77.622 Y119.430 E0.06678
G1 X78.158 Y119.430 E0.01689
G1 X76.124 Y117.396 E0.09066
G1 X76.124 Y116.860 E0.01689
G1 X78.694 Y119.430 E0.11454
G1 X79.230 Y119.430 E0.01689
G1 X76.124 Y116.324 E0.13843
G1 X76.124 Y115.788 E0.01689
G1 X79.766 Y119.430 E0.16231
G1 X80.302 Y119.430 E0.01689
G1 X76.124 Y115.252 E0.18619
G1 X76.124 Y114.716 E0.01689
G1 X80.838 Y119.430 E0.21007
G1 X81.374 Y119.430 E0.01689
G1 X76.124 Y114.180 E0.23395
G1 X76.124 Y113.644 E0.01689
G1 X81.910 Y119.430 E0.25783
G1 X82.446 Y119.430 E0.01689
G1 X76.124 Y113.108 E0.28171
G1 X76.124 Y112.572 E0.01689
G1 X82.982 Y119.430 E0.30560
G1 X83.517 Y119.430 E0.01689
G1 X76.124 Y112.036 E0.32948
G1 X76.124 Y111.500 E0.01689
G1 X84.053 Y119.430 E0.35336
G1 X84.589 Y119.430 E0.01689
G1 X76.124 Y110.965 E0.37724
G1 X76.124 Y110.429 E0.01689
G1 X85.125 Y119.430 E0.40112
G1 X85.661 Y119.430 E0.01689
G1 X76.124 Y109.893 E0.42500
G1 X76.124 Y109.357 E0.01689
G1 X86.197 Y119.430 E0.44888
G1 X86.733 Y119.430 E0.01689
G1 X76.124 Y108.821 E0.47277
G1 X76.124 Y108.285 E0.01689
G1 X87.269 Y119.430 E0.49665
G1 X87.805 Y119.430 E0.01689
G1 X76.124 Y107.749 E0.52053
G1 X76.124 Y107.213 E0.01689
G1 X88.341 Y119.430 E0.54441
G1 X88.877 Y119.430 E0.01689
G1 X76.124 Y106.677 E0.56829
G1 X76.124 Y106.141 E0.01689
G1 X89.413 Y119.430 E0.59217
G1 X89.948 Y119.430 E0.01689
G1 X76.124 Y105.605 E0.61605
G1 X76.124 Y105.069 E0.01689
G1 X90.484 Y119.430 E0.63994
G1 X91.020 Y119.430 E0.01689
G1 X76.124 Y104.534 E0.66382
G1 X76.124 Y103.998 E0.01689
G1 X91.556 Y119.430 E0.68770
G1 X92.092 Y119.430 E0.01689
G1 X76.124 Y103.462 E0.71158
G1 X76.124 Y102.926 E0.01689
G1 X92.628 Y119.430 E0.73546
G1 X93.164 Y119.430 E0.01689
G1 X76.124 Y102.390 E0.75934
G1 X76.124 Y101.854 E0.01689
G1 X93.700 Y119.430 E0.78322
G1 X94.236 Y119.430 E0.01689
G1 X76.124 Y101.318 E0.80711
G1 X76.124 Y100.782 E0.01689
G1 X94.772 Y119.430 E0.83099
G1 X95.308 Y119.430 E0.01689
G1 X76.124 Y100.246 E0.85487
G1 X76.124 Y99.710 E0.01689
G1 X95.844 Y119.430 E0.87875
G1 X96.379 Y119.430 E0.01689
G1 X76.124 Y99.174 E0.90263
G1 X76.124 Y98.638 E0.01689
G1 X96.915 Y119.430 E0.92651
G1 X97.451 Y119.430 E0.01689
G1 X76.124 Y98.103 E0.95039
G1 X76.124 Y97.567 E0.01689
G1 X97.987 Y119.430 E0.97428
G1 X98.523 Y119.430 E0.01689
G1 X76.124 Y97.031 E0.99816
G1 X76.124 Y96.495 E0.01689
G1 X99.059 Y119.430 E1.02204
G1 X99.595 Y119.430 E0.01689
G1 X76.124 Y95.959 E1.04592
G1 X76.124 Y95.423 E0.01689
G1 X100.131 Y119.430 E1.06980
G1 X100.667 Y119.430 E0.01689
G1 X76.124 Y94.887 E1.09368
G1 X76.124 Y94.351 E0.01689
G1 X101.203 Y119.430 E1.11756
G1 X101.739 Y119.430 E0.01689
G1 X76.124 Y93.815 E1.14145
G1 X76.124 Y93.279 E0.01689
G1 X102.275 Y119.430 E1.16533
G1 X102.810 Y119.430 E0.01689
G1 X76.124 Y92.743 E1.18921
G1 X76.124 Y92.207 E0.01689
G1 X103.346 Y119.430 E1.21309
G1 X103.864 Y119.430 E0.01630
G1 X103.864 Y119.411 E0.00059
G1 X76.124 Y91.672 E1.23614
M73 P6 R29
G1 X76.124 Y91.136 E0.01689
G1 X83.984 Y98.996 E0.35027
G1 X83.984 Y98.460 E0.01689
G1 X76.124 Y90.600 E0.35027
G1 X76.124 Y90.064 E0.01689
G1 X83.984 Y97.924 E0.35027
G1 X83.984 Y97.388 E0.01689
G1 X76.124 Y89.528 E0.35027
G1 X76.124 Y88.992 E0.01689
G1 X83.984 Y96.852 E0.35027
G1 X83.984 Y96.316 E0.01689
G1 X76.124 Y88.456 E0.35027
G1 X76.124 Y87.920 E0.01689
G1 X83.984 Y95.780 E0.35027
G1 X83.984 Y95.244 E0.01689
G1 X76.124 Y87.384 E0.35027
G1 X76.124 Y86.848 E0.01689
G1 X83.984 Y94.709 E0.35027
G1 X83.984 Y94.173 E0.01689
G1 X76.124 Y86.312 E0.35027
G1 X76.124 Y85.776 E0.01689
G1 X83.984 Y93.637 E0.35027
G1 X83.984 Y93.101 E0.01689
G1 X76.124 Y85.241 E0.35027
G1 X76.124 Y84.705 E0.01689
G1 X83.984 Y92.565 E0.35027
G1 X83.984 Y92.029 E0.01689
G1 X76.124 Y84.169 E0.35027
G1 X76.124 Y83.633 E0.01689
G1 X83.984 Y91.493 E0.35027
G1 X83.984 Y90.957 E0.01689
G1 X76.124 Y83.097 E0.35027
G1 X76.124 Y82.561 E0.01689
G1 X83.984 Y90.421 E0.35027
G1 X83.984 Y89.885 E0.01689
G1 X76.124 Y82.025 E0.35027
G1 X76.124 Y81.489 E0.01689
G1 X83.984 Y89.349 E0.35027
G1 X83.984 Y88.813 E0.01689
G1 X76.124 Y80.953 E0.35027
G1 X76.124 Y80.417 E0.01689
G1 X83.984 Y88.278 E0.35027
G1 X83.984 Y87.742 E0.01689
G1 X76.124 Y79.881 E0.35027
G1 X76.124 Y79.345 E0.01689
G1 X83.984 Y87.206 E0.35027
G1 X83.984 Y86.670 E0.01689
G1 X76.124 Y78.810 E0.35027
G1 X76.124 Y78.274 E0.01689
G1 X83.984 Y86.134 E0.35027
G1 X83.984 Y85.598 E0.01689
G1 X76.124 Y77.738 E0.35027
G1 X76.124 Y77.202 E0.01689
G1 X83.984 Y85.062 E0.35027
G1 X83.984 Y84.526 E0.01689
G1 X76.124 Y76.666 E0.35027
G1 X76.124 Y76.130 E0.01689
G1 X83.984 Y83.990 E0.35027
G1 X83.984 Y83.454 E0.01689
G1 X76.124 Y75.594 E0.35027
G1 X76.124 Y75.058 E0.01689
G1 X83.984 Y82.918 E0.35027
G1 X83.984 Y82.382 E0.01689
G1 X76.124 Y74.522 E0.35027
G1 X76.124 Y73.986 E0.01689
G1 X83.984 Y81.846 E0.35027
G1 X83.984 Y81.311 E0.01689
G1 X76.124 Y73.450 E0.35027
G1 X76.124 Y72.914 E0.01689
G1 X83.984 Y80.775 E0.35027
G1 X83.984 Y80.430 E0.01086
G1 X84.175 Y80.430 E0.00603
G1 X76.124 Y72.378 E0.35879
G1 X76.124 Y71.843 E0.01689
G1 X84.711 Y80.430 E0.38268
G1 X85.247 Y80.430 E0.01689
G1 X76.124 Y71.307 E0.40656
G1 X76.124 Y70.771 E0.01689
G1 X85.783 Y80.430 E0.43044
G1 X86.319 Y80.430 E0.01689
G1 X76.124 Y70.235 E0.45432
G1 X76.124 Y69.699 E0.01689
G1 X86.855 Y80.430 E0.47820
G1 X87.391 Y80.430 E0.01689
G1 X76.124 Y69.163 E0.50208
G1 X76.124 Y68.627 E0.01689
G1 X87.927 Y80.430 E0.52596
G1 X88.463 Y80.430 E0.01689
G1 X76.124 Y68.091 E0.54985
G1 X76.124 Y67.555 E0.01689
G1 X88.999 Y80.430 E0.57373
G1 X89.535 Y80.430 E0.01689
G1 X76.124 Y67.019 E0.59761
G1 X76.124 Y66.483 E0.01689
G1 X90.070 Y80.430 E0.62149
G1 X90.606 Y80.430 E0.01689
G1 X76.124 Y65.947 E0.64537
G1 X76.124 Y65.412 E0.01689
G1 X91.142 Y80.430 E0.66925
G1 X91.678 Y80.430 E0.01689
G1 X76.124 Y64.876 E0.69313
G1 X76.124 Y64.340 E0.01689
G1 X92.214 Y80.430 E0.71702
G1 X92.750 Y80.430 E0.01689
G1 X76.124 Y63.804 E0.74090
G1 X76.124 Y63.268 E0.01689
G1 X93.286 Y80.430 E0.76478
G1 X93.822 Y80.430 E0.01689
G1 X76.124 Y62.732 E0.78866
G1 X76.124 Y62.196 E0.01689
G1 X94.358 Y80.430 E0.81254
G1 X94.894 Y80.430 E0.01689
G1 X76.124 Y61.660 E0.83642
G1 X76.124 Y61.124 E0.01689
G1 X95.430 Y80.430 E0.86030
G1 X95.966 Y80.430 E0.01689
G1 X76.124 Y60.588 E0.88419
G1 X76.124 Y60.570 E0.00058
G1 X76.641 Y60.570 E0.01631
G1 X96.501 Y80.430 E0.88501
G1 X97.037 Y80.430 E0.01689
G1 X77.177 Y60.570 E0.88501
G1 X77.713 Y60.570 E0.01689
G1 X97.573 Y80.430 E0.88501
G1 X98.109 Y80.430 E0.01689
G1 X78.249 Y60.570 E0.88501
G1 X78.785 Y60.570 E0.01689
G1 X98.645 Y80.430 E0.88501
G1 X99.181 Y80.430 E0.01689
G1 X79.321 Y60.570 E0.88501
G1 X79.857 Y60.570 E0.01689
G1 X99.717 Y80.430 E0.88501
G1 X100.253 Y80.430 E0.01689
G1 X80.393 Y60.570 E0.88501
G1 X80.929 Y60.570 E0.01689
G1 X100.789 Y80.430 E0.88501
G1 X101.325 Y80.430 E0.01689
G1 X81.464 Y60.570 E0.88501
G1 X82.000 Y60.570 E0.01689
G1 X101.861 Y80.430 E0.88501
M73 P10 R28
G1 X102.397 Y80.430 E0.01689
G1 X82.536 Y60.570 E0.88501
G1 X83.072 Y60.570 E0.01689
G1 X102.932 Y80.430 E0.88501
G1 X103.468 Y80.430 E0.01689
G1 X83.608 Y60.570 E0.88501
G1 X84.144 Y60.570 E0.01689
G1 X103.858 Y80.283 E0.87847
G1 X103.858 Y79.748 E0.01688
G1 X84.680 Y60.570 E0.85459
G1 X85.216 Y60.570 E0.01689
G1 X103.858 Y79.212 E0.83072
G1 X103.858 Y78.676 E0.01688
G1 X85.752 Y60.570 E0.80685
G1 X86.288 Y60.570 E0.01689
G1 X103.858 Y78.140 E0.78297
G1 X103.858 Y77.605 E0.01688
G1 X86.824 Y60.570 E0.75910
G1 X87.360 Y60.570 E0.01689
G1 X103.859 Y77.069 E0.73523
G1 X103.859 Y76.533 E0.01688
G1 X87.895 Y60.570 E0.71135
G1 X88.431 Y60.570 E0.01689
G1 X103.859 Y75.997 E0.68748
G1 X103.859 Y75.462 E0.01688
G1 X88.967 Y60.570 E0.66361
G1 X89.503 Y60.570 E0.01689
G1 X103.859 Y74.926 E0.63973
G1 X103.860 Y74.390 E0.01688
G1 X90.039 Y60.570 E0.61586
G1 X90.575 Y60.570 E0.01689
G1 X103.860 Y73.855 E0.59199
G1 X103.860 Y73.319 E0.01688
G1 X91.111 Y60.570 E0.56811
G1 X91.647 Y60.570 E0.01689
G1 X103.860 Y72.783 E0.54424
G1 X103.860 Y72.247 E0.01688
G1 X92.183 Y60.570 E0.52037
G1 X92.719 Y60.570 E0.01689
G1 X103.860 Y71.712 E0.49649
G1 X103.861 Y71.176 E0.01688
G1 X93.255 Y60.570 E0.47262
G1 X93.791 Y60.570 E0.01689
G1 X103.861 Y70.640 E0.44875
G1 X103.861 Y70.104 E0.01688
G1 X94.326 Y60.570 E0.42487
G1 X94.862 Y60.570 E0.01689
G1 X103.861 Y69.569 E0.40100
G1 X103.861 Y69.033 E0.01688
G1 X95.398 Y60.570 E0.37713
G1 X95.934 Y60.570 E0.01689
G1 X103.862 Y68.497 E0.35325
G1 X103.862 Y67.961 E0.01688
G1 X96.470 Y60.570 E0.32938
G1 X97.006 Y60.570 E0.01689
G1 X103.862 Y67.426 E0.30551
G1 X103.862 Y66.890 E0.01688
G1 X97.542 Y60.570 E0.28163
G1 X98.078 Y60.570 E0.01689
G1 X103.862 Y66.354 E0.25776
G1 X103.862 Y65.818 E0.01688
G1 X98.614 Y60.570 E0.23389
G1 X99.150 Y60.570 E0.01689
G1 X103.863 Y65.283 E0.21001
G1 X103.863 Y64.747 E0.01688
G1 X99.686 Y60.570 E0.18614
G1 X100.222 Y60.570 E0.01689
G1 X103.863 Y64.211 E0.16227
G1 X103.863 Y63.676 E0.01688
G1 X100.758 Y60.570 E0.13839
G1 X101.293 Y60.570 E0.01689
G1 X103.863 Y63.140 E0.11452
G1 X103.864 Y62.604 E0.01688
G1 X101.829 Y60.570 E0.09065
G1 X102.365 Y60.570 E0.01689
G1 X103.864 Y62.068 E0.06677
G1 X103.864 Y61.533 E0.01688
G1 X102.901 Y60.570 E0.04290
G1 X103.437 Y60.570 E0.01689
G1 X104.034 Y61.166 E0.02658
M204 S1250
; stop printing object PoePiCam_SDCardProtection.stl id:0 copy 0
M106 S255
;BEFORE_LAYER_CHANGE
G92 E0.0
;0.4


G1 Z0.400 F9000.000
;AFTER_LAYER_CHANGE
;0.4
G1 E-3.20000 F4200.00000
G1 Z0.600 F9000.000
G1 X107.107 Y58.537
G1 Z0.400
G1 E3.20000 F2400.00000
G1 X107.310 Y59.423 E0.02849
G1 X107.331 Y118.508 E1.85256
G1 X107.303 Y120.695 E0.06859
G1 X107.083 Y121.515 E0.02661
G1 X106.729 Y122.059 E0.02036
G1 X106.240 Y122.486 E0.02036
G1 X105.654 Y122.765 E0.02036
G1 X105.014 Y122.876 E0.02036
G1 X75.035 Y122.877 E0.93998
G1 X74.525 Y122.818 E0.01609
G1 X74.040 Y122.650 E0.01609
G1 X73.490 Y122.290 E0.02060
G1 X73.058 Y121.791 E0.02071
G1 X72.781 Y121.195 E0.02060
G1 X72.677 Y120.543 E0.02071
G1 X72.677 Y59.492 E1.91420
G1 X72.735 Y58.975 E0.01633
G1 X72.904 Y58.486 E0.01621
G1 X73.256 Y57.945 E0.02024
