; generated by PrusaSlicer 2.2.0+ on 2022-04-30 at 12:10:41 UTC


;
;

;
;
; 

; external perimeters extrusion width = 0.45mm
; perimeters extrusion width = 0.45mm
; infill extrusion width = 0.45mm
; solid infill extrusion width = 0.45mm
; top infill extrusion width = 0.40mm
; first layer extrusion width = 0.42mm

M73 P0 R241
M201 X1250 Y1250 Z400 E5000 ; sets maximum accelerations, mm/sec^2
M203 X180 Y180 Z12 E80 ; sets maximum feedrates, mm/sec
M204 P1250 R1250 T1250 ; sets acceleration (P, T) and retract acceleration (R), mm/sec^2
M205 X8.00 Y8.00 Z2.00 E10.00 ; sets the jerk limits, mm/sec
M205 S0 T0 ; sets the minimum extruding and travel feed rate, mm/sec
M107
G90 ; use absolute coordinates
M83 ; extruder relative mode
M104 S170 ; set extruder temp for bed leveling
M140 S60 ; set bed temp
M109 R170 ; wait for bed leveling temp
M190 S60 ; wait for bed temp
G28 ; home all without mesh bed level
G29 ; mesh bed leveling 
M104 S215 ; set extruder temp
G92 E0.0
G1 Y-2.0 X179 F2400
G1 Z3 F720
M109 S215 ; wait for extruder temp

; intro line
G1 X170 F1000
G1 Z0.2 F720
G1 X110.0 E8.0 F900
M73 P0 R241
G1 X40.0 E10.0 F700
G92 E0.0

M221 S95 ; set flow
G21 ; set units to millimeters
G90 ; use absolute coordinates
M83 ; use relative distances for extrusion
M900 K0.2 ; Filament gcode LA 1.5
; ; Filament gcode LA 1.0
;BEFORE_LAYER_CHANGE
G92 E0.0
;0.2


G1 Z0.200 F9000.000
;AFTER_LAYER_CHANGE
;0.2
G1 E-3.20000 F4200.00000
G1 Z0.400 F9000.000
G1 X18.991 Y25.059
G1 Z0.200
G1 E3.20000 F2400.00000
M204 S800
G1 F1200.000
G1 X19.539 Y24.274 E0.03001
G1 X20.288 Y23.794 E0.02790
G1 X21.161 Y23.623 E0.02790
G1 X158.818 Y23.623 E4.31614
G1 X159.720 Y23.802 E0.02884
G1 X160.484 Y24.308 E0.02872
G1 X161.001 Y25.069 E0.02884
G1 X161.191 Y25.968 E0.02884
G1 X161.211 Y152.011 E3.95199
G1 X161.143 Y154.478 E0.07735
G1 X160.891 Y155.157 E0.02272
G1 X160.448 Y155.726 E0.02260
G1 X159.699 Y156.206 E0.02790
G1 X158.826 Y156.377 E0.02790
G1 X21.173 Y156.377 E4.31600
G1 X20.232 Y156.183 E0.03013
G1 X19.448 Y155.635 E0.03001
G1 X18.968 Y154.886 E0.02790
G1 X18.796 Y154.013 E0.02790
G1 X18.796 Y26.000 E4.01374
G1 X18.978 Y25.118 E0.02824
M204 S1250
; printing object PoePiCam_SDCardProtection.stl id:1 copy 0
G1 E-2.24000 F4200.00000
G1 F7200.000
G1 X19.539 Y24.274 E-0.56109
G1 X20.072 Y23.933 E-0.35091
G1 E-0.04800 F4200.00000
G1 Z0.400 F9000.000
G1 X21.960 Y93.787
G1 Z0.200
G1 E3.20000 F2400.00000
M204 S800
G1 F1200.000
G1 X50.266 Y93.787 E0.88751
G1 X50.260 Y114.213 E0.64044
G1 X30.386 Y114.213 E0.62312
G1 X30.386 Y132.787 E0.58238
G1 X50.260 Y132.787 E0.62312
G1 X50.266 Y153.213 E0.64044
G1 X21.960 Y153.213 E0.88750
G1 X21.960 Y93.847 E1.86137
M204 S1250
G1 E-2.24000 F4200.00000
G1 F7200.000
G1 X23.606 Y93.844 E-0.91200
G1 E-0.04800 F4200.00000
G1 Z0.400 F9000.000
G1 X30.763 Y114.590
G1 Z0.200
G1 E3.20000 F2400.00000
M204 S800
G1 F1200.000
G1 X30.763 Y132.410 E0.55873
G1 X50.637 Y132.410 E0.62311
G1 X50.643 Y153.590 E0.66408
G1 X21.583 Y153.590 E0.91115
G1 X21.583 Y93.410 E1.88690
G1 X50.643 Y93.410 E0.91116
G1 X50.637 Y114.590 E0.66408
G1 X30.823 Y114.590 E0.62123
M204 S1250
G1 X30.378 Y114.698 F9000.000
G1 E-2.24000 F4200.00000
G1 F7200.000
G1 X30.818 Y116.236 E-0.91200
G1 E-0.04800 F4200.00000
G1 Z0.400 F9000.000
G1 X30.508 Y132.900
G1 Z0.200
G1 E3.20000 F2400.00000
M204 S800
G1 F1200.000
G1 X49.983 Y152.375 E0.86785
G1 X49.983 Y151.839 E0.01689
G1 X31.213 Y133.070 E0.83640
M73 P0 R240
G1 X31.749 Y133.070 E0.01689
G1 X49.983 Y151.303 E0.81251
G1 X49.983 Y150.767 E0.01689
G1 X32.285 Y133.070 E0.78862
G1 X32.821 Y133.070 E0.01689
G1 X49.982 Y150.231 E0.76473
G1 X49.982 Y149.695 E0.01689
G1 X33.357 Y133.070 E0.74084
G1 X33.893 Y133.070 E0.01689
G1 X49.982 Y149.159 E0.71695
G1 X49.982 Y148.623 E0.01689
G1 X34.429 Y133.070 E0.69307
G1 X34.965 Y133.070 E0.01689
G1 X49.982 Y148.087 E0.66918
G1 X49.982 Y147.551 E0.01689
G1 X35.501 Y133.070 E0.64529
G1 X36.037 Y133.070 E0.01689
G1 X49.981 Y147.015 E0.62140
G1 X49.981 Y146.478 E0.01689
G1 X36.573 Y133.070 E0.59751
G1 X37.109 Y133.070 E0.01689
G1 X49.981 Y145.942 E0.57362
G1 X49.981 Y145.406 E0.01689
G1 X37.644 Y133.070 E0.54973
G1 X38.180 Y133.070 E0.01689
G1 X49.981 Y144.870 E0.52584
G1 X49.981 Y144.334 E0.01689
G1 X38.716 Y133.070 E0.50195
G1 X39.252 Y133.070 E0.01689
G1 X49.980 Y143.798 E0.47806
G1 X49.980 Y143.262 E0.01689
G1 X39.788 Y133.070 E0.45418
G1 X40.324 Y133.070 E0.01689
G1 X49.980 Y142.726 E0.43029
G1 X49.980 Y142.190 E0.01689
G1 X40.860 Y133.070 E0.40640
G1 X41.396 Y133.070 E0.01689
G1 X49.980 Y141.654 E0.38251
G1 X49.980 Y141.118 E0.01689
G1 X41.932 Y133.070 E0.35862
G1 X42.468 Y133.070 E0.01689
G1 X49.979 Y140.582 E0.33473
G1 X49.979 Y140.045 E0.01689
G1 X43.004 Y133.070 E0.31084
G1 X43.540 Y133.070 E0.01689
G1 X49.979 Y139.509 E0.28695
G1 X49.979 Y138.973 E0.01689
G1 X44.075 Y133.070 E0.26306
G1 X44.611 Y133.070 E0.01689
G1 X49.979 Y138.437 E0.23918
G1 X49.979 Y137.901 E0.01689
G1 X45.147 Y133.070 E0.21529
G1 X45.683 Y133.070 E0.01689
G1 X49.978 Y137.365 E0.19140
G1 X49.978 Y136.829 E0.01689
G1 X46.219 Y133.070 E0.16751
G1 X46.755 Y133.070 E0.01689
G1 X49.978 Y136.293 E0.14362
G1 X49.978 Y135.757 E0.01689
G1 X47.291 Y133.070 E0.11973
G1 X47.827 Y133.070 E0.01689
G1 X49.978 Y135.221 E0.09584
G1 X49.978 Y134.685 E0.01689
G1 X48.363 Y133.070 E0.07195
G1 X48.899 Y133.070 E0.01689
G1 X49.977 Y134.148 E0.04806
G1 X49.977 Y133.612 E0.01689
G1 X49.435 Y133.070 E0.02418
G1 X49.971 Y133.070 E0.01689
G1 X50.147 Y133.246 E0.00785
M204 S1250
G1 E-2.24000 F4200.00000
G1 F7200.000
G1 X49.971 Y133.070 E-0.13806
G1 X49.435 Y133.070 E-0.29699
G1 X49.977 Y133.612 E-0.42517
G1 X49.977 Y133.706 E-0.05179
G1 E-0.04800 F4200.00000
G1 Z0.400 F9000.000
G1 X22.074 Y152.334
G1 Z0.200
G1 E3.20000 F2400.00000
M204 S800
G1 F1200.000
G1 X22.670 Y152.930 E0.02658
G1 X23.206 Y152.930 E0.01689
G1 X22.243 Y151.967 E0.04290
G1 X22.243 Y151.431 E0.01689
G1 X23.742 Y152.930 E0.06678
G1 X24.278 Y152.930 E0.01689
G1 X22.243 Y150.896 E0.09066
G1 X22.243 Y150.360 E0.01689
G1 X24.814 Y152.930 E0.11454
G1 X25.350 Y152.930 E0.01689
G1 X22.243 Y149.824 E0.13843
G1 X22.243 Y149.288 E0.01689
G1 X25.886 Y152.930 E0.16231
G1 X26.422 Y152.930 E0.01689
G1 X22.243 Y148.752 E0.18619
G1 X22.243 Y148.216 E0.01689
G1 X26.957 Y152.930 E0.21007
G1 X27.493 Y152.930 E0.01689
G1 X22.243 Y147.680 E0.23395
G1 X22.243 Y147.144 E0.01689
G1 X28.029 Y152.930 E0.25783
G1 X28.565 Y152.930 E0.01689
G1 X22.243 Y146.608 E0.28171
G1 X22.243 Y146.072 E0.01689
G1 X29.101 Y152.930 E0.30560
G1 X29.637 Y152.930 E0.01689
G1 X22.243 Y145.536 E0.32948
G1 X22.243 Y145.000 E0.01689
G1 X30.173 Y152.930 E0.35336
G1 X30.709 Y152.930 E0.01689
G1 X22.243 Y144.465 E0.37724
G1 X22.243 Y143.929 E0.01689
G1 X31.245 Y152.930 E0.40112
G1 X31.781 Y152.930 E0.01689
G1 X22.243 Y143.393 E0.42500
G1 X22.243 Y142.857 E0.01689
G1 X32.317 Y152.930 E0.44888
G1 X32.853 Y152.930 E0.01689
G1 X22.243 Y142.321 E0.47277
G1 X22.243 Y141.785 E0.01689
G1 X33.388 Y152.930 E0.49665
G1 X33.924 Y152.930 E0.01689
G1 X22.243 Y141.249 E0.52053
G1 X22.243 Y140.713 E0.01689
G1 X34.460 Y152.930 E0.54441
G1 X34.996 Y152.930 E0.01689
G1 X22.243 Y140.177 E0.56829
G1 X22.243 Y139.641 E0.01689
G1 X35.532 Y152.930 E0.59217
G1 X36.068 Y152.930 E0.01689
G1 X22.243 Y139.105 E0.61605
G1 X22.243 Y138.569 E0.01689
G1 X36.604 Y152.930 E0.63994
G1 X37.140 Y152.930 E0.01689
G1 X22.243 Y138.034 E0.66382
G1 X22.243 Y137.498 E0.01689
G1 X37.676 Y152.930 E0.68770
G1 X38.212 Y152.930 E0.01689
G1 X22.243 Y136.962 E0.71158
G1 X22.243 Y136.426 E0.01689
G1 X38.748 Y152.930 E0.73546
G1 X39.284 Y152.930 E0.01689
G1 X22.243 Y135.890 E0.75934
G1 X22.243 Y135.354 E0.01689
G1 X39.819 Y152.930 E0.78322
G1 X40.355 Y152.930 E0.01689
G1 X22.243 Y134.818 E0.80711
G1 X22.243 Y134.282 E0.01689
G1 X40.891 Y152.930 E0.83099
G1 X41.427 Y152.930 E0.01689
G1 X22.243 Y133.746 E0.85487
G1 X22.243 Y133.210 E0.01689
G1 X41.963 Y152.930 E0.87875
G1 X42.499 Y152.930 E0.01689
G1 X22.243 Y132.674 E0.90263
G1 X22.243 Y132.138 E0.01689
G1 X43.035 Y152.930 E0.92651
G1 X43.571 Y152.930 E0.01689
G1 X22.243 Y131.603 E0.95039
G1 X22.243 Y131.067 E0.01689
G1 X44.107 Y152.930 E0.97428
G1 X44.643 Y152.930 E0.01689
G1 X22.243 Y130.531 E0.99816
M73 P0 R239
G1 X22.243 Y129.995 E0.01689
G1 X45.179 Y152.930 E1.02204
G1 X45.715 Y152.930 E0.01689
G1 X22.243 Y129.459 E1.04592
G1 X22.243 Y128.923 E0.01689
G1 X46.250 Y152.930 E1.06980
G1 X46.786 Y152.930 E0.01689
G1 X22.243 Y128.387 E1.09368
G1 X22.243 Y127.851 E0.01689
G1 X47.322 Y152.930 E1.11756
G1 X47.858 Y152.930 E0.01689
G1 X22.243 Y127.315 E1.14145
G1 X22.243 Y126.779 E0.01689
G1 X48.394 Y152.930 E1.16533
G1 X48.930 Y152.930 E0.01689
G1 X22.243 Y126.243 E1.18921
G1 X22.243 Y125.707 E0.01689
G1 X49.466 Y152.930 E1.21309
G1 X49.983 Y152.930 E0.01630
G1 X49.983 Y152.911 E0.00059
G1 X22.243 Y125.172 E1.23614
G1 X22.243 Y124.636 E0.01689
G1 X30.104 Y132.496 E0.35027
G1 X30.104 Y131.960 E0.01689
G1 X22.243 Y124.100 E0.35027
G1 X22.243 Y123.564 E0.01689
G1 X30.104 Y131.424 E0.35027
G1 X30.104 Y130.888 E0.01689
G1 X22.243 Y123.028 E0.35027
G1 X22.243 Y122.492 E0.01689
G1 X30.104 Y130.352 E0.35027
G1 X30.104 Y129.816 E0.01689
G1 X22.243 Y121.956 E0.35027
G1 X22.243 Y121.420 E0.01689
G1 X30.104 Y129.280 E0.35027
G1 X30.104 Y128.744 E0.01689
G1 X22.243 Y120.884 E0.35027
G1 X22.243 Y120.348 E0.01689
G1 X30.104 Y128.209 E0.35027
G1 X30.104 Y127.673 E0.01689
G1 X22.243 Y119.812 E0.35027
G1 X22.243 Y119.276 E0.01689
G1 X30.104 Y127.137 E0.35027
G1 X30.104 Y126.601 E0.01689
G1 X22.243 Y118.741 E0.35027
G1 X22.243 Y118.205 E0.01689
G1 X30.104 Y126.065 E0.35027
G1 X30.104 Y125.529 E0.01689
G1 X22.243 Y117.669 E0.35027
G1 X22.243 Y117.133 E0.01689
G1 X30.104 Y124.993 E0.35027
G1 X30.104 Y124.457 E0.01689
G1 X22.243 Y116.597 E0.35027
G1 X22.243 Y116.061 E0.01689
G1 X30.104 Y123.921 E0.35027
G1 X30.104 Y123.385 E0.01689
G1 X22.243 Y115.525 E0.35027
G1 X22.243 Y114.989 E0.01689
G1 X30.104 Y122.849 E0.35027
G1 X30.104 Y122.313 E0.01689
G1 X22.243 Y114.453 E0.35027
G1 X22.243 Y113.917 E0.01689
G1 X30.104 Y121.778 E0.35027
G1 X30.104 Y121.242 E0.01689
G1 X22.243 Y113.381 E0.35027
G1 X22.243 Y112.845 E0.01689
G1 X30.104 Y120.706 E0.35027
G1 X30.104 Y120.170 E0.01689
G1 X22.243 Y112.310 E0.35027
G1 X22.243 Y111.774 E0.01689
G1 X30.104 Y119.634 E0.35027
G1 X30.104 Y119.098 E0.01689
G1 X22.243 Y111.238 E0.35027
G1 X22.243 Y110.702 E0.01689
G1 X30.104 Y118.562 E0.35027
G1 X30.104 Y118.026 E0.01689
G1 X22.243 Y110.166 E0.35027
G1 X22.243 Y109.630 E0.01689
G1 X30.104 Y117.490 E0.35027
G1 X30.104 Y116.954 E0.01689
G1 X22.243 Y109.094 E0.35027
G1 X22.243 Y108.558 E0.01689
G1 X30.104 Y116.418 E0.35027
G1 X30.104 Y115.882 E0.01689
G1 X22.243 Y108.022 E0.35027
G1 X22.243 Y107.486 E0.01689
G1 X30.104 Y115.346 E0.35027
G1 X30.104 Y114.811 E0.01689
G1 X22.243 Y106.950 E0.35027
G1 X22.243 Y106.414 E0.01689
G1 X30.104 Y114.275 E0.35027
G1 X30.104 Y113.930 E0.01086
G1 X30.295 Y113.930 E0.00603
G1 X22.243 Y105.878 E0.35879
G1 X22.243 Y105.343 E0.01689
G1 X30.831 Y113.930 E0.38268
G1 X31.367 Y113.930 E0.01689
G1 X22.243 Y104.807 E0.40656
G1 X22.243 Y104.271 E0.01689
G1 X31.903 Y113.930 E0.43044
G1 X32.439 Y113.930 E0.01689
G1 X22.243 Y103.735 E0.45432
G1 X22.243 Y103.199 E0.01689
G1 X32.975 Y113.930 E0.47820
G1 X33.510 Y113.930 E0.01689
G1 X22.243 Y102.663 E0.50208
G1 X22.243 Y102.127 E0.01689
G1 X34.046 Y113.930 E0.52596
G1 X34.582 Y113.930 E0.01689
G1 X22.243 Y101.591 E0.54985
G1 X22.243 Y101.055 E0.01689
G1 X35.118 Y113.930 E0.57373
G1 X35.654 Y113.930 E0.01689
G1 X22.243 Y100.519 E0.59761
G1 X22.243 Y99.983 E0.01689
G1 X36.190 Y113.930 E0.62149
G1 X36.726 Y113.930 E0.01689
G1 X22.243 Y99.447 E0.64537
G1 X22.243 Y98.912 E0.01689
G1 X37.262 Y113.930 E0.66925
G1 X37.798 Y113.930 E0.01689
G1 X22.243 Y98.376 E0.69313
G1 X22.243 Y97.840 E0.01689
G1 X38.334 Y113.930 E0.71702
G1 X38.870 Y113.930 E0.01689
G1 X22.243 Y97.304 E0.74090
G1 X22.243 Y96.768 E0.01689
G1 X39.406 Y113.930 E0.76478
G1 X39.941 Y113.930 E0.01689
G1 X22.243 Y96.232 E0.78866
G1 X22.243 Y95.696 E0.01689
G1 X40.477 Y113.930 E0.81254
G1 X41.013 Y113.930 E0.01689
G1 X22.243 Y95.160 E0.83642
G1 X22.243 Y94.624 E0.01689
M73 P1 R238
G1 X41.549 Y113.930 E0.86030
G1 X42.085 Y113.930 E0.01689
G1 X22.243 Y94.088 E0.88419
G1 X22.243 Y94.070 E0.00058
G1 X22.761 Y94.070 E0.01631
G1 X42.621 Y113.930 E0.88501
G1 X43.157 Y113.930 E0.01689
G1 X23.297 Y94.070 E0.88501
G1 X23.833 Y94.070 E0.01689
G1 X43.693 Y113.930 E0.88501
G1 X44.229 Y113.930 E0.01689
G1 X24.369 Y94.070 E0.88501
G1 X24.904 Y94.070 E0.01689
G1 X44.765 Y113.930 E0.88501
G1 X45.301 Y113.930 E0.01689
G1 X25.440 Y94.070 E0.88501
G1 X25.976 Y94.070 E0.01689
G1 X45.837 Y113.930 E0.88501
G1 X46.372 Y113.930 E0.01689
G1 X26.512 Y94.070 E0.88501
G1 X27.048 Y94.070 E0.01689
G1 X46.908 Y113.930 E0.88501
G1 X47.444 Y113.930 E0.01689
G1 X27.584 Y94.070 E0.88501
G1 X28.120 Y94.070 E0.01689
G1 X47.980 Y113.930 E0.88501
G1 X48.516 Y113.930 E0.01689
G1 X28.656 Y94.070 E0.88501
G1 X29.192 Y94.070 E0.01689
G1 X49.052 Y113.930 E0.88501
G1 X49.588 Y113.930 E0.01689
G1 X29.728 Y94.070 E0.88501
G1 X30.264 Y94.070 E0.01689
G1 X49.977 Y113.783 E0.87847
G1 X49.977 Y113.248 E0.01688
G1 X30.800 Y94.070 E0.85459
G1 X31.335 Y94.070 E0.01689
G1 X49.977 Y112.712 E0.83072
G1 X49.978 Y112.176 E0.01688
G1 X31.871 Y94.070 E0.80685
G1 X32.407 Y94.070 E0.01689
G1 X49.978 Y111.640 E0.78297
G1 X49.978 Y111.105 E0.01688
G1 X32.943 Y94.070 E0.75910
G1 X33.479 Y94.070 E0.01689
G1 X49.978 Y110.569 E0.73523
G1 X49.978 Y110.033 E0.01688
G1 X34.015 Y94.070 E0.71135
G1 X34.551 Y94.070 E0.01689
G1 X49.979 Y109.497 E0.68748
G1 X49.979 Y108.962 E0.01688
G1 X35.087 Y94.070 E0.66361
G1 X35.623 Y94.070 E0.01689
G1 X49.979 Y108.426 E0.63973
G1 X49.979 Y107.890 E0.01688
G1 X36.159 Y94.070 E0.61586
G1 X36.695 Y94.070 E0.01689
G1 X49.979 Y107.355 E0.59199
G1 X49.979 Y106.819 E0.01688
G1 X37.231 Y94.070 E0.56811
G1 X37.766 Y94.070 E0.01689
G1 X49.980 Y106.283 E0.54424
G1 X49.980 Y105.747 E0.01688
G1 X38.302 Y94.070 E0.52037
G1 X38.838 Y94.070 E0.01689
G1 X49.980 Y105.212 E0.49649
G1 X49.980 Y104.676 E0.01688
G1 X39.374 Y94.070 E0.47262
G1 X39.910 Y94.070 E0.01689
G1 X49.980 Y104.140 E0.44875
G1 X49.981 Y103.604 E0.01688
G1 X40.446 Y94.070 E0.42487
G1 X40.982 Y94.070 E0.01689
G1 X49.981 Y103.069 E0.40100
G1 X49.981 Y102.533 E0.01688
G1 X41.518 Y94.070 E0.37713
G1 X42.054 Y94.070 E0.01689
G1 X49.981 Y101.997 E0.35325
G1 X49.981 Y101.461 E0.01688
G1 X42.590 Y94.070 E0.32938
G1 X43.126 Y94.070 E0.01689
G1 X49.981 Y100.926 E0.30551
G1 X49.982 Y100.390 E0.01688
G1 X43.662 Y94.070 E0.28163
G1 X44.197 Y94.070 E0.01689
G1 X49.982 Y99.854 E0.25776
G1 X49.982 Y99.318 E0.01688
G1 X44.733 Y94.070 E0.23389
G1 X45.269 Y94.070 E0.01689
G1 X49.982 Y98.783 E0.21001
G1 X49.982 Y98.247 E0.01688
G1 X45.805 Y94.070 E0.18614
G1 X46.341 Y94.070 E0.01689
G1 X49.983 Y97.711 E0.16227
G1 X49.983 Y97.176 E0.01688
G1 X46.877 Y94.070 E0.13839
G1 X47.413 Y94.070 E0.01689
G1 X49.983 Y96.640 E0.11452
G1 X49.983 Y96.104 E0.01688
G1 X47.949 Y94.070 E0.09065
G1 X48.485 Y94.070 E0.01689
G1 X49.983 Y95.568 E0.06677
G1 X49.983 Y95.033 E0.01688
G1 X49.021 Y94.070 E0.04290
G1 X49.557 Y94.070 E0.01689
G1 X50.153 Y94.666 E0.02658
M204 S1250
; stop printing object PoePiCam_SDCardProtection.stl id:1 copy 0
; printing object PoePiCam_SDCardProtection.stl id:0 copy 0
G1 E-2.24000 F4200.00000
G1 F7200.000
G1 X49.557 Y94.070 E-0.46753
G1 X49.021 Y94.070 E-0.29699
G1 X49.209 Y94.258 E-0.14749
G1 E-0.04800 F4200.00000
G1 Z0.400 F9000.000
G1 X66.307 Y114.213
G1 Z0.200
G1 E3.20000 F2400.00000
M204 S800
G1 F1200.000
G1 X66.307 Y132.787 E0.58238
G1 X86.180 Y132.787 E0.62312
G1 X86.186 Y153.213 E0.64044
G1 X57.881 Y153.213 E0.88750
G1 X57.881 Y93.787 E1.86326
G1 X86.187 Y93.787 E0.88751
M73 P1 R237
G1 X86.180 Y114.213 E0.64044
G1 X66.367 Y114.213 E0.62124
M204 S1250
G1 X66.684 Y114.590 F9000.000
M204 S800
G1 F1200.000
G1 X66.684 Y132.410 E0.55873
G1 X86.557 Y132.410 E0.62311
G1 X86.564 Y153.590 E0.66408
G1 X57.504 Y153.590 E0.91115
G1 X57.504 Y93.410 E1.88690
G1 X86.564 Y93.410 E0.91116
G1 X86.557 Y114.590 E0.66408
