; generated by PrusaSlicer 2.2.0+ on 2022-04-30 at 08:22:24 UTC


;
;

;
;
; 

; external perimeters extrusion width = 0.45mm
; perimeters extrusion width = 0.45mm
; infill extrusion width = 0.45mm
; solid infill extrusion width = 0.45mm
; top infill extrusion width = 0.40mm
; first layer extrusion width = 0.42mm

M73 P0 R32
M201 X1250 Y1250 Z400 E5000 ; sets maximum accelerations, mm/sec^2
M203 X180 Y180 Z12 E80 ; sets maximum feedrates, mm/sec
M204 P1250 R1250 T1250 ; sets acceleration (P, T) and retract acceleration (R), mm/sec^2
M205 X8.00 Y8.00 Z2.00 E10.00 ; sets the jerk limits, mm/sec
M205 S0 T0 ; sets the minimum extruding and travel feed rate, mm/sec
M107
G90 ; use absolute coordinates
M83 ; extruder relative mode
M104 S170 ; set extruder temp for bed leveling
M140 S60 ; set bed temp
M109 R170 ; wait for bed leveling temp
M190 S60 ; wait for bed temp
G28 ; home all without mesh bed level
G29 ; mesh bed leveling 
M104 S215 ; set extruder temp
G92 E0.0
G1 Y-2.0 X179 F2400
G1 Z3 F720
M109 S215 ; wait for extruder temp

; intro line
G1 X170 F1000
G1 Z0.2 F720
G1 X110.0 E8.0 F900
M73 P0 R32
G1 X40.0 E10.0 F700
G92 E0.0

M221 S95 ; set flow
G21 ; set units to millimeters
G90 ; use absolute coordinates
M83 ; use relative distances for extrusion
M900 K0.2 ; Filament gcode LA 1.5
; ; Filament gcode LA 1.0
;BEFORE_LAYER_CHANGE
G92 E0.0
;0.2


G1 Z0.200 F9000.000
;AFTER_LAYER_CHANGE
;0.2
G1 E-3.20000 F4200.00000
G1 Z0.400 F9000.000
G1 X73.234 Y56.471
G1 Z0.200
G1 E3.20000 F2400.00000
M204 S800
G1 F1200.000
G1 X73.718 Y56.033 E0.02048
G1 X74.304 Y55.744 E0.02048
G1 X74.950 Y55.625 E0.02060
G1 X104.938 Y55.623 E0.94024
G1 X105.826 Y55.797 E0.02837
G1 X106.587 Y56.292 E0.02849
G1 X107.107 Y57.037 E0.02849
G1 X107.310 Y57.923 E0.02849
G1 X107.331 Y120.008 E1.94663
G1 X107.304 Y122.184 E0.06823
G1 X107.101 Y122.977 E0.02567
G1 X106.749 Y123.535 E0.02071
G1 X106.259 Y123.973 E0.02060
G1 X105.665 Y124.262 E0.02071
G1 X105.018 Y124.376 E0.02060
G1 X75.039 Y124.377 E0.93998
G1 X74.547 Y124.322 E0.01550
G1 X74.078 Y124.168 E0.01550
G1 X73.513 Y123.810 E0.02095
G1 X73.068 Y123.307 E0.02107
G1 X72.783 Y122.703 E0.02095
G1 X72.677 Y122.043 E0.02095
G1 X72.677 Y57.992 E2.00826
G1 X72.731 Y57.497 E0.01562
G1 X72.886 Y57.024 E0.01562
G1 X73.202 Y56.522 E0.01860
M204 S1250
; printing object Keil.stl id:0 copy 0
G1 E-2.24000 F4200.00000
G1 F7200.000
G1 X73.718 Y56.033 E-0.39401
G1 X74.304 Y55.744 E-0.36191
G1 X74.581 Y55.693 E-0.15607
G1 E-0.04800 F4200.00000
G1 Z0.400 F9000.000
G1 X75.841 Y58.787
G1 Z0.200
G1 E3.20000 F2400.00000
M204 S800
G1 F1200.000
G1 X104.147 Y58.787 E0.88751
G1 X104.140 Y79.213 E0.64044
G1 X84.267 Y79.213 E0.62312
G1 X84.267 Y100.787 E0.67644
G1 X104.140 Y100.787 E0.62312
G1 X104.147 Y121.213 E0.64044
G1 X75.841 Y121.213 E0.88750
G1 X75.841 Y58.847 E1.95544
M204 S1250
G1 E-2.24000 F4200.00000
G1 F7200.000
G1 X77.487 Y58.844 E-0.91200
G1 E-0.04800 F4200.00000
G1 Z0.400 F9000.000
G1 X84.644 Y79.590
G1 Z0.200
G1 E3.20000 F2400.00000
M204 S800
G1 F1200.000
G1 X84.644 Y100.410 E0.65280
G1 X104.517 Y100.410 E0.62311
G1 X104.524 Y121.590 E0.66408
G1 X75.464 Y121.590 E0.91115
G1 X75.464 Y58.410 E1.98096
G1 X104.524 Y58.410 E0.91116
G1 X104.517 Y79.590 E0.66408
G1 X84.704 Y79.590 E0.62123
M204 S1250
G1 X84.259 Y79.698 F9000.000
G1 E-2.24000 F4200.00000
G1 F7200.000
G1 X84.699 Y81.236 E-0.91200
G1 E-0.04800 F4200.00000
G1 Z0.400 F9000.000
G1 X84.320 Y100.900
G1 Z0.200
G1 E3.20000 F2400.00000
M204 S800
G1 F1200.000
G1 X103.864 Y120.444 E0.86882
G1 X103.863 Y119.909 E0.01681
G1 X85.024 Y101.070 E0.83750
G1 X85.559 Y101.070 E0.01681
G1 X103.863 Y119.374 E0.81372
G1 X103.863 Y118.839 E0.01681
G1 X86.094 Y101.070 E0.78995
G1 X86.628 Y101.070 E0.01681
G1 X103.863 Y118.304 E0.76617
G1 X103.863 Y117.770 E0.01681
G1 X87.163 Y101.070 E0.74239
G1 X87.698 Y101.070 E0.01681
G1 X103.863 Y117.235 E0.71862
G1 X103.862 Y116.700 E0.01681
G1 X88.232 Y101.070 E0.69484
G1 X88.767 Y101.070 E0.01681
G1 X103.862 Y116.165 E0.67107
G1 X103.862 Y115.630 E0.01681
G1 X89.302 Y101.070 E0.64729
G1 X89.836 Y101.070 E0.01681
G1 X103.862 Y115.095 E0.62352
G1 X103.862 Y114.561 E0.01681
G1 X90.371 Y101.070 E0.59974
G1 X90.906 Y101.070 E0.01681
G1 X103.862 Y114.026 E0.57597
G1 X103.861 Y113.491 E0.01681
G1 X91.440 Y101.070 E0.55219
G1 X91.975 Y101.070 E0.01681
G1 X103.861 Y112.956 E0.52842
G1 X103.861 Y112.421 E0.01681
G1 X92.509 Y101.070 E0.50464
G1 X93.044 Y101.070 E0.01681
G1 X103.861 Y111.887 E0.48087
G1 X103.861 Y111.352 E0.01681
G1 X93.579 Y101.070 E0.45709
M73 P3 R31
G1 X94.113 Y101.070 E0.01681
G1 X103.861 Y110.817 E0.43332
G1 X103.860 Y110.282 E0.01681
G1 X94.648 Y101.070 E0.40954
G1 X95.183 Y101.070 E0.01681
G1 X103.860 Y109.747 E0.38576
G1 X103.860 Y109.213 E0.01681
G1 X95.717 Y101.070 E0.36199
G1 X96.252 Y101.070 E0.01681
G1 X103.860 Y108.678 E0.33821
G1 X103.860 Y108.143 E0.01681
G1 X96.787 Y101.070 E0.31444
G1 X97.321 Y101.070 E0.01681
G1 X103.859 Y107.608 E0.29066
G1 X103.859 Y107.073 E0.01681
G1 X97.856 Y101.070 E0.26689
G1 X98.391 Y101.070 E0.01681
G1 X103.859 Y106.539 E0.24311
G1 X103.859 Y106.004 E0.01681
G1 X98.925 Y101.070 E0.21934
G1 X99.460 Y101.070 E0.01681
G1 X103.859 Y105.469 E0.19556
G1 X103.859 Y104.934 E0.01681
G1 X99.994 Y101.070 E0.17179
G1 X100.529 Y101.070 E0.01681
G1 X103.858 Y104.399 E0.14801
G1 X103.858 Y103.864 E0.01681
G1 X101.064 Y101.070 E0.12424
G1 X101.598 Y101.070 E0.01681
G1 X103.858 Y103.330 E0.10046
G1 X103.858 Y102.795 E0.01681
G1 X102.133 Y101.070 E0.07669
G1 X102.668 Y101.070 E0.01681
G1 X103.858 Y102.260 E0.05291
G1 X103.858 Y101.725 E0.01681
G1 X103.202 Y101.070 E0.02913
G1 X103.737 Y101.070 E0.01681
G1 X104.027 Y101.360 E0.01291
M204 S1250
G1 E-2.24000 F4200.00000
G1 F7200.000
G1 X103.737 Y101.070 E-0.22750
G1 X103.202 Y101.070 E-0.29628
G1 X103.698 Y101.565 E-0.38822
G1 E-0.04800 F4200.00000
G1 Z0.400 F9000.000
G1 X75.954 Y120.335
G1 Z0.200
G1 E3.20000 F2400.00000
M204 S800
G1 F1200.000
G1 X76.549 Y120.930 E0.02644
G1 X77.083 Y120.930 E0.01681
G1 X76.124 Y119.971 E0.04266
G1 X76.124 Y119.436 E0.01681
G1 X77.618 Y120.930 E0.06643
G1 X78.153 Y120.930 E0.01681
G1 X76.124 Y118.901 E0.09020
G1 X76.124 Y118.367 E0.01681
G1 X78.687 Y120.930 E0.11396
G1 X79.222 Y120.930 E0.01681
G1 X76.124 Y117.832 E0.13773
G1 X76.124 Y117.297 E0.01681
G1 X79.757 Y120.930 E0.16150
G1 X80.291 Y120.930 E0.01681
G1 X76.124 Y116.763 E0.18527
G1 X76.124 Y116.228 E0.01681
G1 X80.826 Y120.930 E0.20903
G1 X81.360 Y120.930 E0.01681
G1 X76.124 Y115.693 E0.23280
G1 X76.124 Y115.159 E0.01681
G1 X81.895 Y120.930 E0.25657
G1 X82.430 Y120.930 E0.01681
G1 X76.124 Y114.624 E0.28034
G1 X76.124 Y114.089 E0.01681
G1 X82.964 Y120.930 E0.30411
G1 X83.499 Y120.930 E0.01681
G1 X76.124 Y113.555 E0.32787
G1 X76.124 Y113.020 E0.01681
G1 X84.034 Y120.930 E0.35164
G1 X84.568 Y120.930 E0.01681
G1 X76.124 Y112.486 E0.37541
G1 X76.124 Y111.951 E0.01681
G1 X85.103 Y120.930 E0.39918
G1 X85.638 Y120.930 E0.01681
G1 X76.124 Y111.416 E0.42295
G1 X76.124 Y110.882 E0.01681
G1 X86.172 Y120.930 E0.44671
G1 X86.707 Y120.930 E0.01681
G1 X76.124 Y110.347 E0.47048
G1 X76.124 Y109.812 E0.01681
G1 X87.242 Y120.930 E0.49425
G1 X87.776 Y120.930 E0.01681
G1 X76.124 Y109.278 E0.51802
G1 X76.124 Y108.743 E0.01681
G1 X88.311 Y120.930 E0.54178
G1 X88.845 Y120.930 E0.01681
G1 X76.124 Y108.208 E0.56555
G1 X76.124 Y107.674 E0.01681
G1 X89.380 Y120.930 E0.58932
G1 X89.915 Y120.930 E0.01681
G1 X76.124 Y107.139 E0.61309
G1 X76.124 Y106.604 E0.01681
G1 X90.449 Y120.930 E0.63686
G1 X90.984 Y120.930 E0.01681
G1 X76.124 Y106.070 E0.66062
G1 X76.124 Y105.535 E0.01681
G1 X91.519 Y120.930 E0.68439
G1 X92.053 Y120.930 E0.01681
G1 X76.124 Y105.001 E0.70816
G1 X76.124 Y104.466 E0.01681
G1 X92.588 Y120.930 E0.73193
G1 X93.123 Y120.930 E0.01681
G1 X76.124 Y103.931 E0.75570
G1 X76.124 Y103.397 E0.01681
G1 X93.657 Y120.930 E0.77946
G1 X94.192 Y120.930 E0.01681
G1 X76.124 Y102.862 E0.80323
G1 X76.124 Y102.327 E0.01681
G1 X94.727 Y120.930 E0.82700
G1 X95.261 Y120.930 E0.01681
G1 X76.124 Y101.793 E0.85077
G1 X76.124 Y101.258 E0.01681
G1 X95.796 Y120.930 E0.87453
G1 X96.330 Y120.930 E0.01681
G1 X76.124 Y100.723 E0.89830
G1 X76.124 Y100.189 E0.01681
G1 X96.865 Y120.930 E0.92207
G1 X97.400 Y120.930 E0.01681
G1 X76.124 Y99.654 E0.94584
G1 X76.124 Y99.119 E0.01681
G1 X97.934 Y120.930 E0.96961
G1 X98.469 Y120.930 E0.01681
G1 X76.124 Y98.585 E0.99337
G1 X76.124 Y98.050 E0.01681
G1 X99.004 Y120.930 E1.01714
G1 X99.538 Y120.930 E0.01681
G1 X76.124 Y97.516 E1.04091
G1 X76.124 Y96.981 E0.01681
G1 X100.073 Y120.930 E1.06468
G1 X100.608 Y120.930 E0.01681
G1 X76.124 Y96.446 E1.08845
G1 X76.124 Y95.912 E0.01681
G1 X101.142 Y120.930 E1.11221
G1 X101.677 Y120.930 E0.01681
G1 X76.124 Y95.377 E1.13598
G1 X76.124 Y94.842 E0.01681
G1 X102.211 Y120.930 E1.15975
G1 X102.746 Y120.930 E0.01681
G1 X76.124 Y94.308 E1.18352
G1 X76.124 Y93.773 E0.01681
G1 X103.281 Y120.930 E1.20729
G1 X103.815 Y120.930 E0.01681
G1 X76.124 Y93.238 E1.23105
M73 P6 R29
G1 X76.124 Y92.704 E0.01681
G1 X83.984 Y100.564 E0.34943
G1 X83.984 Y100.029 E0.01681
G1 X76.124 Y92.169 E0.34943
G1 X76.124 Y91.634 E0.01681
G1 X83.984 Y99.495 E0.34943
G1 X83.984 Y98.960 E0.01681
G1 X76.124 Y91.100 E0.34943
G1 X76.124 Y90.565 E0.01681
G1 X83.984 Y98.425 E0.34943
G1 X83.984 Y97.891 E0.01681
G1 X76.124 Y90.031 E0.34943
G1 X76.124 Y89.496 E0.01681
G1 X83.984 Y97.356 E0.34943
G1 X83.984 Y96.822 E0.01681
G1 X76.124 Y88.961 E0.34943
G1 X76.124 Y88.427 E0.01681
G1 X83.984 Y96.287 E0.34943
G1 X83.984 Y95.752 E0.01681
G1 X76.124 Y87.892 E0.34943
G1 X76.124 Y87.357 E0.01681
G1 X83.984 Y95.218 E0.34943
G1 X83.984 Y94.683 E0.01681
G1 X76.124 Y86.823 E0.34943
G1 X76.124 Y86.288 E0.01681
G1 X83.984 Y94.148 E0.34943
G1 X83.984 Y93.614 E0.01681
G1 X76.124 Y85.753 E0.34943
G1 X76.124 Y85.219 E0.01681
G1 X83.984 Y93.079 E0.34943
G1 X83.984 Y92.544 E0.01681
G1 X76.124 Y84.684 E0.34943
G1 X76.124 Y84.150 E0.01681
G1 X83.984 Y92.010 E0.34943
G1 X83.984 Y91.475 E0.01681
G1 X76.124 Y83.615 E0.34943
G1 X76.124 Y83.080 E0.01681
G1 X83.984 Y90.940 E0.34943
G1 X83.984 Y90.406 E0.01681
G1 X76.124 Y82.546 E0.34943
G1 X76.124 Y82.011 E0.01681
G1 X83.984 Y89.871 E0.34943
G1 X83.984 Y89.337 E0.01681
G1 X76.124 Y81.476 E0.34943
G1 X76.124 Y80.942 E0.01681
G1 X83.984 Y88.802 E0.34943
G1 X83.984 Y88.267 E0.01681
G1 X76.124 Y80.407 E0.34943
G1 X76.124 Y79.872 E0.01681
G1 X83.984 Y87.733 E0.34943
G1 X83.984 Y87.198 E0.01681
G1 X76.124 Y79.338 E0.34943
G1 X76.124 Y78.803 E0.01681
G1 X83.984 Y86.663 E0.34943
G1 X83.984 Y86.129 E0.01681
G1 X76.124 Y78.268 E0.34943
G1 X76.124 Y77.734 E0.01681
G1 X83.984 Y85.594 E0.34943
G1 X83.984 Y85.059 E0.01681
G1 X76.124 Y77.199 E0.34943
G1 X76.124 Y76.665 E0.01681
G1 X83.984 Y84.525 E0.34943
G1 X83.984 Y83.990 E0.01681
G1 X76.124 Y76.130 E0.34943
G1 X76.124 Y75.595 E0.01681
G1 X83.984 Y83.455 E0.34943
G1 X83.984 Y82.921 E0.01681
G1 X76.124 Y75.061 E0.34943
G1 X76.124 Y74.526 E0.01681
G1 X83.984 Y82.386 E0.34943
G1 X83.984 Y81.852 E0.01681
G1 X76.124 Y73.991 E0.34943
G1 X76.124 Y73.457 E0.01681
G1 X83.984 Y81.317 E0.34943
G1 X83.984 Y80.782 E0.01681
G1 X76.124 Y72.922 E0.34943
G1 X76.124 Y72.387 E0.01681
G1 X83.984 Y80.248 E0.34943
G1 X83.984 Y79.713 E0.01681
G1 X76.124 Y71.853 E0.34943
G1 X76.124 Y71.318 E0.01681
G1 X83.984 Y79.178 E0.34943
G1 X83.984 Y78.930 E0.00780
G1 X84.270 Y78.930 E0.00900
G1 X76.124 Y70.783 E0.36217
G1 X76.124 Y70.249 E0.01681
G1 X84.805 Y78.930 E0.38593
G1 X85.340 Y78.930 E0.01681
G1 X76.124 Y69.714 E0.40970
G1 X76.124 Y69.180 E0.01681
G1 X85.874 Y78.930 E0.43347
G1 X86.409 Y78.930 E0.01681
G1 X76.124 Y68.645 E0.45724
G1 X76.124 Y68.110 E0.01681
G1 X86.944 Y78.930 E0.48100
G1 X87.478 Y78.930 E0.01681
G1 X76.124 Y67.576 E0.50477
G1 X76.124 Y67.041 E0.01681
G1 X88.013 Y78.930 E0.52854
G1 X88.548 Y78.930 E0.01681
G1 X76.124 Y66.506 E0.55231
G1 X76.124 Y65.972 E0.01681
G1 X89.082 Y78.930 E0.57608
G1 X89.617 Y78.930 E0.01681
G1 X76.124 Y65.437 E0.59984
G1 X76.124 Y64.902 E0.01681
G1 X90.151 Y78.930 E0.62361
G1 X90.686 Y78.930 E0.01681
G1 X76.124 Y64.368 E0.64738
G1 X76.124 Y63.833 E0.01681
G1 X91.221 Y78.930 E0.67115
G1 X91.755 Y78.930 E0.01681
G1 X76.124 Y63.298 E0.69492
G1 X76.124 Y62.764 E0.01681
G1 X92.290 Y78.930 E0.71868
G1 X92.825 Y78.930 E0.01681
G1 X76.124 Y62.229 E0.74245
G1 X76.124 Y61.695 E0.01681
G1 X93.359 Y78.930 E0.76622
G1 X93.894 Y78.930 E0.01681
G1 X76.124 Y61.160 E0.78999
G1 X76.124 Y60.625 E0.01681
G1 X94.429 Y78.930 E0.81375
G1 X94.963 Y78.930 E0.01681
G1 X76.124 Y60.091 E0.83752
G1 X76.124 Y59.556 E0.01681
G1 X95.498 Y78.930 E0.86129
G1 X96.033 Y78.930 E0.01681
G1 X76.172 Y59.070 E0.88290
G1 X76.707 Y59.070 E0.01681
G1 X96.567 Y78.930 E0.88290
G1 X97.102 Y78.930 E0.01681
G1 X77.242 Y59.070 E0.88290
G1 X77.776 Y59.070 E0.01681
G1 X97.636 Y78.930 E0.88290
G1 X98.171 Y78.930 E0.01681
G1 X78.311 Y59.070 E0.88290
G1 X78.845 Y59.070 E0.01681
G1 X98.706 Y78.930 E0.88290
G1 X99.240 Y78.930 E0.01681
G1 X79.380 Y59.070 E0.88290
G1 X79.915 Y59.070 E0.01681
G1 X99.775 Y78.930 E0.88290
G1 X100.310 Y78.930 E0.01681
G1 X80.449 Y59.070 E0.88290
G1 X80.984 Y59.070 E0.01681
G1 X100.844 Y78.930 E0.88290
M73 P10 R28
G1 X101.379 Y78.930 E0.01681
G1 X81.519 Y59.070 E0.88290
G1 X82.053 Y59.070 E0.01681
G1 X101.914 Y78.930 E0.88290
G1 X102.448 Y78.930 E0.01681
G1 X82.588 Y59.070 E0.88290
G1 X83.123 Y59.070 E0.01681
G1 X102.983 Y78.930 E0.88290
G1 X103.517 Y78.930 E0.01681
G1 X83.657 Y59.070 E0.88290
G1 X84.192 Y59.070 E0.01681
G1 X103.858 Y78.736 E0.87425
G1 X103.858 Y78.201 E0.01680
G1 X84.727 Y59.070 E0.85049
G1 X85.261 Y59.070 E0.01681
G1 X103.858 Y77.667 E0.82673
G1 X103.858 Y77.132 E0.01680
G1 X85.796 Y59.070 E0.80297
G1 X86.330 Y59.070 E0.01681
G1 X103.858 Y76.598 E0.77921
G1 X103.858 Y76.063 E0.01680
G1 X86.865 Y59.070 E0.75545
G1 X87.400 Y59.070 E0.01681
G1 X103.859 Y75.529 E0.73169
G1 X103.859 Y74.994 E0.01680
G1 X87.934 Y59.070 E0.70793
G1 X88.469 Y59.070 E0.01681
G1 X103.859 Y74.460 E0.68417
G1 X103.859 Y73.925 E0.01680
G1 X89.004 Y59.070 E0.66041
G1 X89.538 Y59.070 E0.01681
G1 X103.859 Y73.391 E0.63665
G1 X103.860 Y72.856 E0.01680
G1 X90.073 Y59.070 E0.61289
G1 X90.608 Y59.070 E0.01681
G1 X103.860 Y72.322 E0.58913
G1 X103.860 Y71.788 E0.01680
G1 X91.142 Y59.070 E0.56537
G1 X91.677 Y59.070 E0.01681
G1 X103.860 Y71.253 E0.54161
G1 X103.860 Y70.719 E0.01680
G1 X92.212 Y59.070 E0.51785
G1 X92.746 Y59.070 E0.01681
G1 X103.860 Y70.184 E0.49409
G1 X103.861 Y69.650 E0.01680
G1 X93.281 Y59.070 E0.47033
G1 X93.815 Y59.070 E0.01681
G1 X103.861 Y69.115 E0.44657
G1 X103.861 Y68.581 E0.01680
G1 X94.350 Y59.070 E0.42281
G1 X94.885 Y59.070 E0.01681
G1 X103.861 Y68.046 E0.39905
G1 X103.861 Y67.512 E0.01680
G1 X95.419 Y59.070 E0.37529
G1 X95.954 Y59.070 E0.01681
G1 X103.862 Y66.977 E0.35153
G1 X103.862 Y66.443 E0.01680
G1 X96.489 Y59.070 E0.32777
G1 X97.023 Y59.070 E0.01681
G1 X103.862 Y65.908 E0.30401
G1 X103.862 Y65.374 E0.01680
G1 X97.558 Y59.070 E0.28025
G1 X98.093 Y59.070 E0.01681
G1 X103.862 Y64.840 E0.25649
G1 X103.862 Y64.305 E0.01680
G1 X98.627 Y59.070 E0.23273
G1 X99.162 Y59.070 E0.01681
G1 X103.863 Y63.771 E0.20897
G1 X103.863 Y63.236 E0.01680
G1 X99.697 Y59.070 E0.18521
G1 X100.231 Y59.070 E0.01681
G1 X103.863 Y62.702 E0.16146
G1 X103.863 Y62.167 E0.01680
G1 X100.766 Y59.070 E0.13770
G1 X101.300 Y59.070 E0.01681
G1 X103.863 Y61.633 E0.11394
G1 X103.864 Y61.098 E0.01680
G1 X101.835 Y59.070 E0.09018
G1 X102.370 Y59.070 E0.01681
G1 X103.864 Y60.564 E0.06642
G1 X103.864 Y60.029 E0.01680
G1 X102.904 Y59.070 E0.04266
G1 X103.439 Y59.070 E0.01681
G1 X104.034 Y59.665 E0.02644
M204 S1250
; stop printing object Keil.stl id:0 copy 0
M106 S255
;BEFORE_LAYER_CHANGE
G92 E0.0
;0.4


G1 Z0.400 F9000.000
;AFTER_LAYER_CHANGE
;0.4
G1 E-3.20000 F4200.00000
G1 Z0.600 F9000.000
G1 X107.107 Y57.037
G1 Z0.400
G1 E3.20000 F2400.00000
G1 X107.310 Y57.923 E0.02849
G1 X107.331 Y120.008 E1.94663
G1 X107.304 Y122.184 E0.06823
G1 X107.101 Y122.977 E0.02567
G1 X106.749 Y123.535 E0.02071
G1 X106.259 Y123.973 E0.02060
G1 X105.665 Y124.262 E0.02071
G1 X105.018 Y124.376 E0.02060
G1 X75.039 Y124.377 E0.93998
G1 X74.547 Y124.322 E0.01550
