; generated by PrusaSlicer 2.2.0+ on 2021-04-11 at 15:38:29 UTC

; 

; external perimeters extrusion width = 0.45mm
; perimeters extrusion width = 0.45mm
; infill extrusion width = 0.45mm
; solid infill extrusion width = 0.45mm
; top infill extrusion width = 0.40mm
; first layer extrusion width = 0.42mm

M73 P0 R112
M73 Q0 S120
M201 X1000 Y1000 Z200 E5000 ; sets maximum accelerations, mm/sec^2
M203 X200 Y200 Z12 E120 ; sets maximum feedrates, mm/sec
M204 P1250 R1250 T1250 ; sets acceleration (P, T) and retract acceleration (R), mm/sec^2
M205 X8.00 Y8.00 Z0.40 E4.50 ; sets the jerk limits, mm/sec
M205 S0 T0 ; sets the minimum extruding and travel feed rate, mm/sec
M107
M862.3 P "MK3" ; printer model check
M862.1 P0.4 ; nozzle diameter check
M115 U3.9.3 ; tell printer latest fw version
G90 ; use absolute coordinates
M83 ; extruder relative mode
M104 S215 ; set extruder temp
M140 S60 ; set bed temp
M190 S60 ; wait for bed temp
M109 S215 ; wait for extruder temp
G28 W ; home all without mesh bed level
G80 ; mesh bed leveling
G1 Y-3.0 F1000.0 ; go outside print area
G92 E0.0
G1 X60.0 E9.0 F1000.0 ; intro line
M73 Q0 S120
M73 P0 R112
G1 X100.0 E12.5 F1000.0 ; intro line
G92 E0.0
M221 S95

; Don't change E values below. Excessive value can damage the printer.

M907 E538 ; set extruder motor current
G21 ; set units to millimeters
G90 ; use absolute coordinates
M83 ; use relative distances for extrusion
M900 K0.05 ; Filament gcode LA 1.5
M900 K30 ; Filament gcode LA 1.0
;BEFORE_LAYER_CHANGE
G92 E0.0
;0.2


G1 E-0.80000 F2100.00000
G1 Z0.400 F10800.000
;AFTER_LAYER_CHANGE
;0.2
G1 X88.971 Y75.798
G1 Z0.200
G1 E0.80000 F2100.00000
M204 S1000
G1 F1200.000
G1 X90.537 Y73.966 E0.07554
G1 X92.208 Y72.205 E0.07611
G1 X93.967 Y70.536 E0.07603
G1 X95.798 Y68.971 E0.07553
G1 X99.083 Y66.540 E0.12815
G1 X101.116 Y65.246 E0.07555
G1 X103.226 Y64.052 E0.07602
G1 X105.399 Y62.969 E0.07612
G1 X107.608 Y62.008 E0.07553
G1 X111.461 Y60.643 E0.12816
G1 X113.782 Y60.000 E0.07554
G1 X116.149 Y59.475 E0.07602
G1 X118.544 Y59.074 E0.07613
G1 X120.937 Y58.801 E0.07553
G1 X125.002 Y58.623 E0.12757
G1 X127.425 Y58.686 E0.07601
G1 X129.827 Y58.875 E0.07553
G1 X133.869 Y59.479 E0.12815
G1 X136.222 Y60.001 E0.07555
G1 X138.558 Y60.649 E0.07600
G1 X140.864 Y61.420 E0.07625
G1 X143.102 Y62.302 E0.07542
G1 X146.791 Y64.061 E0.12815
G1 X148.888 Y65.248 E0.07555
G1 X150.932 Y66.551 E0.07601
G1 X152.909 Y67.960 E0.07611
G1 X154.795 Y69.460 E0.07555
G1 X157.795 Y72.208 E0.12757
G1 X159.464 Y73.967 E0.07601
G1 X161.041 Y75.813 E0.07612
G1 X162.519 Y77.739 E0.07614
G1 X163.868 Y79.700 E0.07462
G1 X165.957 Y83.243 E0.12896
G1 X167.029 Y85.393 E0.07534
G1 X167.992 Y87.608 E0.07571
G1 X169.354 Y91.451 E0.12784
G1 X169.999 Y93.779 E0.07574
G1 X170.525 Y96.149 E0.07613
G1 X170.926 Y98.544 E0.07613
G1 X171.199 Y100.937 E0.07552
G1 X171.377 Y104.998 E0.12747
G1 X171.314 Y107.416 E0.07583
G1 X171.125 Y109.827 E0.07582
G1 X170.523 Y113.860 E0.12785
G1 X169.999 Y116.222 E0.07587
G1 X169.351 Y118.558 E0.07600
G1 X168.584 Y120.851 E0.07582
G1 X167.717 Y123.058 E0.07433
G1 X165.943 Y126.782 E0.12933
G1 X164.759 Y128.876 E0.07545
G1 X163.454 Y130.924 E0.07613
G1 X161.029 Y134.202 E0.12786
G1 X159.463 Y136.034 E0.07554
G1 X157.800 Y137.787 E0.07576
G1 X154.795 Y140.540 E0.12780
G1 X152.909 Y142.040 E0.07554
G1 X150.935 Y143.447 E0.07602
G1 X148.887 Y144.752 E0.07612
G1 X146.791 Y145.939 E0.07554
G1 X143.102 Y147.698 E0.12815
G1 X140.860 Y148.581 E0.07554
G1 X138.561 Y149.350 E0.07602
G1 X136.221 Y149.999 E0.07612
G1 X133.869 Y150.521 E0.07554
G1 X129.827 Y151.125 E0.12816
G1 X127.425 Y151.314 E0.07554
G1 X125.002 Y151.377 E0.07601
G1 X122.575 Y151.314 E0.07613
G1 X120.173 Y151.125 E0.07553
G1 X116.149 Y150.525 E0.12757
G1 X113.782 Y150.000 E0.07602
G1 X111.461 Y149.357 E0.07553
G1 X107.608 Y147.992 E0.12816
G1 X105.398 Y147.031 E0.07555
G1 X103.229 Y145.949 E0.07601
G1 X101.115 Y144.754 E0.07613
G1 X99.083 Y143.460 E0.07553
G1 X95.798 Y141.029 E0.12815
G1 X93.966 Y139.464 E0.07554
G1 X92.208 Y137.795 E0.07601
G1 X89.460 Y134.795 E0.12756
G1 X87.960 Y132.909 E0.07554
G1 X86.558 Y130.943 E0.07572
G1 X85.253 Y128.896 E0.07612
G1 X84.061 Y126.791 E0.07584
G1 X82.302 Y123.102 E0.12815
G1 X81.419 Y120.860 E0.07554
G1 X80.652 Y118.566 E0.07584
G1 X80.001 Y116.221 E0.07630
G1 X79.479 Y113.869 E0.07554
G1 X78.875 Y109.827 E0.12815
G1 X78.687 Y107.435 E0.07524
G1 X78.623 Y105.002 E0.07631
G1 X78.801 Y100.937 E0.12756
G1 X79.075 Y98.544 E0.07554
G1 X79.474 Y96.158 E0.07583
G1 X80.000 Y93.782 E0.07632
G1 X80.643 Y91.461 E0.07553
G1 X82.008 Y87.608 E0.12816
G1 X82.969 Y85.398 E0.07555
G1 X84.051 Y83.229 E0.07601
G1 X85.246 Y81.115 E0.07613
G1 X86.535 Y79.091 E0.07523
G1 X88.936 Y75.846 E0.12657
G1 F8640.000
G1 X90.537 Y73.966 E-0.57014
G1 X91.103 Y73.370 E-0.18986
G1 E-0.04000 F2100.00000
G1 Z0.600 F10800.000
G1 X87.094 Y74.407
G1 Z0.200
G1 E0.80000 F2100.00000
G1 F1200.000
G1 X88.202 Y73.079 E0.05423
G1 X88.792 Y72.412 E0.02791
G1 X89.915 Y71.206 E0.05168
G1 X90.546 Y70.562 E0.02827
G1 X91.740 Y69.408 E0.05206
G1 X92.394 Y68.808 E0.02783
G1 X93.648 Y67.717 E0.05214
G1 X94.335 Y67.149 E0.02794
G1 X95.643 Y66.127 E0.05204
G1 X97.100 Y65.067 E0.05650
G1 X98.427 Y64.173 E0.05017
G1 X99.229 Y63.662 E0.02983
G1 X100.655 Y62.806 E0.05215
G1 X101.428 Y62.370 E0.02781
G1 X102.840 Y61.619 E0.05015
G1 X103.691 Y61.195 E0.02980
G1 X105.148 Y60.515 E0.05043
G1 X106.712 Y59.850 E0.05328
G1 X108.378 Y59.210 E0.05594
G1 X109.899 Y58.686 E0.05045
G1 X110.779 Y58.408 E0.02895
G1 X111.622 Y58.160 E0.02755
G1 X113.225 Y57.731 E0.05203
G1 X114.091 Y57.524 E0.02792
G1 X115.672 Y57.188 E0.05065
G1 X117.432 Y56.878 E0.05604
G1 X119.014 Y56.656 E0.05008
G1 X119.931 Y56.551 E0.02894
G1 X120.806 Y56.468 E0.02756
G1 X122.461 Y56.353 E0.05203
G1 X123.352 Y56.315 E0.02795
G1 X125.042 Y56.287 E0.05299
G1 X126.650 Y56.315 E0.05042
G1 X127.539 Y56.353 E0.02791
G1 X129.194 Y56.468 E0.05203
G1 X130.078 Y56.552 E0.02784
G1 X131.793 Y56.762 E0.05418
G1 X132.671 Y56.894 E0.02783
G1 X134.305 Y57.183 E0.05204
G1 X135.178 Y57.362 E0.02791
G1 X136.745 Y57.724 E0.05045
G1 X138.478 Y58.188 E0.05625
G1 X140.005 Y58.655 E0.05008
G1 X140.881 Y58.948 E0.02894
G1 X141.710 Y59.242 E0.02758
G1 X143.289 Y59.850 E0.05305
G1 X144.862 Y60.520 E0.05362
G1 X146.310 Y61.195 E0.05008
G1 X147.160 Y61.619 E0.02980
G1 X148.573 Y62.370 E0.05016
G1 X149.368 Y62.820 E0.02865
G1 X150.144 Y63.277 E0.02824
G1 X151.566 Y64.168 E0.05262
G1 X152.900 Y65.067 E0.05043
G1 X153.648 Y65.601 E0.02883
G1 X154.357 Y66.127 E0.02768
G1 X155.665 Y67.150 E0.05206
G1 X156.361 Y67.724 E0.02828
G1 X157.606 Y68.808 E0.05177
G1 X158.260 Y69.408 E0.02783
G1 X159.453 Y70.562 E0.05204
G1 X160.077 Y71.198 E0.02793
G1 X161.208 Y72.412 E0.05204
G1 X161.798 Y73.079 E0.02791
G1 X162.832 Y74.312 E0.05044
G1 X163.929 Y75.716 E0.05590
G1 X164.875 Y77.018 E0.05045
G1 X165.398 Y77.779 E0.02894
G1 X165.882 Y78.512 E0.02756
G1 X166.761 Y79.920 E0.05203
G1 X167.213 Y80.688 E0.02794
G1 X168.016 Y82.140 E0.05204
G1 X168.427 Y82.930 E0.02794
G1 X169.154 Y84.422 E0.05203
G1 X169.522 Y85.233 E0.02791
G1 X170.151 Y86.713 E0.05043
G1 X170.758 Y88.290 E0.05299
G1 X171.345 Y89.995 E0.05652
G1 X171.812 Y91.522 E0.05008
G1 X172.276 Y93.255 E0.05624
G1 X172.636 Y94.811 E0.05009
G1 X172.816 Y95.694 E0.02825
G1 X173.106 Y97.329 E0.05206
G1 X173.238 Y98.210 E0.02793
G1 X173.441 Y99.857 E0.05203
G1 X173.527 Y100.740 E0.02783
G1 X173.643 Y102.388 E0.05178
G1 X173.683 Y103.285 E0.02818
G1 X173.713 Y105.041 E0.05506
G1 X173.685 Y106.650 E0.05043
G1 X173.647 Y107.539 E0.02791
G1 X173.532 Y109.194 E0.05203
G1 X173.448 Y110.078 E0.02783
G1 X173.248 Y111.717 E0.05178
G1 X172.964 Y113.508 E0.05686
G1 X172.660 Y115.076 E0.05008
G1 X172.257 Y116.825 E0.05626
G1 X171.840 Y118.379 E0.05045
G1 X171.313 Y120.102 E0.05650
G1 X170.774 Y121.665 E0.05186
G1 X170.190 Y123.190 E0.05119
G1 X169.481 Y124.860 E0.05689
G1 X168.779 Y126.364 E0.05203
G1 X168.381 Y127.160 E0.02791
G1 X167.631 Y128.571 E0.05008
G1 X166.735 Y130.124 E0.05625
G1 X165.888 Y131.479 E0.05009
G1 X164.874 Y132.983 E0.05687
G1 X163.901 Y134.321 E0.05186
G1 X162.887 Y135.619 E0.05166
G1 X162.323 Y136.304 E0.02782
G1 X161.235 Y137.557 E0.05203
G1 X160.634 Y138.215 E0.02794
G1 X159.416 Y139.475 E0.05493
G1 X158.259 Y140.592 E0.05043
G1 X157.604 Y141.194 E0.02791
G1 X156.352 Y142.283 E0.05203
G1 X155.667 Y142.849 E0.02783
G1 X154.358 Y143.873 E0.05214
G1 X152.900 Y144.933 E0.05650
G1 X151.573 Y145.827 E0.05016
G1 X150.771 Y146.338 E0.02983
G1 X149.345 Y147.194 E0.05215
G1 X148.572 Y147.630 E0.02781
G1 X147.160 Y148.381 E0.05015
G1 X146.309 Y148.805 E0.02980
G1 X144.852 Y149.485 E0.05043
G1 X143.288 Y150.150 E0.05328
G1 X141.622 Y150.790 E0.05594
G1 X140.101 Y151.314 E0.05045
G1 X139.194 Y151.599 E0.02980
G1 X137.657 Y152.040 E0.05015
G1 X136.786 Y152.266 E0.02820
G1 X135.897 Y152.479 E0.02865
G1 X134.335 Y152.811 E0.05009
G1 X132.568 Y153.122 E0.05625
G1 X130.986 Y153.344 E0.05008
G1 X130.069 Y153.449 E0.02894
G1 X129.194 Y153.532 E0.02756
G1 X127.539 Y153.647 E0.05203
G1 X126.648 Y153.685 E0.02795
G1 X124.958 Y153.713 E0.05299
G1 X123.350 Y153.685 E0.05042
G1 X122.461 Y153.647 E0.02791
G1 X120.806 Y153.532 E0.05203
G1 X119.922 Y153.448 E0.02783
G1 X118.271 Y153.246 E0.05214
G1 X117.390 Y153.115 E0.02793
G1 X115.755 Y152.828 E0.05204
G1 X114.894 Y152.654 E0.02755
G1 X113.993 Y152.453 E0.02895
G1 X112.431 Y152.064 E0.05045
G1 X110.707 Y151.569 E0.05624
G1 X109.188 Y151.076 E0.05008
G1 X108.349 Y150.779 E0.02790
G1 X106.799 Y150.185 E0.05204
G1 X105.129 Y149.476 E0.05690
G1 X103.633 Y148.777 E0.05177
G1 X102.840 Y148.381 E0.02781
G1 X101.427 Y147.630 E0.05016
G1 X100.590 Y147.156 E0.03017
G1 X99.221 Y146.333 E0.05008
G1 X97.749 Y145.378 E0.05502
G1 X97.017 Y144.874 E0.02784
G1 X95.675 Y143.898 E0.05204
G1 X94.969 Y143.355 E0.02791
G1 X93.726 Y142.349 E0.05015
G1 X93.003 Y141.731 E0.02980
G1 X91.808 Y140.655 E0.05045
G1 X90.525 Y139.417 E0.05589
G1 X89.408 Y138.259 E0.05044
G1 X88.808 Y137.606 E0.02780
G1 X87.724 Y136.361 E0.05177
G1 X87.150 Y135.665 E0.02828
G1 X86.127 Y134.357 E0.05206
G1 X85.067 Y132.900 E0.05650
G1 X84.168 Y131.566 E0.05043
G1 X83.277 Y130.144 E0.05262
G1 X82.370 Y128.573 E0.05689
G1 X81.619 Y127.160 E0.05016
G1 X81.195 Y126.310 E0.02980
G1 X80.520 Y124.862 E0.05008
G1 X79.850 Y123.289 E0.05362
G1 X79.242 Y121.710 E0.05305
G1 X78.655 Y120.005 E0.05652
G1 X78.188 Y118.478 E0.05008
G1 X77.724 Y116.745 E0.05625
G1 X77.362 Y115.178 E0.05045
G1 X77.183 Y114.305 E0.02791
G1 X76.894 Y112.671 E0.05204
G1 X76.762 Y111.794 E0.02783
G1 X76.559 Y110.143 E0.05214
G1 X76.473 Y109.260 E0.02783
G1 X76.357 Y107.612 E0.05178
G1 X76.317 Y106.715 E0.02818
G1 X76.287 Y104.959 E0.05506
G1 X76.315 Y103.350 E0.05043
G1 X76.353 Y102.461 E0.02791
G1 X76.468 Y100.806 E0.05203
G1 X76.552 Y99.922 E0.02783
G1 X76.754 Y98.271 E0.05214
G1 X76.885 Y97.390 E0.02793
G1 X77.170 Y95.767 E0.05167
G1 X77.348 Y94.886 E0.02818
G1 X77.744 Y93.175 E0.05506
G1 X78.160 Y91.621 E0.05044
G1 X78.687 Y89.898 E0.05650
G1 X79.226 Y88.334 E0.05186
G1 X79.815 Y86.799 E0.05155
G1 X80.519 Y85.140 E0.05653
G1 X81.223 Y83.633 E0.05214
G1 X81.619 Y82.840 E0.02781
G1 X82.374 Y81.419 E0.05044
G1 X83.266 Y79.875 E0.05589
G1 X84.118 Y78.511 E0.05044
G1 X85.125 Y77.018 E0.05648
G1 X86.071 Y75.716 E0.05044
G1 X87.057 Y74.454 E0.05022
G1 X87.354 Y74.686 F10800.000
G1 F1200.000
G1 X88.490 Y73.324 E0.05562
G1 X89.073 Y72.664 E0.02760
G1 X90.189 Y71.465 E0.05137
G1 X90.814 Y70.828 E0.02797
G1 X92.000 Y69.681 E0.05175
G1 X92.647 Y69.088 E0.02752
G1 X93.894 Y68.003 E0.05182
G1 X94.573 Y67.442 E0.02763
G1 X95.873 Y66.425 E0.05173
G1 X97.313 Y65.379 E0.05582
G1 X98.636 Y64.487 E0.05001
G1 X99.425 Y63.984 E0.02936
G1 X100.843 Y63.133 E0.05183
G1 X101.607 Y62.702 E0.02750
G1 X103.015 Y61.953 E0.05000
G1 X103.852 Y61.536 E0.02934
G1 X105.305 Y60.858 E0.05026
G1 X106.857 Y60.198 E0.05288
G1 X108.504 Y59.566 E0.05531
G1 X110.019 Y59.044 E0.05027
G1 X110.888 Y58.770 E0.02855
G1 X111.722 Y58.523 E0.02727
G1 X113.315 Y58.097 E0.05172
G1 X114.172 Y57.892 E0.02762
G1 X115.747 Y57.558 E0.05047
G1 X117.488 Y57.251 E0.05542
G1 X119.064 Y57.030 E0.04990
G1 X119.968 Y56.926 E0.02855
G1 X120.834 Y56.844 E0.02728
G1 X122.480 Y56.729 E0.05172
G1 X123.361 Y56.692 E0.02764
G1 X125.038 Y56.664 E0.05261
G1 X126.641 Y56.692 E0.05025
G1 X127.520 Y56.729 E0.02761
G1 X129.166 Y56.844 E0.05172
G1 X130.040 Y56.927 E0.02753
G1 X131.740 Y57.136 E0.05370
G1 X132.608 Y57.266 E0.02753
G1 X134.232 Y57.553 E0.05172
G1 X135.095 Y57.730 E0.02761
G1 X136.657 Y58.090 E0.05027
G1 X138.371 Y58.550 E0.05563
G1 X139.893 Y59.015 E0.04991
G1 X140.756 Y59.304 E0.02855
G1 X141.577 Y59.595 E0.02730
G1 X143.144 Y60.198 E0.05266
G1 X144.706 Y60.863 E0.05321
G1 X146.148 Y61.536 E0.04990
G1 X146.985 Y61.953 E0.02933
G1 X148.393 Y62.702 E0.05000
G1 X149.178 Y63.145 E0.02826
G1 X149.946 Y63.598 E0.02795
G1 X151.358 Y64.482 E0.05224
G1 X152.687 Y65.379 E0.05026
G1 X153.425 Y65.905 E0.02843
G1 X154.127 Y66.425 E0.02739
G1 X155.427 Y67.442 E0.05175
G1 X156.115 Y68.010 E0.02797
G1 X157.353 Y69.088 E0.05146
G1 X158.000 Y69.681 E0.02752
G1 X159.186 Y70.828 E0.05173
G1 X159.803 Y71.457 E0.02762
G1 X160.927 Y72.664 E0.05173
G1 X161.510 Y73.324 E0.02760
G1 X162.541 Y74.551 E0.05026
G1 X163.626 Y75.941 E0.05528
G1 X164.568 Y77.238 E0.05027
G1 X165.084 Y77.988 E0.02855
G1 X165.564 Y78.714 E0.02728
G1 X166.437 Y80.113 E0.05172
G1 X166.884 Y80.873 E0.02763
G1 X167.683 Y82.316 E0.05172
G1 X168.089 Y83.098 E0.02763
G1 X168.812 Y84.581 E0.05172
G1 X169.176 Y85.382 E0.02761
G1 X169.802 Y86.857 E0.05025
G1 X170.405 Y88.423 E0.05261
G1 X170.985 Y90.107 E0.05584
G1 X171.450 Y91.629 E0.04991
G1 X171.910 Y93.343 E0.05562
G1 X172.268 Y94.894 E0.04991
G1 X172.446 Y95.767 E0.02795
G1 X172.734 Y97.392 E0.05175
G1 X172.865 Y98.263 E0.02763
G1 X173.067 Y99.901 E0.05172
G1 X173.151 Y100.774 E0.02752
G1 X173.267 Y102.412 E0.05147
G1 X173.307 Y103.300 E0.02787
G1 X173.336 Y105.038 E0.05451
G1 X173.308 Y106.641 E0.05026
G1 X173.271 Y107.520 E0.02761
G1 X173.156 Y109.166 E0.05172
G1 X173.073 Y110.040 E0.02752
G1 X172.874 Y111.669 E0.05147
G1 X172.594 Y113.439 E0.05618
G1 X172.290 Y115.001 E0.04990
G1 X171.891 Y116.730 E0.05564
G1 X171.476 Y118.279 E0.05027
G1 X170.956 Y119.981 E0.05582
G1 X170.421 Y121.533 E0.05148
G1 X169.838 Y123.053 E0.05102
G1 X169.138 Y124.703 E0.05621
G1 X168.440 Y126.198 E0.05172
G1 X168.047 Y126.985 E0.02761
G1 X167.300 Y128.391 E0.04990
G1 X166.413 Y129.927 E0.05563
G1 X165.570 Y131.277 E0.04991
G1 X164.568 Y132.763 E0.05619
G1 X163.602 Y134.091 E0.05149
G1 X162.592 Y135.385 E0.05148
G1 X162.034 Y136.063 E0.02752
G1 X160.952 Y137.308 E0.05172
G1 X160.357 Y137.959 E0.02763
G1 X159.152 Y139.206 E0.05438
G1 X157.999 Y140.319 E0.05026
G1 X157.350 Y140.915 E0.02761
G1 X156.106 Y141.997 E0.05172
G1 X155.429 Y142.556 E0.02752
G1 X154.127 Y143.575 E0.05183
G1 X152.687 Y144.621 E0.05583
G1 X151.364 Y145.513 E0.05001
G1 X150.575 Y146.016 E0.02936
G1 X149.157 Y146.867 E0.05183
G1 X148.393 Y147.298 E0.02751
G1 X146.985 Y148.047 E0.05000
G1 X146.148 Y148.464 E0.02934
G1 X144.695 Y149.142 E0.05026
G1 X143.143 Y149.802 E0.05288
G1 X141.496 Y150.434 E0.05531
G1 X139.980 Y150.956 E0.05027
G1 X139.088 Y151.238 E0.02934
G1 X137.555 Y151.677 E0.05000
G1 X136.693 Y151.901 E0.02791
G1 X135.817 Y152.110 E0.02826
G1 X134.260 Y152.441 E0.04991
G1 X132.513 Y152.749 E0.05563
G1 X130.936 Y152.970 E0.04990
G1 X130.032 Y153.074 E0.02855
G1 X129.166 Y153.156 E0.02728
G1 X127.520 Y153.271 E0.05172
G1 X126.639 Y153.308 E0.02764
G1 X124.962 Y153.336 E0.05261
G1 X123.359 Y153.308 E0.05025
G1 X122.480 Y153.271 E0.02761
G1 X120.834 Y153.156 E0.05172
G1 X119.960 Y153.073 E0.02752
G1 X118.320 Y152.872 E0.05183
G1 X117.448 Y152.743 E0.02763
G1 X115.823 Y152.457 E0.05173
G1 X114.971 Y152.284 E0.02727
G1 X114.082 Y152.087 E0.02856
G1 X112.526 Y151.699 E0.05027
G1 X110.821 Y151.210 E0.05563
G1 X109.307 Y150.718 E0.04990
G1 X108.477 Y150.425 E0.02760
G1 X106.936 Y149.834 E0.05173
G1 X105.286 Y149.133 E0.05621
G1 X103.799 Y148.439 E0.05146
G1 X103.015 Y148.047 E0.02750
