; generated by PrusaSlicer 2.2.0+ on 2021-06-01 at 19:49:47 UTC

; 

; external perimeters extrusion width = 0.45mm
; perimeters extrusion width = 0.45mm
; infill extrusion width = 0.45mm
; solid infill extrusion width = 0.45mm
; top infill extrusion width = 0.40mm
; first layer extrusion width = 0.42mm

M73 P0 R73
M73 Q0 S75
M201 X1000 Y1000 Z200 E5000 ; sets maximum accelerations, mm/sec^2
M203 X200 Y200 Z12 E120 ; sets maximum feedrates, mm/sec
M204 P1250 R1250 T1250 ; sets acceleration (P, T) and retract acceleration (R), mm/sec^2
M205 X8.00 Y8.00 Z0.40 E4.50 ; sets the jerk limits, mm/sec
M205 S0 T0 ; sets the minimum extruding and travel feed rate, mm/sec
M107
M862.3 P "MK3S" ; printer model check
M862.1 P0.4 ; nozzle diameter check
M115 U3.9.3 ; tell printer latest fw version
G90 ; use absolute coordinates
M83 ; extruder relative mode
M104 S215 ; set extruder temp
M140 S60 ; set bed temp
M190 S60 ; wait for bed temp
M109 S215 ; wait for extruder temp
G28 W ; home all without mesh bed level
G80 ; mesh bed leveling
G1 Y-3.0 F1000.0 ; go outside print area
G92 E0.0
G1 X60.0 E9.0 F1000.0 ; intro line
M73 Q0 S75
M73 P0 R73
G1 X100.0 E12.5 F1000.0 ; intro line
G92 E0.0
M221 S95

; Don't change E values below. Excessive value can damage the printer.

M907 E538 ; set extruder motor current
G21 ; set units to millimeters
G90 ; use absolute coordinates
M83 ; use relative distances for extrusion
M900 K0.05 ; Filament gcode LA 1.5
M900 K30 ; Filament gcode LA 1.0
;BEFORE_LAYER_CHANGE
G92 E0.0
;0.2


G1 E-0.80000 F2100.00000
G1 Z0.400 F10800.000
;AFTER_LAYER_CHANGE
;0.2
G1 X140.852 Y133.553
G1 Z0.200
G1 E0.80000 F2100.00000
M204 S1000
G1 F1200.000
G1 X140.278 Y134.066 E0.02414
G1 X139.571 Y134.370 E0.02414
G1 X139.005 Y134.439 E0.01787
G1 X110.867 Y134.435 E0.88225
G1 X110.129 Y134.274 E0.02367
G1 X109.483 Y133.892 E0.02355
G1 X108.986 Y133.324 E0.02367
G1 X108.692 Y132.633 E0.02355
G1 X108.623 Y132.067 E0.01787
G1 X108.625 Y91.660 E1.26692
G1 X108.785 Y89.632 E0.06379
G1 X109.257 Y87.420 E0.07092
G1 X109.618 Y86.312 E0.03655
G1 X110.158 Y85.010 E0.04419
G1 X110.808 Y83.759 E0.04420
G1 X111.434 Y82.758 E0.03703
G1 X112.272 Y81.627 E0.04413
G1 X113.205 Y80.571 E0.04418
G1 X114.055 Y79.750 E0.03703
G1 X115.138 Y78.858 E0.04401
G1 X116.295 Y78.061 E0.04406
G1 X117.321 Y77.468 E0.03715
G1 X118.597 Y76.859 E0.04433
G1 X119.918 Y76.364 E0.04424
G1 X121.054 Y76.038 E0.03703
G1 X122.427 Y75.759 E0.04393
G1 X123.587 Y75.617 E0.03666
G1 X124.996 Y75.556 E0.04422
G1 X126.398 Y75.616 E0.04401
G1 X127.580 Y75.760 E0.03733
G1 X128.959 Y76.041 E0.04411
G1 X130.328 Y76.447 E0.04479
G1 X131.642 Y76.963 E0.04426
G1 X132.705 Y77.481 E0.03709
G1 X133.917 Y78.196 E0.04411
G1 X135.076 Y79.023 E0.04464
G1 X136.152 Y79.939 E0.04430
G1 X136.992 Y80.779 E0.03726
G1 X137.906 Y81.851 E0.04416
G1 X138.736 Y83.015 E0.04482
G1 X139.459 Y84.242 E0.04467
G1 X140.067 Y85.514 E0.04419
G1 X140.492 Y86.621 E0.03717
G1 X140.891 Y87.974 E0.04422
G1 X141.252 Y89.917 E0.06198
G1 X141.375 Y91.660 E0.05480
G1 X141.376 Y132.131 E1.26892
G1 X141.231 Y132.883 E0.02402
G1 X140.881 Y133.501 E0.02226
; printing object PoePiCam_PotFixture.stl id:0 copy 0
G1 F8640.000
G1 X140.278 Y134.066 E-0.19093
G1 X139.571 Y134.370 E-0.17775
G1 X139.005 Y134.439 E-0.13161
G1 X137.880 Y134.439 E-0.25970
G1 E-0.04000 F2100.00000
G1 Z0.600 F10800.000
G1 X128.287 Y107.720
G1 Z0.200
G1 E0.80000 F2100.00000
G1 F1200.000
G1 X121.713 Y107.720 E0.20613
G1 X121.713 Y104.146 E0.11207
G1 X128.287 Y104.146 E0.20613
G1 X128.287 Y107.660 E0.11018
G1 X127.910 Y107.343 F10800.000
G1 F1200.000
G1 X122.090 Y107.343 E0.18248
G1 X122.090 Y104.523 E0.08842
G1 X127.910 Y104.523 E0.18248
G1 X127.910 Y107.283 E0.08654
G1 X128.056 Y107.715 F10800.000
G1 F8640.000
G1 X124.619 Y107.317 E-0.76000
G1 E-0.04000 F2100.00000
G1 Z0.600 F10800.000
G1 X121.713 Y119.146
G1 Z0.200
G1 E0.80000 F2100.00000
G1 F1200.000
G1 X128.287 Y119.146 E0.20613
G1 X128.287 Y122.720 E0.11207
G1 X121.713 Y122.720 E0.20613
G1 X121.713 Y119.206 E0.11018
G1 X122.090 Y119.523 F10800.000
G1 F1200.000
G1 X127.910 Y119.523 E0.18248
G1 X127.910 Y122.343 E0.08842
G1 X122.090 Y122.343 E0.18248
G1 X122.090 Y119.583 E0.08654
G1 X121.944 Y119.150 F10800.000
G1 F8640.000
G1 X125.381 Y119.549 E-0.76000
G1 E-0.04000 F2100.00000
G1 Z0.600 F10800.000
G1 X123.719 Y102.643
G1 Z0.200
G1 E0.80000 F2100.00000
G1 F1200.000
G1 X123.122 Y102.555 E0.01891
G1 X122.213 Y102.354 E0.02919
G1 X121.667 Y102.192 E0.01787
G1 X121.134 Y102.003 E0.01771
G1 X120.612 Y101.787 E0.01770
G1 X120.098 Y101.542 E0.01787
G1 X119.288 Y101.084 E0.02919
G1 X118.813 Y100.769 E0.01787
G1 X118.359 Y100.433 E0.01771
G1 X117.923 Y100.074 E0.01771
G1 X117.507 Y99.692 E0.01771
G1 X117.111 Y99.290 E0.01771
G1 X116.733 Y98.863 E0.01787
G1 X116.166 Y98.124 E0.02919
G1 X115.852 Y97.649 E0.01787
G1 X115.563 Y97.158 E0.01787
G1 X115.147 Y96.325 E0.02919
G1 X114.929 Y95.798 E0.01787
G1 X114.741 Y95.266 E0.01771
G1 X114.580 Y94.725 E0.01771
G1 X114.448 Y94.175 E0.01771
G1 X114.346 Y93.620 E0.01771
G1 X114.271 Y93.056 E0.01783
G1 X114.214 Y92.126 E0.02923
G1 X114.219 Y91.556 E0.01787
G1 X114.254 Y90.989 E0.01783
G1 X114.376 Y90.064 E0.02922
G1 X114.489 Y89.506 E0.01787
G1 X114.631 Y88.959 E0.01771
G1 X114.800 Y88.421 E0.01771
G1 X115.000 Y87.888 E0.01783
G1 X115.386 Y87.040 E0.02922
G1 X115.658 Y86.539 E0.01787
G1 X115.953 Y86.057 E0.01771
G1 X116.273 Y85.592 E0.01771
G1 X116.620 Y85.140 E0.01787
G1 X117.240 Y84.439 E0.02935
G1 X117.919 Y83.795 E0.02935
G1 X118.359 Y83.432 E0.01787
G1 X118.817 Y83.093 E0.01787
G1 X119.603 Y82.592 E0.02923
G1 X120.103 Y82.321 E0.01783
G1 X120.612 Y82.078 E0.01771
G1 X121.134 Y81.862 E0.01771
G1 X121.667 Y81.673 E0.01771
G1 X122.208 Y81.513 E0.01771
G1 X122.762 Y81.380 E0.01787
G1 X123.680 Y81.226 E0.02919
G1 X124.248 Y81.172 E0.01787
G1 X124.813 Y81.147 E0.01775
G1 X125.377 Y81.152 E0.01767
G1 X125.945 Y81.187 E0.01787
G1 X126.873 Y81.309 E0.02935
G1 X127.787 Y81.511 E0.02935
G1 X128.333 Y81.673 E0.01787
G1 X128.867 Y81.862 E0.01775
G1 X129.388 Y82.078 E0.01766
G1 X129.902 Y82.323 E0.01787
G1 X130.712 Y82.782 E0.02919
G1 X131.187 Y83.096 E0.01787
G1 X131.641 Y83.432 E0.01771
G1 X132.077 Y83.791 E0.01771
G1 X132.497 Y84.176 E0.01787
G1 X133.138 Y84.852 E0.02919
G1 X133.500 Y85.291 E0.01787
G1 X133.836 Y85.745 E0.01771
G1 X134.148 Y86.216 E0.01771
G1 X134.437 Y86.707 E0.01787
G1 X134.853 Y87.540 E0.02919
G1 X135.071 Y88.067 E0.01787
G1 X135.259 Y88.599 E0.01771
G1 X135.420 Y89.141 E0.01771
G1 X135.552 Y89.690 E0.01771
G1 X135.654 Y90.245 E0.01771
G1 X135.729 Y90.809 E0.01783
G1 X135.786 Y91.739 E0.02923
G1 X135.781 Y92.309 E0.01787
G1 X135.746 Y92.877 E0.01783
G1 X135.624 Y93.801 E0.02922
G1 X135.511 Y94.359 E0.01787
G1 X135.369 Y94.906 E0.01771
G1 X135.200 Y95.445 E0.01771
G1 X135.000 Y95.977 E0.01783
G1 X134.614 Y96.825 E0.02922
G1 X134.342 Y97.326 E0.01787
G1 X134.047 Y97.808 E0.01771
G1 X133.727 Y98.273 E0.01771
G1 X133.380 Y98.725 E0.01787
G1 X132.760 Y99.426 E0.02935
G1 X132.081 Y100.071 E0.02935
G1 X131.641 Y100.433 E0.01787
G1 X131.183 Y100.772 E0.01787
G1 X130.397 Y101.273 E0.02923
G1 X129.897 Y101.544 E0.01783
G1 X129.388 Y101.787 E0.01771
G1 X128.866 Y102.003 E0.01771
G1 X128.333 Y102.192 E0.01771
G1 X127.792 Y102.352 E0.01771
G1 X127.238 Y102.485 E0.01787
G1 X126.320 Y102.639 E0.02919
G1 X125.753 Y102.694 E0.01787
G1 X125.183 Y102.719 E0.01787
G1 X124.253 Y102.694 E0.02919
G1 X123.778 Y102.649 E0.01494
G1 X123.814 Y102.273 F10800.000
G1 F1200.000
G1 X123.191 Y102.184 E0.01976
G1 X122.307 Y101.989 E0.02836
G1 X121.783 Y101.833 E0.01714
G1 X121.269 Y101.651 E0.01709
G1 X120.766 Y101.443 E0.01709
G1 X120.272 Y101.207 E0.01715
G1 X119.485 Y100.762 E0.02836
G1 X119.029 Y100.460 E0.01715
G1 X118.591 Y100.136 E0.01709
G1 X118.170 Y99.789 E0.01709
G1 X117.769 Y99.421 E0.01709
G1 X117.387 Y99.032 E0.01709
G1 X117.024 Y98.623 E0.01715
G1 X116.474 Y97.905 E0.02836
G1 X116.172 Y97.449 E0.01715
G1 X115.894 Y96.978 E0.01715
G1 X115.491 Y96.169 E0.02836
G1 X115.281 Y95.663 E0.01715
G1 X115.099 Y95.150 E0.01709
G1 X114.945 Y94.627 E0.01709
G1 X114.817 Y94.097 E0.01709
G1 X114.718 Y93.561 E0.01709
G1 X114.647 Y93.020 E0.01710
G1 X114.591 Y92.116 E0.02840
G1 X114.596 Y91.569 E0.01715
G1 X114.630 Y91.025 E0.01711
G1 X114.748 Y90.127 E0.02840
G1 X114.857 Y89.591 E0.01715
G1 X114.993 Y89.063 E0.01709
G1 X115.157 Y88.543 E0.01709
G1 X115.348 Y88.032 E0.01711
G1 X115.724 Y87.208 E0.02840
G1 X115.985 Y86.728 E0.01715
G1 X116.269 Y86.263 E0.01709
G1 X116.578 Y85.814 E0.01709
G1 X116.911 Y85.380 E0.01714
G1 X117.512 Y84.701 E0.02842
G1 X118.169 Y84.077 E0.02842
G1 X118.591 Y83.729 E0.01715
G1 X119.031 Y83.404 E0.01715
G1 X119.794 Y82.917 E0.02840
G1 X120.274 Y82.657 E0.01711
G1 X120.766 Y82.423 E0.01709
G1 X121.269 Y82.214 E0.01709
G1 X121.783 Y82.032 E0.01709
G1 X122.306 Y81.877 E0.01709
G1 X122.837 Y81.750 E0.01715
G1 X123.730 Y81.600 E0.02836
G1 X124.274 Y81.548 E0.01714
G1 X124.820 Y81.524 E0.01713
G1 X125.363 Y81.529 E0.01705
G1 X125.909 Y81.562 E0.01714
G1 X126.808 Y81.681 E0.02842
G1 X127.693 Y81.877 E0.02842
G1 X128.217 Y82.032 E0.01714
G1 X128.732 Y82.214 E0.01713
G1 X129.234 Y82.423 E0.01705
G1 X129.728 Y82.658 E0.01715
G1 X130.515 Y83.103 E0.02836
G1 X130.971 Y83.405 E0.01715
G1 X131.409 Y83.729 E0.01709
G1 X131.830 Y84.076 E0.01709
G1 X132.233 Y84.445 E0.01714
G1 X132.855 Y85.102 E0.02836
G1 X133.203 Y85.524 E0.01715
G1 X133.527 Y85.962 E0.01709
G1 X133.828 Y86.416 E0.01709
G1 X134.106 Y86.887 E0.01715
G1 X134.509 Y87.697 E0.02836
G1 X134.719 Y88.202 E0.01715
G1 X134.901 Y88.716 E0.01709
G1 X135.055 Y89.238 E0.01709
G1 X135.183 Y89.768 E0.01709
G1 X135.282 Y90.304 E0.01709
G1 X135.353 Y90.845 E0.01710
G1 X135.409 Y91.749 E0.02840
G1 X135.404 Y92.296 E0.01715
G1 X135.370 Y92.841 E0.01711
G1 X135.252 Y93.739 E0.02840
G1 X135.143 Y94.274 E0.01715
G1 X135.007 Y94.802 E0.01709
G1 X134.843 Y95.322 E0.01709
G1 X134.652 Y95.833 E0.01711
G1 X134.276 Y96.657 E0.02840
G1 X134.015 Y97.138 E0.01715
G1 X133.731 Y97.602 E0.01709
G1 X133.422 Y98.052 E0.01709
G1 X133.089 Y98.485 E0.01714
G1 X132.488 Y99.164 E0.02842
G1 X131.831 Y99.788 E0.02842
G1 X131.409 Y100.136 E0.01715
G1 X130.969 Y100.461 E0.01715
G1 X130.206 Y100.948 E0.02840
G1 X129.726 Y101.208 E0.01711
G1 X129.234 Y101.443 E0.01709
G1 X128.731 Y101.651 E0.01709
G1 X128.217 Y101.833 E0.01709
G1 X127.694 Y101.988 E0.01709
G1 X127.163 Y102.116 E0.01715
G1 X126.270 Y102.265 E0.02836
G1 X125.726 Y102.317 E0.01714
G1 X125.180 Y102.341 E0.01715
G1 X124.276 Y102.318 E0.02836
G1 X123.874 Y102.279 E0.01265
G1 X123.577 Y102.595 F10800.000
G1 F8640.000
G1 X123.191 Y102.184 E-0.15933
G1 X122.307 Y101.989 E-0.20886
G1 X121.783 Y101.833 E-0.12625
G1 X121.269 Y101.651 E-0.12586
G1 X120.766 Y101.443 E-0.12583
G1 X120.712 Y101.417 E-0.01387
G1 E-0.04000 F2100.00000
G1 Z0.600 F10800.000
G1 X111.787 Y131.275
G1 Z0.200
G1 E0.80000 F2100.00000
G1 F1200.000
G1 X111.789 Y91.705 E1.24070
G1 X111.819 Y91.014 E0.02169
G1 X111.916 Y90.094 E0.02900
G1 X112.077 Y89.183 E0.02900
G1 X112.364 Y88.072 E0.03598
G1 X112.585 Y87.411 E0.02185
G1 X113.025 Y86.349 E0.03606
G1 X113.555 Y85.331 E0.03598
G1 X114.046 Y84.544 E0.02908
G1 X114.590 Y83.796 E0.02899
G1 X115.336 Y82.922 E0.03604
G1 X116.159 Y82.114 E0.03616
G1 X117.050 Y81.379 E0.03622
G1 X117.996 Y80.729 E0.03598
G1 X118.799 Y80.265 E0.02908
G1 X119.417 Y79.957 E0.02164
G1 X119.835 Y79.771 E0.01436
G1 X120.915 Y79.367 E0.03614
G1 X122.028 Y79.058 E0.03622
G1 X123.159 Y78.849 E0.03606
G1 X124.083 Y78.752 E0.02916
G1 X124.536 Y78.728 E0.01422
G1 X125.229 Y78.722 E0.02171
G1 X125.924 Y78.752 E0.02182
G1 X126.376 Y78.792 E0.01422
G1 X127.299 Y78.922 E0.02924
G1 X128.417 Y79.170 E0.03590
G1 X129.302 Y79.440 E0.02899
G1 X130.167 Y79.772 E0.02908
G1 X131.205 Y80.268 E0.03606
G1 X131.604 Y80.489 E0.01430
G1 X132.576 Y81.108 E0.03614
G1 X133.137 Y81.522 E0.02185
G1 X134.009 Y82.268 E0.03598
G1 X134.665 Y82.923 E0.02907
G1 X135.123 Y83.442 E0.02169
G1 X135.410 Y83.796 E0.01430
G1 X136.080 Y84.734 E0.03614
G1 X136.444 Y85.329 E0.02185
G1 X136.976 Y86.351 E0.03614
G1 X137.160 Y86.765 E0.01422
G1 X137.494 Y87.633 E0.02915
G1 X137.702 Y88.293 E0.02169
G1 X137.970 Y89.412 E0.03606
G1 X138.084 Y90.091 E0.02161
G1 X138.181 Y91.014 E0.02908
G1 X138.211 Y91.705 E0.02169
G1 X138.213 Y131.275 E1.24070
G1 X111.847 Y131.275 E0.82668
G1 X111.410 Y131.652 F10800.000
G1 F1200.000
G1 X111.412 Y91.696 E1.25278
G1 X111.443 Y90.986 E0.02231
G1 X111.542 Y90.041 E0.02977
G1 X111.707 Y89.106 E0.02977
G1 X112.004 Y87.960 E0.03711
G1 X112.230 Y87.284 E0.02237
G1 X112.683 Y86.189 E0.03715
G1 X113.230 Y85.139 E0.03711
G1 X113.734 Y84.333 E0.02980
G1 X114.292 Y83.565 E0.02977
G1 X115.061 Y82.664 E0.03717
G1 X115.907 Y81.833 E0.03715
G1 X116.822 Y81.079 E0.03720
G1 X117.798 Y80.408 E0.03712
G1 X118.621 Y79.933 E0.02980
G1 X119.256 Y79.616 E0.02225
G1 X119.689 Y79.423 E0.01487
G1 X120.800 Y79.008 E0.03717
G1 X121.943 Y78.691 E0.03720
G1 X123.108 Y78.475 E0.03714
G1 X124.054 Y78.376 E0.02983
G1 X124.525 Y78.351 E0.01479
G1 X125.235 Y78.345 E0.02228
G1 X125.949 Y78.376 E0.02239
G1 X126.419 Y78.417 E0.01479
G1 X127.362 Y78.550 E0.02986
G1 X128.516 Y78.806 E0.03709
G1 X129.424 Y79.083 E0.02977
G1 X130.312 Y79.424 E0.02980
G1 X131.381 Y79.934 E0.03715
G1 X131.794 Y80.163 E0.01481
G1 X132.794 Y80.800 E0.03717
G1 X133.368 Y81.224 E0.02236
G1 X134.268 Y81.993 E0.03712
G1 X134.940 Y82.665 E0.02980
G1 X135.411 Y83.198 E0.02231
G1 X135.709 Y83.565 E0.01482
G1 X136.397 Y84.530 E0.03717
G1 X136.770 Y85.138 E0.02236
G1 X137.317 Y86.190 E0.03717
G1 X137.509 Y86.621 E0.01479
G1 X137.850 Y87.509 E0.02982
G1 X138.064 Y88.188 E0.02231
G1 X138.340 Y89.340 E0.03714
G1 X138.458 Y90.040 E0.02228
G1 X138.557 Y90.986 E0.02980
G1 X138.588 Y91.696 E0.02231
G1 X138.590 Y131.652 E1.25278
G1 X111.470 Y131.652 E0.85033
G1 X111.489 Y131.260 F10800.000
G1 F8640.000
G1 X111.465 Y128.361 E-0.76000
G1 E-0.04000 F2100.00000
G1 Z0.600 F10800.000
G1 X111.900 Y130.394
G1 Z0.200
G1 E0.80000 F2100.00000
G1 F1200.000
G1 X112.499 Y130.992 E0.02672
G1 X113.036 Y130.992 E0.01697
G1 X112.070 Y130.026 E0.04314
G1 X112.070 Y129.489 E0.01697
G1 X113.573 Y130.992 E0.06713
G1 X114.110 Y130.992 E0.01697
G1 X112.070 Y128.952 E0.09112
G1 X112.070 Y128.415 E0.01697
G1 X114.647 Y130.992 E0.11512
G1 X115.184 Y130.992 E0.01697
G1 X112.070 Y127.878 E0.13911
G1 X112.070 Y127.341 E0.01697
G1 X115.722 Y130.992 E0.16310
G1 X116.259 Y130.992 E0.01697
G1 X112.070 Y126.804 E0.18709
G1 X112.070 Y126.266 E0.01697
G1 X116.796 Y130.992 E0.21109
G1 X117.333 Y130.992 E0.01697
G1 X112.070 Y125.729 E0.23508
G1 X112.070 Y125.192 E0.01697
G1 X117.870 Y130.992 E0.25907
G1 X118.408 Y130.992 E0.01697
G1 X112.070 Y124.655 E0.28306
G1 X112.070 Y124.118 E0.01697
G1 X118.945 Y130.992 E0.30706
G1 X119.482 Y130.992 E0.01697
G1 X112.070 Y123.581 E0.33105
G1 X112.070 Y123.043 E0.01697
G1 X120.019 Y130.992 E0.35504
G1 X120.556 Y130.992 E0.01697
G1 X112.070 Y122.506 E0.37903
G1 X112.070 Y121.969 E0.01697
G1 X121.093 Y130.992 E0.40303
G1 X121.631 Y130.992 E0.01697
G1 X112.070 Y121.432 E0.42702
G1 X112.070 Y120.895 E0.01697
G1 X122.168 Y130.992 E0.45101
G1 X122.705 Y130.992 E0.01697
G1 X112.070 Y120.358 E0.47501
G1 X112.070 Y119.821 E0.01697
G1 X123.242 Y130.992 E0.49900
G1 X123.779 Y130.992 E0.01697
G1 X112.071 Y119.283 E0.52299
G1 X112.071 Y118.746 E0.01697
G1 X124.316 Y130.992 E0.54698
G1 X124.854 Y130.992 E0.01697
G1 X112.071 Y118.209 E0.57098
G1 X112.071 Y117.672 E0.01697
G1 X125.391 Y130.992 E0.59497
G1 X125.928 Y130.992 E0.01697
G1 X112.071 Y117.135 E0.61896
G1 X112.071 Y116.598 E0.01697
G1 X126.465 Y130.992 E0.64295
G1 X127.002 Y130.992 E0.01697
G1 X112.071 Y116.061 E0.66695
G1 X112.071 Y115.523 E0.01697
G1 X127.540 Y130.992 E0.69094
G1 X128.077 Y130.992 E0.01697
G1 X112.071 Y114.986 E0.71493
G1 X112.071 Y114.449 E0.01697
G1 X128.614 Y130.992 E0.73892
M73 Q1 S74
G1 X129.151 Y130.992 E0.01697
G1 X112.071 Y113.912 E0.76292
M73 P1 R72
G1 X112.071 Y113.375 E0.01697
G1 X129.858 Y131.162 E0.79449
G1 F8640.000
G1 X127.531 Y128.835 E-0.76000
G1 E-0.04000 F2100.00000
G1 Z0.600 F10800.000
G1 X138.100 Y129.197
