; generated by PrusaSlicer 2.2.0+ on 2021-05-19 at 19:25:36 UTC

; 

; external perimeters extrusion width = 0.45mm
; perimeters extrusion width = 0.45mm
; infill extrusion width = 0.45mm
; solid infill extrusion width = 0.45mm
; top infill extrusion width = 0.40mm
; support material extrusion width = 0.35mm
; first layer extrusion width = 0.42mm

M73 P0 R180
M73 Q0 S181
M201 X1000 Y1000 Z200 E5000 ; sets maximum accelerations, mm/sec^2
M203 X200 Y200 Z12 E120 ; sets maximum feedrates, mm/sec
M204 P1250 R1250 T1250 ; sets acceleration (P, T) and retract acceleration (R), mm/sec^2
M205 X8.00 Y8.00 Z0.40 E4.50 ; sets the jerk limits, mm/sec
M205 S0 T0 ; sets the minimum extruding and travel feed rate, mm/sec
M107
M862.3 P "MK3" ; printer model check
M862.1 P0.4 ; nozzle diameter check
M115 U3.9.3 ; tell printer latest fw version
G90 ; use absolute coordinates
M83 ; extruder relative mode
M104 S215 ; set extruder temp
M140 S60 ; set bed temp
M190 S60 ; wait for bed temp
M109 S215 ; wait for extruder temp
G28 W ; home all without mesh bed level
G80 ; mesh bed leveling
G1 Y-3.0 F1000.0 ; go outside print area
G92 E0.0
G1 X60.0 E9.0 F1000.0 ; intro line
M73 Q0 S181
M73 P0 R180
G1 X100.0 E12.5 F1000.0 ; intro line
G92 E0.0
M221 S95

; Don't change E values below. Excessive value can damage the printer.

M907 E538 ; set extruder motor current
G21 ; set units to millimeters
G90 ; use absolute coordinates
M83 ; use relative distances for extrusion
M900 K0.05 ; Filament gcode LA 1.5
M900 K30 ; Filament gcode LA 1.0
;BEFORE_LAYER_CHANGE
G92 E0.0
;0.2


G1 E-0.80000 F2100.00000
G1 Z0.400 F10800.000
;AFTER_LAYER_CHANGE
;0.2
G1 X73.410 Y69.717
G1 Z0.200
G1 E0.80000 F2100.00000
M204 S1000
G1 F1200.000
G1 X81.845 Y61.129 E0.37742
G1 X109.045 Y35.533 E1.17106
G1 X109.465 Y35.219 E0.01645
G1 X110.034 Y34.977 E0.01941
G1 X110.644 Y34.890 E0.01929
G1 X136.316 Y34.890 E0.80494
G1 X139.735 Y35.095 E0.10738
G1 X140.377 Y35.303 E0.02119
G1 X140.938 Y35.687 E0.02130
G1 X168.168 Y61.142 E1.16871
G1 X176.748 Y69.902 E0.38448
G1 X177.469 Y70.843 E0.03716
G1 X178.199 Y72.012 E0.04321
G1 X178.805 Y73.252 E0.04329
G1 X179.224 Y74.370 E0.03741
G1 X179.712 Y76.405 E0.06562
G1 X179.877 Y78.479 E0.06524
G1 X179.877 Y161.511 E2.60343
G1 X179.804 Y162.899 E0.04355
G1 X179.590 Y164.257 E0.04313
G1 X179.231 Y165.609 E0.04384
G1 X178.820 Y166.712 E0.03692
G1 X177.968 Y168.388 E0.05893
G1 X176.911 Y169.901 E0.05787
G1 X175.639 Y171.269 E0.05857
G1 X174.346 Y172.334 E0.05252
G1 X172.779 Y173.311 E0.05791
G1 X171.075 Y174.071 E0.05852
G1 X169.281 Y174.585 E0.05852
G1 X167.434 Y174.844 E0.05846
G1 X83.279 Y174.875 E2.63861
G1 X82.082 Y174.802 E0.03762
G1 X80.720 Y174.585 E0.04324
G1 X79.387 Y174.229 E0.04326
G1 X78.287 Y173.820 E0.03681
G1 X76.613 Y172.968 E0.05890
G1 X75.099 Y171.910 E0.05790
G1 X73.732 Y170.640 E0.05849
G1 X72.668 Y169.350 E0.05242
G1 X71.690 Y167.782 E0.05797
G1 X70.930 Y166.076 E0.05855
G1 X70.416 Y164.286 E0.05839
G1 X70.156 Y162.435 E0.05861
G1 X70.125 Y78.283 E2.63852
G1 X70.198 Y77.081 E0.03776
G1 X70.414 Y75.724 E0.04310
G1 X70.713 Y74.571 E0.03732
G1 X71.180 Y73.288 E0.04281
G1 X72.154 Y71.415 E0.06621
G1 X73.374 Y69.765 E0.06434
G1 F8640.000
G1 X75.679 Y67.415 E-0.76000
G1 E-0.04000 F2100.00000
G1 Z0.600 F10800.000
G1 X84.985 Y57.915
G1 Z0.200
G1 E0.80000 F2100.00000
G1 F1200.000
G1 X83.191 Y57.913 E0.05626
G1 X82.230 Y58.063 E0.03049
G1 X80.626 Y58.834 E0.05582
G1 X79.742 Y59.672 E0.03818
G1 X79.085 Y60.681 E0.03774
G1 X78.663 Y62.055 E0.04509
G1 X78.641 Y63.557 E0.04708
G1 X77.283 Y64.069 E0.04550
G1 X76.196 Y64.588 E0.03778
G1 X75.188 Y65.165 E0.03640
G1 X74.235 Y65.809 E0.03607
G1 X73.233 Y66.605 E0.04014
G1 X72.423 Y67.355 E0.03460
G1 X71.662 Y68.167 E0.03488
G1 X70.959 Y69.033 E0.03498
G1 X70.318 Y69.947 E0.03500
G1 X69.608 Y71.156 E0.04398
G1 X69.153 Y72.091 E0.03258
G1 X68.761 Y73.051 E0.03252
G1 X68.338 Y74.375 E0.04360
G1 X68.036 Y75.713 E0.04299
G1 X67.852 Y77.072 E0.04299
G1 X67.787 Y78.450 E0.04328
G1 X67.787 Y161.549 E2.60549
G1 X67.850 Y162.913 E0.04282
G1 X68.033 Y164.272 E0.04299
G1 X68.334 Y165.610 E0.04300
G1 X68.747 Y166.910 E0.04280
G1 X69.167 Y167.940 E0.03486
G1 X69.664 Y168.948 E0.03522
G1 X70.223 Y169.904 E0.03472
G1 X70.855 Y170.828 E0.03511
G1 X71.569 Y171.725 E0.03595
G1 X72.323 Y172.545 E0.03494
G1 X73.144 Y173.318 E0.03534
G1 X74.020 Y174.032 E0.03545
G1 X74.959 Y174.689 E0.03592
G1 X75.931 Y175.270 E0.03552
G1 X77.005 Y175.808 E0.03767
G1 X78.035 Y176.233 E0.03493
G1 X79.084 Y176.580 E0.03465
G1 X80.146 Y176.852 E0.03437
G1 X81.224 Y177.048 E0.03435
G1 X82.316 Y177.169 E0.03446
G1 X83.461 Y177.213 E0.03590
G1 X166.550 Y177.213 E2.60522
G1 X167.911 Y177.150 E0.04272
G1 X169.268 Y176.968 E0.04294
G1 X170.592 Y176.671 E0.04253
G1 X171.898 Y176.258 E0.04294
G1 X172.969 Y175.820 E0.03630
G1 X174.019 Y175.298 E0.03675
G1 X174.981 Y174.728 E0.03507
G1 X175.881 Y174.106 E0.03432
G1 X176.753 Y173.408 E0.03500
G1 X177.568 Y172.653 E0.03484
G1 X178.328 Y171.845 E0.03478
G1 X179.026 Y170.987 E0.03469
G1 X179.681 Y170.053 E0.03576
G1 X180.270 Y169.069 E0.03596
G1 X180.808 Y167.994 E0.03769
G1 X181.233 Y166.964 E0.03493
G1 X181.581 Y165.915 E0.03465
G1 X181.852 Y164.853 E0.03437
G1 X182.048 Y163.775 E0.03435
G1 X182.169 Y162.683 E0.03446
G1 X182.213 Y161.539 E0.03588
G1 X182.213 Y78.449 E2.60523
G1 X182.150 Y77.088 E0.04271
G1 X181.968 Y75.731 E0.04294
G1 X181.671 Y74.407 E0.04253
G1 X181.257 Y73.102 E0.04295
G1 X180.814 Y72.017 E0.03673
G1 X180.283 Y70.954 E0.03727
G1 X179.656 Y69.908 E0.03821
G1 X179.030 Y69.018 E0.03414
G1 X178.336 Y68.165 E0.03446
G1 X177.576 Y67.355 E0.03483
G1 X176.769 Y66.606 E0.03452
G1 X175.779 Y65.819 E0.03966
G1 X174.839 Y65.182 E0.03561
G1 X173.874 Y64.624 E0.03495
G1 X172.871 Y64.136 E0.03494
G1 X171.710 Y63.676 E0.03917
G1 X171.359 Y63.565 E0.01154
G1 X171.337 Y62.055 E0.04735
G1 X170.914 Y60.679 E0.04516
G1 X170.249 Y59.663 E0.03807
G1 X169.357 Y58.822 E0.03844
G1 X167.762 Y58.061 E0.05541
G1 X166.811 Y57.913 E0.03018
G1 X164.989 Y57.913 E0.05713
G1 X164.437 Y57.913 F10800.000
G1 F1200.000
G1 X144.126 Y57.912 E0.63683
G1 X142.225 Y57.971 E0.05964
G1 X141.189 Y58.283 E0.03391
G1 X140.284 Y58.779 E0.03237
G1 X139.713 Y59.293 E0.02408
G1 X139.713 Y57.471 E0.05712
G1 X140.095 Y57.463 E0.01196
G1 X141.001 Y57.275 E0.02902
G1 X142.267 Y56.626 E0.04461
G1 X143.431 Y55.446 E0.05197
G1 X143.959 Y54.436 E0.03572
G1 X144.201 Y53.485 E0.03077
G1 X144.228 Y39.020 E0.45353
G1 X144.228 Y38.505 F10800.000
G1 F1200.000
G1 X144.231 Y36.954 E0.04862
G1 X143.603 Y34.974 E0.06514
G1 X143.095 Y34.292 E0.02667
G1 X142.014 Y33.307 E0.04585
G1 X141.096 Y32.849 E0.03218
G1 X139.784 Y32.535 E0.04231
G1 X136.750 Y32.535 E0.09513
G1 X136.145 Y32.560 E0.01898
G1 X135.905 Y32.535 E0.00755
G1 X120.882 Y32.535 E0.47103
G1 X120.643 Y32.560 E0.00755
G1 X120.038 Y32.535 E0.01898
G1 X111.078 Y32.535 E0.28094
G1 X110.780 Y32.567 E0.00939
G1 X109.484 Y32.625 E0.04065
G1 X108.586 Y32.920 E0.02966
G1 X107.459 Y33.619 E0.04158
G1 X106.506 Y34.683 E0.04478
G1 X105.925 Y35.928 E0.04308
G1 X105.769 Y36.868 E0.02987
G1 X105.772 Y38.355 E0.04662
G1 X105.772 Y38.872 F10800.000
G1 F1200.000
G1 X105.798 Y53.257 E0.45105
G1 X106.024 Y54.213 E0.03078
G1 X106.568 Y55.311 E0.03843
G1 X107.516 Y56.363 E0.04439
G1 X108.607 Y57.064 E0.04068
G1 X109.645 Y57.409 E0.03428
G1 X110.283 Y57.451 E0.02007
G1 X110.281 Y59.260 E0.05673
G1 X109.894 Y58.914 E0.01627
G1 X108.941 Y58.337 E0.03495
G1 X107.643 Y57.952 E0.04243
G1 X85.534 Y57.916 E0.69320
G1 X85.134 Y58.293 F10800.000
G1 F1200.000
G1 X107.615 Y58.329 E0.70487
G1 X108.766 Y58.672 E0.03764
G1 X109.677 Y59.224 E0.03341
G1 X110.657 Y60.174 E0.04279
G1 X110.661 Y57.090 E0.09668
G1 X109.738 Y57.043 E0.02897
G1 X108.748 Y56.714 E0.03270
G1 X107.778 Y56.090 E0.03618
G1 X106.894 Y55.120 E0.04115
G1 X106.372 Y54.066 E0.03689
G1 X106.171 Y53.194 E0.02805
G1 X106.148 Y38.518 E0.46015
G1 X106.148 Y38.001 F10800.000
G1 F1200.000
G1 X106.146 Y36.882 E0.03508
G1 X106.278 Y36.063 E0.02600
G1 X106.836 Y34.868 E0.04134
G1 X107.720 Y33.893 E0.04128
G1 X108.763 Y33.254 E0.03836
G1 X109.575 Y32.992 E0.02675
G1 X110.808 Y32.944 E0.03871
G1 X111.089 Y32.912 E0.00884
G1 X120.034 Y32.912 E0.28047
G1 X120.656 Y32.938 E0.01952
G1 X120.893 Y32.912 E0.00748
G1 X135.894 Y32.912 E0.47035
G1 X136.132 Y32.938 E0.00748
G1 X136.754 Y32.912 E0.01952
G1 X139.761 Y32.912 E0.09428
G1 X140.985 Y33.210 E0.03951
G1 X141.821 Y33.631 E0.02934
G1 X142.826 Y34.556 E0.04283
G1 X143.281 Y35.173 E0.02402
G1 X143.854 Y36.983 E0.05953
G1 X143.852 Y38.153 E0.03670
G1 X143.851 Y38.668 F10800.000
G1 F1200.000
G1 X143.824 Y53.461 E0.46381
G1 X143.615 Y54.281 E0.02653
G1 X143.110 Y55.245 E0.03413
G1 X142.022 Y56.338 E0.04835
G1 X140.855 Y56.927 E0.04098
G1 X140.041 Y57.089 E0.02604
G1 X139.336 Y57.094 E0.02209
G1 X139.336 Y60.168 E0.09638
G1 X140.487 Y59.098 E0.04927
G1 X141.354 Y58.622 E0.03099
G1 X142.262 Y58.347 E0.02975
G1 X144.129 Y58.289 E0.05858
G1 X164.840 Y58.290 E0.64938
G1 X165.393 Y58.290 F10800.000
G1 F1200.000
G1 X166.798 Y58.290 E0.04406
G1 X167.626 Y58.413 E0.02625
G1 X169.168 Y59.149 E0.05357
G1 X169.947 Y59.889 E0.03369
G1 X170.561 Y60.816 E0.03488
G1 X170.969 Y62.140 E0.04341
G1 X170.983 Y63.747 E0.05040
G1 X171.119 Y63.885 F10800.000
G1 F1200.000
G1 X171.578 Y64.029 E0.01510
G1 X172.713 Y64.479 E0.03828
G1 X173.691 Y64.954 E0.03409
G1 X174.633 Y65.498 E0.03411
G1 X175.550 Y66.118 E0.03472
G1 X176.528 Y66.897 E0.03920
G1 X177.315 Y67.626 E0.03364
G1 X178.057 Y68.418 E0.03400
G1 X178.733 Y69.250 E0.03363
G1 X179.344 Y70.119 E0.03331
G1 X179.955 Y71.141 E0.03734
G1 X180.467 Y72.167 E0.03594
G1 X180.900 Y73.223 E0.03579
G1 X181.305 Y74.498 E0.04194
G1 X181.598 Y75.806 E0.04202
G1 X181.775 Y77.130 E0.04190
G1 X181.836 Y78.453 E0.04154
G1 X181.836 Y161.536 E2.60498
M73 Q0 S180
M73 P0 R179
G1 X181.793 Y162.648 E0.03491
G1 X181.676 Y163.714 E0.03363
G1 X181.485 Y164.766 E0.03352
G1 X181.220 Y165.803 E0.03355
G1 X180.882 Y166.827 E0.03381
G1 X180.468 Y167.832 E0.03408
G1 X179.943 Y168.882 E0.03680
G1 X179.368 Y169.842 E0.03510
G1 X178.729 Y170.754 E0.03492
G1 X178.048 Y171.592 E0.03384
G1 X177.307 Y172.381 E0.03395
G1 X176.512 Y173.118 E0.03400
G1 X175.661 Y173.799 E0.03416
G1 X174.783 Y174.407 E0.03349
G1 X173.844 Y174.963 E0.03421
G1 X172.820 Y175.473 E0.03588
G1 X171.776 Y175.901 E0.03536
G1 X170.502 Y176.305 E0.04193
G1 X169.194 Y176.598 E0.04201
G1 X167.869 Y176.775 E0.04190
G1 X166.546 Y176.836 E0.04154
G1 X83.464 Y176.836 E2.60496
G1 X82.351 Y176.793 E0.03493
G1 X81.285 Y176.676 E0.03363
G1 X80.233 Y176.485 E0.03352
G1 X79.196 Y176.220 E0.03355
G1 X78.172 Y175.882 E0.03381
G1 X77.167 Y175.468 E0.03408
G1 X76.118 Y174.943 E0.03679
G1 X75.169 Y174.376 E0.03466
G1 X74.253 Y173.735 E0.03506
G1 X73.397 Y173.039 E0.03459
G1 X72.596 Y172.284 E0.03450
G1 X71.859 Y171.485 E0.03409
G1 X71.154 Y170.598 E0.03552
G1 X70.538 Y169.696 E0.03425
G1 X69.999 Y168.775 E0.03347
G1 X69.514 Y167.791 E0.03438
G1 X69.104 Y166.789 E0.03395
G1 X68.700 Y165.519 E0.04179
G1 X68.406 Y164.213 E0.04197
G1 X68.227 Y162.887 E0.04196
G1 X68.164 Y161.544 E0.04215
G1 X68.164 Y78.455 E2.60521
G1 X68.228 Y77.098 E0.04260
G1 X68.408 Y75.772 E0.04196
G1 X68.704 Y74.467 E0.04196
G1 X69.113 Y73.186 E0.04214
G1 X69.500 Y72.239 E0.03209
G1 X69.944 Y71.328 E0.03176
G1 X70.640 Y70.145 E0.04305
G1 X71.256 Y69.265 E0.03367
G1 X71.942 Y68.419 E0.03415
G1 X72.684 Y67.627 E0.03405
G1 X73.473 Y66.896 E0.03371
G1 X74.464 Y66.109 E0.03968
G1 X75.394 Y65.481 E0.03516
G1 X76.364 Y64.925 E0.03508
G1 X77.440 Y64.412 E0.03737
G1 X78.443 Y64.022 E0.03373
G1 X78.871 Y63.889 E0.01406
G1 X79.017 Y63.739 F10800.000
G1 F1200.000
G1 X79.032 Y62.140 E0.05016
G1 X79.438 Y60.818 E0.04336
G1 X80.045 Y59.898 E0.03457
G1 X80.816 Y59.161 E0.03344
G1 X82.367 Y58.415 E0.05397
G1 X83.204 Y58.290 E0.02651
G1 X84.585 Y58.292 E0.04332
G1 X84.734 Y58.669 F10800.000
G1 F1200.000
G1 X107.587 Y58.706 E0.71653
G1 X108.591 Y59.006 E0.03284
G1 X109.463 Y59.535 E0.03197
G1 X110.114 Y60.173 E0.02858
G1 X110.567 Y60.830 E0.02504
G1 X110.724 Y61.241 E0.01379
G1 X111.033 Y61.184 E0.00983
G1 X111.038 Y56.727 E0.13976
G1 X109.831 Y56.676 E0.03789
G1 X108.890 Y56.363 E0.03111
G1 X108.038 Y55.817 E0.03173
G1 X107.220 Y54.928 E0.03788
G1 X106.720 Y53.919 E0.03530
G1 X106.543 Y53.132 E0.02529
G1 X106.525 Y38.164 E0.46931
G1 X106.524 Y37.647 F10800.000
G1 F1200.000
G1 X106.523 Y36.896 E0.02355
G1 X106.632 Y36.196 E0.02221
G1 X107.135 Y35.100 E0.03781
G1 X107.980 Y34.167 E0.03947
G1 X108.938 Y33.588 E0.03507
G1 X109.663 Y33.359 E0.02384
G1 X110.837 Y33.320 E0.03683
G1 X111.100 Y33.289 E0.00832
G1 X120.030 Y33.289 E0.27999
G1 X120.670 Y33.316 E0.02009
G1 X120.904 Y33.289 E0.00740
G1 X135.883 Y33.289 E0.46964
G1 X136.117 Y33.316 E0.00740
G1 X136.758 Y33.289 E0.02009
G1 X139.737 Y33.289 E0.09342
G1 X140.872 Y33.571 E0.03667
G1 X141.625 Y33.955 E0.02651
G1 X142.555 Y34.820 E0.03982
G1 X142.958 Y35.370 E0.02139
G1 X143.477 Y37.011 E0.05396
G1 X143.476 Y37.801 E0.02478
G1 X143.475 Y38.317 F10800.000
G1 F1200.000
G1 X143.453 Y53.393 E0.47269
G1 X143.270 Y54.126 E0.02371
G1 X142.790 Y55.044 E0.03248
G1 X141.778 Y56.049 E0.04470
G1 X140.757 Y56.562 E0.03584
G1 X139.986 Y56.716 E0.02465
G1 X138.959 Y56.715 E0.03219
G1 X138.959 Y61.206 E0.14081
G1 X139.268 Y61.263 E0.00984
G1 X139.433 Y60.830 E0.01453
G1 X139.890 Y60.168 E0.02521
G1 X140.691 Y59.416 E0.03445
G1 X141.485 Y58.976 E0.02846
G1 X142.300 Y58.723 E0.02674
G1 X144.132 Y58.666 E0.05749
G1 X165.244 Y58.667 E0.66194
G1 X165.796 Y58.667 F10800.000
G1 F1200.000
G1 X166.785 Y58.667 E0.03102
G1 X167.492 Y58.767 E0.02238
G1 X168.930 Y59.444 E0.04984
G1 X169.671 Y60.147 E0.03203
G1 X170.231 Y61.000 E0.03201
G1 X170.592 Y62.170 E0.03838
G1 X170.602 Y63.358 E0.03725
G1 X170.607 Y63.902 F10800.000
G1 F1200.000
G1 X170.609 Y64.122 E0.00688
G1 X170.916 Y64.217 E0.01007
G1 X171.706 Y64.485 F10800.000
G1 F1200.000
G1 X172.555 Y64.821 E0.02862
G1 X173.508 Y65.284 E0.03324
G1 X174.427 Y65.814 E0.03326
G1 X175.321 Y66.418 E0.03382
G1 X176.288 Y67.187 E0.03875
G1 X177.054 Y67.898 E0.03276
G1 X177.777 Y68.671 E0.03318
G1 X178.436 Y69.483 E0.03279
G1 X179.031 Y70.330 E0.03247
G1 X179.628 Y71.328 E0.03647
G1 X180.127 Y72.329 E0.03505
G1 X180.543 Y73.345 E0.03442
G1 X180.939 Y74.589 E0.04093
G1 X181.225 Y75.864 E0.04098
G1 X181.399 Y77.156 E0.04087
G1 X181.459 Y78.458 E0.04086
G1 X181.459 Y161.532 E2.60473
G1 X181.418 Y162.614 E0.03394
G1 X181.303 Y163.654 E0.03280
G1 X181.118 Y164.680 E0.03269
G1 X180.860 Y165.691 E0.03272
G1 X180.531 Y166.690 E0.03298
G1 X180.127 Y167.670 E0.03322
G1 X179.616 Y168.694 E0.03592
G1 X179.056 Y169.632 E0.03424
G1 X178.432 Y170.522 E0.03407
G1 X177.769 Y171.339 E0.03300
G1 X177.046 Y172.109 E0.03312
G1 X176.271 Y172.828 E0.03315
G1 X175.441 Y173.493 E0.03333
G1 X174.585 Y174.086 E0.03267
G1 X173.670 Y174.629 E0.03335
G1 X172.670 Y175.127 E0.03502
G1 X171.655 Y175.544 E0.03442
G1 X170.411 Y175.939 E0.04092
G1 X169.136 Y176.225 E0.04098
G1 X167.844 Y176.399 E0.04087
G1 X166.541 Y176.459 E0.04087
G1 X83.468 Y176.459 E2.60471
G1 X82.385 Y176.417 E0.03396
G1 X81.345 Y176.303 E0.03281
G1 X80.320 Y176.118 E0.03269
G1 X79.308 Y175.860 E0.03272
G1 X78.309 Y175.530 E0.03298
G1 X77.330 Y175.127 E0.03322
G1 X76.305 Y174.615 E0.03591
G1 X75.379 Y174.063 E0.03380
G1 X74.485 Y173.438 E0.03421
G1 X73.650 Y172.759 E0.03374
G1 X72.869 Y172.024 E0.03365
G1 X72.150 Y171.245 E0.03323
G1 X71.454 Y170.369 E0.03508
G1 X70.853 Y169.489 E0.03340
G1 X70.328 Y168.590 E0.03264
G1 X69.860 Y167.643 E0.03314
G1 X69.461 Y166.667 E0.03304
G1 X69.061 Y165.412 E0.04130
G1 X68.775 Y164.139 E0.04093
G1 X68.601 Y162.845 E0.04093
G1 X68.541 Y161.540 E0.04096
G1 X68.541 Y78.459 E2.60493
G1 X68.603 Y77.140 E0.04141
G1 X68.778 Y75.847 E0.04093
G1 X69.065 Y74.573 E0.04093
G1 X69.465 Y73.322 E0.04119
G1 X69.842 Y72.398 E0.03127
G1 X70.279 Y71.500 E0.03133
G1 X70.961 Y70.342 E0.04212
G1 X71.561 Y69.487 E0.03276
G1 X72.222 Y68.672 E0.03290
G1 X72.946 Y67.899 E0.03321
G1 X73.713 Y67.187 E0.03283
G1 X74.693 Y66.408 E0.03922
G1 X75.599 Y65.798 E0.03426
G1 X76.533 Y65.262 E0.03377
