; generated by PrusaSlicer 2.2.0+ on 2021-05-19 at 19:30:07 UTC

; 

; external perimeters extrusion width = 0.45mm
; perimeters extrusion width = 0.45mm
; infill extrusion width = 0.45mm
; solid infill extrusion width = 0.45mm
; top infill extrusion width = 0.40mm
; support material extrusion width = 0.35mm
; first layer extrusion width = 0.42mm

M73 P0 R49
M73 Q0 S50
M201 X1000 Y1000 Z200 E5000 ; sets maximum accelerations, mm/sec^2
M203 X200 Y200 Z12 E120 ; sets maximum feedrates, mm/sec
M204 P1250 R1250 T1250 ; sets acceleration (P, T) and retract acceleration (R), mm/sec^2
M205 X8.00 Y8.00 Z0.40 E4.50 ; sets the jerk limits, mm/sec
M205 S0 T0 ; sets the minimum extruding and travel feed rate, mm/sec
M107
M862.3 P "MK3" ; printer model check
M862.1 P0.4 ; nozzle diameter check
M115 U3.9.3 ; tell printer latest fw version
G90 ; use absolute coordinates
M83 ; extruder relative mode
M104 S215 ; set extruder temp
M140 S60 ; set bed temp
M190 S60 ; wait for bed temp
M109 S215 ; wait for extruder temp
G28 W ; home all without mesh bed level
G80 ; mesh bed leveling
G1 Y-3.0 F1000.0 ; go outside print area
G92 E0.0
G1 X60.0 E9.0 F1000.0 ; intro line
M73 Q0 S50
M73 P0 R49
G1 X100.0 E12.5 F1000.0 ; intro line
G92 E0.0
M221 S95

; Don't change E values below. Excessive value can damage the printer.

M907 E538 ; set extruder motor current
G21 ; set units to millimeters
G90 ; use absolute coordinates
M83 ; use relative distances for extrusion
M900 K0.05 ; Filament gcode LA 1.5
M900 K30 ; Filament gcode LA 1.0
;BEFORE_LAYER_CHANGE
G92 E0.0
;0.2


G1 E-0.80000 F2100.00000
G1 Z0.400 F10800.000
;AFTER_LAYER_CHANGE
;0.2
G1 X135.200 Y135.856
G1 Z0.200
G1 E0.80000 F2100.00000
M204 S1000
G1 F1200.000
G1 X114.970 Y135.709 E0.63430
G1 X114.222 Y135.511 E0.02426
G1 X113.577 Y135.084 E0.02426
G1 X113.104 Y134.472 E0.02426
G1 X112.852 Y133.740 E0.02426
G1 X108.685 Y93.421 E1.27091
G1 X108.661 Y90.880 E0.07969
G1 X108.979 Y88.602 E0.07211
G1 X109.338 Y87.213 E0.04496
G1 X109.814 Y85.868 E0.04475
G1 X110.407 Y84.567 E0.04483
G1 X111.097 Y83.345 E0.04399
G1 X111.762 Y82.358 E0.03731
G1 X112.651 Y81.244 E0.04470
G1 X113.625 Y80.218 E0.04436
G1 X114.692 Y79.274 E0.04467
G1 X115.841 Y78.424 E0.04481
G1 X117.059 Y77.677 E0.04480
G1 X118.338 Y77.039 E0.04480
G1 X119.648 Y76.522 E0.04417
G1 X120.782 Y76.175 E0.03718
G1 X122.177 Y75.868 E0.04478
G1 X123.575 Y75.685 E0.04421
G1 X125.002 Y75.623 E0.04480
G1 X126.426 Y75.685 E0.04468
G1 X127.846 Y75.872 E0.04490
G1 X129.240 Y76.181 E0.04478
G1 X130.600 Y76.610 E0.04472
G1 X131.923 Y77.158 E0.04489
G1 X133.190 Y77.818 E0.04480
G1 X134.395 Y78.586 E0.04480
G1 X135.529 Y79.456 E0.04480
G1 X136.579 Y80.419 E0.04468
G1 X137.547 Y81.474 E0.04490
G1 X138.414 Y82.605 E0.04467
G1 X139.181 Y83.807 E0.04471
G1 X139.839 Y85.071 E0.04470
G1 X140.390 Y86.401 E0.04511
G1 X140.818 Y87.756 E0.04457
G1 X141.131 Y89.173 E0.04550
G1 X141.366 Y91.410 E0.07052
G1 X141.315 Y93.426 E0.06324
G1 X137.162 Y133.812 E1.27295
G1 X136.949 Y134.537 E0.02367
G1 X136.520 Y135.157 E0.02367
G1 X135.918 Y135.612 E0.02367
G1 X135.256 Y135.837 E0.02190
; printing object AP10_HingeFixture_tube.stl id:0 copy 0
G1 F8640.000
G1 X131.965 Y135.816 E-0.76000
G1 E-0.04000 F2100.00000
G1 Z0.600 F10800.000
G1 X134.804 Y133.512
G1 Z0.200
G1 E0.80000 F2100.00000
G1 F1200.000
G1 X134.804 Y115.878 E0.55293
G1 X134.050 Y115.878 E0.02365
G1 X134.050 Y133.343 E0.54761
G1 X133.296 Y133.343 E0.02365
G1 X133.296 Y115.878 E0.54761
G1 X132.542 Y115.878 E0.02365
G1 X132.542 Y133.343 E0.54761
G1 X131.787 Y133.343 E0.02365
G1 X131.787 Y128.413 E0.15457
G1 X131.033 Y128.413 E0.02365
G1 X131.033 Y133.343 E0.15457
G1 X130.279 Y133.343 E0.02365
G1 X130.279 Y128.413 E0.15457
G1 X129.525 Y128.413 E0.02365
G1 X129.525 Y133.343 E0.15457
G1 X128.771 Y133.343 E0.02365
G1 X128.771 Y128.413 E0.15457
G1 X128.017 Y128.413 E0.02365
G1 X128.017 Y133.343 E0.15457
G1 X127.262 Y133.343 E0.02365
G1 X127.262 Y128.413 E0.15457
G1 X126.508 Y128.413 E0.02365
G1 X126.508 Y133.343 E0.15457
G1 X125.754 Y133.343 E0.02365
G1 X125.754 Y128.413 E0.15457
G1 X125.000 Y128.413 E0.02365
G1 X125.000 Y133.343 E0.15457
G1 X124.246 Y133.343 E0.02365
G1 X124.246 Y128.413 E0.15457
G1 X123.492 Y128.413 E0.02365
G1 X123.492 Y133.343 E0.15457
G1 X122.738 Y133.343 E0.02365
G1 X122.738 Y128.413 E0.15457
G1 X121.983 Y128.413 E0.02365
G1 X121.983 Y133.343 E0.15457
G1 X121.229 Y133.343 E0.02365
G1 X121.229 Y128.413 E0.15457
G1 X120.475 Y128.413 E0.02365
G1 X120.475 Y133.343 E0.15457
G1 X119.721 Y133.343 E0.02365
G1 X119.721 Y128.413 E0.15457
G1 X118.967 Y128.413 E0.02365
G1 X118.967 Y133.343 E0.15457
G1 X118.213 Y133.343 E0.02365
G1 X118.213 Y128.413 E0.15457
G1 X117.737 Y128.413 E0.01492
G1 X117.737 Y123.115 E0.16613
G1 X118.213 Y123.115 E0.01492
G1 X118.213 Y115.878 E0.22691
G1 X117.458 Y115.878 E0.02365
G1 X117.458 Y133.343 E0.54761
G1 X116.704 Y133.343 E0.02365
G1 X116.704 Y115.878 E0.54761
G1 X115.950 Y115.878 E0.02365
G1 X115.950 Y133.343 E0.54761
G1 X115.196 Y133.343 E0.02365
G1 X115.196 Y115.708 E0.55293
G1 F8640.000
G1 X115.196 Y118.999 E-0.76000
G1 E-0.04000 F2100.00000
G1 Z0.600 F10800.000
G1 X123.492 Y115.708
G1 Z0.200
G1 E0.80000 F2100.00000
G1 F1200.000
G1 X123.492 Y123.115 E0.23223
G1 X124.246 Y123.115 E0.02365
G1 X124.246 Y115.878 E0.22691
G1 X125.000 Y115.878 E0.02365
G1 X125.000 Y123.115 E0.22691
G1 X125.754 Y123.115 E0.02365
G1 X125.754 Y115.878 E0.22691
G1 X126.508 Y115.878 E0.02365
G1 X126.508 Y123.284 E0.23223
G1 X127.262 Y125.298 F10800.000
G1 F1200.000
G1 X127.262 Y123.823 E0.04624
G1 X128.017 Y123.823 E0.02365
G1 X128.017 Y125.128 E0.04092
G1 X128.771 Y125.128 E0.02365
G1 X128.771 Y123.823 E0.04092
G1 X129.525 Y123.823 E0.02365
G1 X129.525 Y125.128 E0.04092
G1 X130.279 Y125.128 E0.02365
G1 X130.279 Y123.823 E0.04092
G1 X131.033 Y123.823 E0.02365
G1 X131.033 Y125.206 E0.04335
G1 X131.787 Y123.284 F10800.000
G1 F1200.000
G1 X131.787 Y115.708 E0.23755
G1 F8640.000
G1 X131.787 Y118.999 E-0.76000
G1 E-0.04000 F2100.00000
G1 Z0.600 F10800.000
G1 X131.592 Y128.209
G1 Z0.200
G1 E0.80000 F2100.00000
G1 F1200.000
G1 X131.592 Y123.457 E0.12135
G1 X131.379 Y123.457 E0.00545
G1 X131.379 Y124.587 E0.02887
G1 X131.348 Y124.617 E0.00109
G1 X131.348 Y125.134 E0.01320
G1 X131.085 Y125.398 E0.00952
G1 X131.085 Y128.071 E0.06825
G1 X130.578 Y128.071 E0.01295
G1 X130.578 Y125.470 E0.06640
G1 X130.071 Y125.470 E0.01295
G1 X130.071 Y128.071 E0.06640
G1 X129.564 Y128.071 E0.01295
G1 X129.564 Y125.470 E0.06640
G1 X129.057 Y125.470 E0.01295
G1 X129.057 Y128.071 E0.06640
G1 X128.550 Y128.071 E0.01295
G1 X128.550 Y125.470 E0.06640
G1 X128.042 Y125.470 E0.01295
G1 X128.042 Y128.071 E0.06640
G1 X127.535 Y128.071 E0.01295
G1 X127.535 Y125.470 E0.06640
G1 X127.028 Y125.470 E0.01295
G1 X127.028 Y128.071 E0.06640
G1 X126.521 Y128.071 E0.01295
G1 X126.521 Y123.457 E0.11782
G1 X126.014 Y123.457 E0.01295
G1 X126.014 Y128.071 E0.11782
G1 X125.507 Y128.071 E0.01295
G1 X125.507 Y123.457 E0.11782
G1 X125.000 Y123.457 E0.01295
G1 X125.000 Y128.071 E0.11782
G1 X124.493 Y128.071 E0.01295
G1 X124.493 Y123.457 E0.11782
G1 X123.986 Y123.457 E0.01295
G1 X123.986 Y128.071 E0.11782
G1 X123.479 Y128.071 E0.01295
G1 X123.479 Y123.457 E0.11782
G1 X123.379 Y123.457 E0.00256
G1 X123.379 Y124.587 E0.02887
G1 X123.349 Y124.617 E0.00107
G1 X123.348 Y125.135 E0.01321
G1 X123.013 Y125.470 E0.01212
G1 X122.972 Y125.470 E0.00104
G1 X122.972 Y128.071 E0.06640
G1 X122.465 Y128.071 E0.01295
G1 X122.465 Y125.470 E0.06640
G1 X121.958 Y125.470 E0.01295
G1 X121.958 Y128.071 E0.06640
G1 X121.450 Y128.071 E0.01295
G1 X121.450 Y125.470 E0.06640
G1 X120.943 Y125.470 E0.01295
G1 X120.943 Y128.071 E0.06640
G1 X120.436 Y128.071 E0.01295
G1 X120.436 Y125.470 E0.06640
G1 X119.929 Y125.470 E0.01295
G1 X119.929 Y128.071 E0.06640
G1 X119.422 Y128.071 E0.01295
G1 X119.422 Y125.470 E0.06640
G1 X118.987 Y125.470 E0.01110
G1 X118.915 Y125.398 E0.00261
G1 X118.915 Y128.071 E0.06825
G1 X118.408 Y128.071 E0.01295
G1 X118.408 Y123.318 E0.12135
G1 X118.967 Y125.206 F10800.000
G1 F1200.000
G1 X118.967 Y123.823 E0.04335
G1 X119.721 Y123.823 E0.02365
G1 X119.721 Y125.128 E0.04092
G1 X120.475 Y125.128 E0.02365
G1 X120.475 Y123.823 E0.04092
G1 X121.229 Y123.823 E0.02365
G1 X121.229 Y125.128 E0.04092
G1 X121.983 Y125.128 E0.02365
G1 X121.983 Y123.823 E0.04092
G1 X122.738 Y123.823 E0.02365
G1 X122.738 Y125.298 E0.04624
G1 F8640.000
G1 X122.738 Y123.823 E-0.34051
G1 X121.983 Y123.823 E-0.17414
G1 X121.983 Y124.886 E-0.24535
G1 E-0.04000 F2100.00000
G1 Z0.600 F10800.000
G1 X124.253 Y102.761
G1 Z0.200
G1 E0.80000 F2100.00000
G1 F1200.000
G1 X123.685 Y102.707 E0.01787
G1 X123.122 Y102.623 E0.01787
G1 X122.213 Y102.421 E0.02919
G1 X121.667 Y102.259 E0.01787
G1 X121.135 Y102.071 E0.01768
G1 X120.612 Y101.855 E0.01773
G1 X120.098 Y101.609 E0.01787
G1 X119.288 Y101.151 E0.02919
G1 X118.813 Y100.836 E0.01787
G1 X118.359 Y100.500 E0.01771
G1 X117.924 Y100.142 E0.01768
G1 X117.503 Y99.756 E0.01790
G1 X116.862 Y99.081 E0.02919
G1 X116.500 Y98.641 E0.01787
G1 X116.161 Y98.183 E0.01787
G1 X115.660 Y97.398 E0.02919
G1 X115.388 Y96.897 E0.01787
G1 X115.145 Y96.388 E0.01771
G1 X114.929 Y95.866 E0.01771
G1 X114.741 Y95.333 E0.01771
G1 X114.580 Y94.792 E0.01771
G1 X114.447 Y94.238 E0.01787
G1 X114.294 Y93.320 E0.02919
G1 X114.239 Y92.753 E0.01786
G1 X114.214 Y92.183 E0.01787
G1 X114.239 Y91.253 E0.02919
G1 X114.293 Y90.685 E0.01787
G1 X114.377 Y90.122 E0.01787
G1 X114.579 Y89.213 E0.02919
G1 X114.741 Y88.667 E0.01787
G1 X114.929 Y88.134 E0.01771
G1 X115.145 Y87.612 E0.01771
G1 X115.391 Y87.098 E0.01787
G1 X115.849 Y86.288 E0.02919
G1 X116.164 Y85.813 E0.01787
G1 X116.500 Y85.359 E0.01771
G1 X116.859 Y84.923 E0.01771
G1 X117.244 Y84.503 E0.01787
G1 X117.919 Y83.862 E0.02919
G1 X118.359 Y83.500 E0.01787
G1 X118.817 Y83.161 E0.01787
G1 X119.602 Y82.660 E0.02919
G1 X120.103 Y82.388 E0.01787
G1 X120.612 Y82.145 E0.01771
G1 X121.134 Y81.929 E0.01771
G1 X121.667 Y81.741 E0.01771
G1 X122.208 Y81.580 E0.01771
G1 X122.762 Y81.447 E0.01787
G1 X123.680 Y81.294 E0.02919
G1 X124.247 Y81.239 E0.01786
G1 X124.817 Y81.214 E0.01787
G1 X125.747 Y81.239 E0.02919
G1 X126.315 Y81.293 E0.01787
G1 X126.878 Y81.377 E0.01787
G1 X127.787 Y81.579 E0.02919
G1 X128.333 Y81.741 E0.01787
G1 X128.866 Y81.929 E0.01771
G1 X129.388 Y82.145 E0.01771
G1 X129.902 Y82.391 E0.01787
G1 X130.712 Y82.849 E0.02919
G1 X131.187 Y83.164 E0.01787
G1 X131.641 Y83.500 E0.01771
G1 X132.077 Y83.859 E0.01771
G1 X132.497 Y84.244 E0.01787
G1 X133.138 Y84.919 E0.02919
G1 X133.500 Y85.359 E0.01787
G1 X133.839 Y85.817 E0.01787
G1 X134.340 Y86.603 E0.02922
G1 X134.612 Y87.103 E0.01784
G1 X134.855 Y87.612 E0.01771
G1 X135.071 Y88.135 E0.01773
G1 X135.259 Y88.667 E0.01768
G1 X135.420 Y89.208 E0.01771
G1 X135.553 Y89.762 E0.01787
G1 X135.706 Y90.680 E0.02919
G1 X135.761 Y91.247 E0.01786
G1 X135.786 Y91.817 E0.01787
G1 X135.761 Y92.747 E0.02919
G1 X135.707 Y93.315 E0.01787
G1 X135.623 Y93.878 E0.01787
G1 X135.421 Y94.787 E0.02919
G1 X135.259 Y95.333 E0.01787
G1 X135.071 Y95.866 E0.01771
G1 X134.855 Y96.388 E0.01771
G1 X134.609 Y96.902 E0.01787
G1 X134.151 Y97.712 E0.02919
G1 X133.836 Y98.187 E0.01787
G1 X133.500 Y98.641 E0.01771
G1 X133.141 Y99.077 E0.01771
G1 X132.756 Y99.497 E0.01787
G1 X132.081 Y100.138 E0.02919
G1 X131.641 Y100.500 E0.01787
G1 X131.183 Y100.839 E0.01787
G1 X130.398 Y101.340 E0.02919
G1 X129.897 Y101.612 E0.01787
G1 X129.388 Y101.855 E0.01771
G1 X128.866 Y102.071 E0.01771
G1 X128.333 Y102.259 E0.01771
G1 X127.792 Y102.420 E0.01771
G1 X127.238 Y102.553 E0.01787
G1 X126.320 Y102.706 E0.02919
G1 X125.753 Y102.761 E0.01786
G1 X125.183 Y102.786 E0.01787
G1 X124.313 Y102.763 E0.02731
G1 X124.322 Y102.386 F10800.000
G1 F1200.000
G1 X123.731 Y102.333 E0.01861
G1 X123.190 Y102.252 E0.01715
G1 X122.307 Y102.056 E0.02836
G1 X121.783 Y101.901 E0.01714
G1 X121.270 Y101.719 E0.01706
G1 X120.766 Y101.510 E0.01711
G1 X120.272 Y101.275 E0.01715
G1 X119.485 Y100.829 E0.02836
G1 X119.029 Y100.527 E0.01715
G1 X118.591 Y100.203 E0.01709
G1 X118.171 Y99.857 E0.01706
G1 X117.767 Y99.487 E0.01717
G1 X117.145 Y98.831 E0.02836
G1 X116.797 Y98.409 E0.01715
G1 X116.471 Y97.970 E0.01715
G1 X115.985 Y97.207 E0.02836
G1 X115.725 Y96.726 E0.01715
G1 X115.490 Y96.234 E0.01709
G1 X115.281 Y95.731 E0.01709
G1 X115.099 Y95.217 E0.01709
G1 X114.945 Y94.694 E0.01709
G1 X114.817 Y94.163 E0.01715
G1 X114.668 Y93.270 E0.02836
G1 X114.615 Y92.726 E0.01714
G1 X114.591 Y92.180 E0.01715
G1 X114.615 Y91.276 E0.02836
G1 X114.667 Y90.731 E0.01714
G1 X114.748 Y90.190 E0.01715
G1 X114.944 Y89.307 E0.02836
G1 X115.099 Y88.783 E0.01714
G1 X115.281 Y88.269 E0.01709
G1 X115.490 Y87.766 E0.01709
G1 X115.725 Y87.272 E0.01715
G1 X116.171 Y86.485 E0.02836
G1 X116.473 Y86.029 E0.01715
G1 X116.797 Y85.591 E0.01709
G1 X117.143 Y85.170 E0.01709
G1 X117.513 Y84.767 E0.01714
G1 X118.169 Y84.145 E0.02836
G1 X118.591 Y83.797 E0.01715
G1 X119.030 Y83.471 E0.01715
G1 X119.793 Y82.985 E0.02836
G1 X120.274 Y82.725 E0.01715
G1 X120.766 Y82.490 E0.01709
G1 X121.269 Y82.281 E0.01709
G1 X121.783 Y82.099 E0.01709
G1 X122.306 Y81.945 E0.01709
G1 X122.837 Y81.817 E0.01715
G1 X123.730 Y81.668 E0.02836
G1 X124.274 Y81.615 E0.01714
G1 X124.820 Y81.591 E0.01715
G1 X125.724 Y81.615 E0.02836
G1 X126.269 Y81.667 E0.01714
G1 X126.810 Y81.748 E0.01715
G1 X127.693 Y81.944 E0.02836
G1 X128.217 Y82.099 E0.01714
G1 X128.731 Y82.281 E0.01709
G1 X129.234 Y82.490 E0.01709
G1 X129.728 Y82.725 E0.01715
G1 X130.515 Y83.171 E0.02836
G1 X130.971 Y83.473 E0.01715
G1 X131.409 Y83.797 E0.01709
G1 X131.830 Y84.143 E0.01709
G1 X132.233 Y84.513 E0.01714
G1 X132.855 Y85.169 E0.02836
G1 X133.203 Y85.591 E0.01715
G1 X133.529 Y86.030 E0.01715
G1 X134.015 Y86.794 E0.02839
G1 X134.275 Y87.274 E0.01712
G1 X134.510 Y87.766 E0.01709
G1 X134.719 Y88.270 E0.01711
G1 X134.901 Y88.783 E0.01706
G1 X135.055 Y89.306 E0.01709
G1 X135.183 Y89.837 E0.01715
G1 X135.332 Y90.730 E0.02836
G1 X135.385 Y91.274 E0.01714
G1 X135.409 Y91.820 E0.01715
G1 X135.385 Y92.724 E0.02836
G1 X135.333 Y93.269 E0.01714
G1 X135.252 Y93.810 E0.01715
G1 X135.056 Y94.693 E0.02836
G1 X134.901 Y95.217 E0.01714
G1 X134.719 Y95.731 E0.01709
G1 X134.510 Y96.234 E0.01709
G1 X134.275 Y96.728 E0.01715
G1 X133.829 Y97.515 E0.02836
G1 X133.527 Y97.971 E0.01715
G1 X133.203 Y98.409 E0.01709
G1 X132.857 Y98.830 E0.01709
G1 X132.487 Y99.233 E0.01714
G1 X131.831 Y99.855 E0.02836
G1 X131.409 Y100.203 E0.01715
G1 X130.970 Y100.529 E0.01715
G1 X130.207 Y101.015 E0.02836
G1 X129.726 Y101.275 E0.01715
G1 X129.234 Y101.510 E0.01709
G1 X128.731 Y101.719 E0.01709
G1 X128.217 Y101.901 E0.01709
G1 X127.694 Y102.055 E0.01709
G1 X127.163 Y102.183 E0.01715
G1 X126.270 Y102.332 E0.02836
G1 X125.726 Y102.385 E0.01714
G1 X125.180 Y102.409 E0.01715
G1 X124.382 Y102.388 E0.02501
G1 X124.102 Y102.720 F10800.000
G1 F8640.000
G1 X123.731 Y102.333 E-0.15087
G1 X123.190 Y102.252 E-0.12627
G1 X122.307 Y102.056 E-0.20886
G1 X121.783 Y101.901 E-0.12626
G1 X121.270 Y101.719 E-0.12565
G1 X121.182 Y101.682 E-0.02209
G1 E-0.04000 F2100.00000
G1 Z0.600 F10800.000
G1 X130.213 Y104.159
G1 Z0.200
G1 E0.80000 F2100.00000
G1 F1200.000
G1 X130.213 Y122.623 E0.57892
G1 X127.787 Y122.623 E0.07606
G1 X127.787 Y107.981 E0.45907
G1 X127.767 Y107.653 E0.01032
G1 X127.667 Y107.185 E0.01500
G1 X127.485 Y106.734 E0.01525
G1 X127.226 Y106.319 E0.01533
G1 X126.867 Y105.927 E0.01670
G1 X126.439 Y105.610 E0.01669
G1 X126.000 Y105.396 E0.01533
G1 X125.530 Y105.261 E0.01533
G1 X125.000 Y105.210 E0.01668
G1 X124.470 Y105.261 E0.01668
G1 X124.000 Y105.396 E0.01533
G1 X123.561 Y105.610 E0.01533
G1 X123.133 Y105.927 E0.01669
G1 X122.774 Y106.319 E0.01668
G1 X122.515 Y106.733 E0.01532
G1 X122.333 Y107.184 E0.01525
G1 X122.233 Y107.652 E0.01500
G1 X122.213 Y107.981 E0.01033
G1 X122.213 Y122.623 E0.45908
G1 X119.787 Y122.623 E0.07606
G1 X119.787 Y104.162 E0.57881
G1 X118.592 Y103.555 E0.04204
G1 X117.996 Y103.204 E0.02168
G1 X117.616 Y102.957 E0.01422
G1 X116.861 Y102.409 E0.02924
G1 X116.509 Y102.123 E0.01422
G1 X115.991 Y101.665 E0.02169
G1 X115.335 Y101.009 E0.02907
G1 X114.590 Y100.137 E0.03598
G1 X113.922 Y99.200 E0.03606
