; generated by PrusaSlicer 2.2.0+ on 2021-05-22 at 11:43:01 UTC

; 

; external perimeters extrusion width = 0.45mm
; perimeters extrusion width = 0.45mm
; infill extrusion width = 0.45mm
; solid infill extrusion width = 0.45mm
; top infill extrusion width = 0.40mm
; support material extrusion width = 0.35mm
; first layer extrusion width = 0.42mm

M73 P0 R173
M73 Q0 S176
M201 X1000 Y1000 Z200 E5000 ; sets maximum accelerations, mm/sec^2
M203 X200 Y200 Z12 E120 ; sets maximum feedrates, mm/sec
M204 P1250 R1250 T1250 ; sets acceleration (P, T) and retract acceleration (R), mm/sec^2
M205 X8.00 Y8.00 Z0.40 E4.50 ; sets the jerk limits, mm/sec
M205 S0 T0 ; sets the minimum extruding and travel feed rate, mm/sec
M107
M862.3 P "MK3" ; printer model check
M862.1 P0.4 ; nozzle diameter check
M115 U3.9.3 ; tell printer latest fw version
G90 ; use absolute coordinates
M83 ; extruder relative mode
M104 S215 ; set extruder temp
M140 S60 ; set bed temp
M190 S60 ; wait for bed temp
M109 S215 ; wait for extruder temp
G28 W ; home all without mesh bed level
G80 ; mesh bed leveling
G1 Y-3.0 F1000.0 ; go outside print area
G92 E0.0
G1 X60.0 E9.0 F1000.0 ; intro line
M73 Q0 S176
M73 P0 R173
G1 X100.0 E12.5 F1000.0 ; intro line
G92 E0.0
M221 S95

; Don't change E values below. Excessive value can damage the printer.

M907 E538 ; set extruder motor current
G21 ; set units to millimeters
G90 ; use absolute coordinates
M83 ; use relative distances for extrusion
M900 K0.05 ; Filament gcode LA 1.5
M900 K30 ; Filament gcode LA 1.0
;BEFORE_LAYER_CHANGE
G92 E0.0
;0.2


G1 E-0.80000 F2100.00000
G1 Z0.400 F10800.000
;AFTER_LAYER_CHANGE
;0.2
G1 X109.814 Y32.743
G1 Z0.200
G1 E0.80000 F2100.00000
M204 S1000
G1 F1200.000
G1 X110.674 Y32.583 E0.02743
G1 X139.370 Y32.753 E0.89975
G1 X139.967 Y32.840 E0.01894
G1 X140.524 Y33.075 E0.01894
G1 X140.948 Y33.390 E0.01657
G1 X168.165 Y58.832 E1.16816
G1 X177.772 Y69.107 E0.44105
G1 X179.050 Y70.866 E0.06818
G1 X180.150 Y72.979 E0.07470
G1 X180.630 Y74.264 E0.04299
G1 X181.041 Y75.801 E0.04989
G1 X181.290 Y77.368 E0.04977
G1 X181.375 Y78.738 E0.04303
G1 X181.377 Y161.000 E2.57926
G1 X181.321 Y162.320 E0.04142
G1 X180.984 Y164.454 E0.06773
G1 X180.365 Y166.488 E0.06668
G1 X179.460 Y168.436 E0.06734
G1 X178.443 Y170.035 E0.05942
G1 X177.065 Y171.679 E0.06725
G1 X175.485 Y173.103 E0.06669
G1 X173.903 Y174.190 E0.06020
G1 X172.017 Y175.151 E0.06634
G1 X170.735 Y175.630 E0.04292
G1 X169.198 Y176.041 E0.04990
G1 X167.628 Y176.291 E0.04985
G1 X166.259 Y176.375 E0.04298
G1 X84.000 Y176.377 E2.57918
G1 X82.677 Y176.321 E0.04151
G1 X80.544 Y175.984 E0.06773
G1 X78.509 Y175.364 E0.06668
G1 X76.565 Y174.460 E0.06722
G1 X74.964 Y173.442 E0.05949
G1 X73.320 Y172.063 E0.06728
G1 X71.897 Y170.486 E0.06659
G1 X70.810 Y168.904 E0.06021
G1 X69.851 Y167.021 E0.06626
G1 X69.369 Y165.732 E0.04313
G1 X68.957 Y164.186 E0.05016
G1 X68.707 Y162.609 E0.05007
G1 X68.623 Y161.014 E0.05010
G1 X68.623 Y78.979 E2.57212
G1 X68.809 Y76.616 E0.07432
G1 X69.293 Y74.512 E0.06771
G1 X69.749 Y73.225 E0.04281
G1 X70.421 Y71.785 E0.04983
G1 X71.113 Y70.612 E0.04270
G1 X72.041 Y69.334 E0.04951
G1 X81.830 Y58.838 E0.45002
G1 X109.070 Y33.203 E1.17282
G1 X109.763 Y32.774 E0.02555
G1 F8640.000
G1 X110.674 Y32.583 E-0.21498
G1 X113.034 Y32.597 E-0.54502
G1 E-0.04000 F2100.00000
G1 Z0.600 F10800.000
G1 X78.442 Y62.193
G1 Z0.200
G1 E0.80000 F2100.00000
G1 F1200.000
G1 X77.338 Y62.587 E0.03676
G1 X76.188 Y63.102 E0.03951
G1 X74.922 Y63.790 E0.04518
G1 X73.865 Y64.473 E0.03944
G1 X72.861 Y65.227 E0.03938
G1 X71.769 Y66.188 E0.04561
G1 X70.842 Y67.141 E0.04168
G1 X70.043 Y68.092 E0.03894
G1 X69.303 Y69.112 E0.03951
G1 X68.469 Y70.481 E0.05028
G1 X67.899 Y71.617 E0.03984
G1 X67.393 Y72.838 E0.04145
G1 X66.977 Y74.101 E0.04170
G1 X66.657 Y75.398 E0.04188
G1 X66.459 Y76.534 E0.03615
G1 X66.336 Y77.679 E0.03612
G1 X66.287 Y78.960 E0.04018
G1 X66.287 Y161.049 E2.57386
G1 X66.358 Y162.596 E0.04856
G1 X66.459 Y163.468 E0.02751
G1 X66.603 Y164.333 E0.02752
G1 X66.940 Y165.765 E0.04610
G1 X67.274 Y166.831 E0.03502
G1 X67.610 Y167.717 E0.02974
G1 X68.044 Y168.693 E0.03350
G1 X68.615 Y169.779 E0.03844
G1 X69.264 Y170.829 E0.03871
G1 X69.986 Y171.834 E0.03881
G1 X70.776 Y172.785 E0.03877
G1 X71.627 Y173.675 E0.03860
G1 X72.536 Y174.503 E0.03855
G1 X73.295 Y175.113 E0.03052
G1 X74.292 Y175.816 E0.03827
G1 X75.350 Y176.458 E0.03881
G1 X76.448 Y177.023 E0.03872
G1 X77.584 Y177.511 E0.03877
G1 X78.750 Y177.918 E0.03871
G1 X79.941 Y178.242 E0.03870
G1 X81.153 Y178.483 E0.03874
G1 X82.375 Y178.639 E0.03863
G1 X83.953 Y178.713 E0.04954
G1 X166.529 Y178.705 E2.58910
G1 X167.658 Y178.635 E0.03548
G1 X169.126 Y178.435 E0.04645
G1 X170.108 Y178.230 E0.03145
G1 X171.579 Y177.812 E0.04795
G1 X172.970 Y177.285 E0.04666
G1 X174.317 Y176.639 E0.04684
G1 X175.600 Y175.886 E0.04663
G1 X176.821 Y175.024 E0.04685
G1 X178.150 Y173.890 E0.05480
G1 X179.162 Y172.855 E0.04537
G1 X180.083 Y171.745 E0.04523
G1 X181.077 Y170.299 E0.05503
G1 X181.803 Y169.003 E0.04658
G1 X182.153 Y168.270 E0.02544
G1 X182.410 Y167.668 E0.02055
G1 X182.723 Y166.841 E0.02771
G1 X182.934 Y166.198 E0.02122
G1 X183.304 Y164.786 E0.04576
G1 X183.590 Y163.088 E0.05399
G1 X183.684 Y162.019 E0.03367
G1 X183.713 Y161.030 E0.03102
G1 X183.711 Y78.705 E2.58123
G1 X183.628 Y77.268 E0.04516
G1 X183.484 Y76.159 E0.03506
G1 X183.301 Y75.201 E0.03057
G1 X182.975 Y73.941 E0.04081
G1 X182.732 Y73.185 E0.02491
G1 X182.386 Y72.273 E0.03056
G1 X181.882 Y71.157 E0.03841
G1 X181.316 Y70.103 E0.03750
G1 X180.681 Y69.090 E0.03749
G1 X179.912 Y68.036 E0.04091
G1 X179.131 Y67.112 E0.03792
G1 X178.280 Y66.234 E0.03833
G1 X177.373 Y65.420 E0.03822
G1 X176.411 Y64.669 E0.03828
G1 X175.376 Y63.972 E0.03910
G1 X174.329 Y63.367 E0.03791
G1 X173.245 Y62.836 E0.03788
G1 X172.112 Y62.374 E0.03836
G1 X171.568 Y62.195 E0.01794
G1 X171.365 Y61.979 F10800.000
G1 F1200.000
G1 X171.351 Y59.832 E0.06732
G1 X170.900 Y58.345 E0.04870
G1 X170.234 Y57.339 E0.03785
G1 X169.328 Y56.493 E0.03888
G1 X167.750 Y55.750 E0.05467
G1 X166.811 Y55.606 E0.02979
G1 X164.989 Y55.605 E0.05712
G1 X164.437 Y55.605 F10800.000
G1 F1200.000
G1 X144.126 Y55.605 E0.63683
G1 X142.223 Y55.664 E0.05972
G1 X141.123 Y56.006 E0.03612
G1 X140.164 Y56.559 E0.03469
G1 X139.718 Y56.960 E0.01881
G1 X139.717 Y55.164 E0.05629
G1 X140.095 Y55.156 E0.01186
G1 X141.001 Y54.968 E0.02902
G1 X142.267 Y54.319 E0.04461
G1 X143.431 Y53.139 E0.05197
G1 X143.959 Y52.129 E0.03573
G1 X144.207 Y51.132 E0.03219
G1 X144.228 Y36.714 E0.45209
G1 X144.229 Y36.198 F10800.000
G1 F1200.000
G1 X144.231 Y34.647 E0.04863
G1 X143.603 Y32.667 E0.06514
G1 X143.095 Y31.985 E0.02667
G1 X142.014 Y31.000 E0.04585
G1 X141.096 Y30.542 E0.03218
G1 X139.784 Y30.228 E0.04231
G1 X111.078 Y30.228 E0.90006
G1 X110.780 Y30.260 E0.00939
G1 X109.484 Y30.318 E0.04065
G1 X108.586 Y30.613 E0.02966
G1 X107.457 Y31.314 E0.04165
G1 X106.502 Y32.382 E0.04493
G1 X105.907 Y33.682 E0.04482
G1 X105.769 Y34.563 E0.02797
G1 X105.771 Y36.048 E0.04657
G1 X105.772 Y36.565 F10800.000
G1 F1200.000
G1 X105.798 Y50.950 E0.45103
G1 X106.024 Y51.906 E0.03078
G1 X106.568 Y53.004 E0.03843
G1 X107.516 Y54.055 E0.04439
G1 X108.607 Y54.757 E0.04068
G1 X109.645 Y55.102 E0.03428
G1 X110.283 Y55.144 E0.02006
G1 X110.282 Y56.871 E0.05416
G1 X108.982 Y56.048 E0.04825
G1 X107.844 Y55.678 E0.03751
G1 X104.355 Y55.605 E0.10941
G1 X85.539 Y55.605 E0.58996
G1 X84.989 Y55.605 F10800.000
G1 F1200.000
G1 X83.189 Y55.606 E0.05645
G1 X82.242 Y55.752 E0.03004
G1 X80.654 Y56.507 E0.05513
G1 X79.755 Y57.351 E0.03865
G1 X79.098 Y58.349 E0.03749
G1 X78.649 Y59.832 E0.04856
G1 X78.635 Y61.987 E0.06758
G1 X79.011 Y62.137 F10800.000
G1 F1200.000
G1 X79.009 Y62.392 E0.00800
G1 X78.655 Y62.518 E0.01177
G1 X77.884 Y62.792 F10800.000
G1 F1200.000
G1 X77.485 Y62.934 E0.01325
G1 X76.349 Y63.444 E0.03905
G1 X75.120 Y64.111 E0.04383
G1 X74.075 Y64.786 E0.03901
G1 X73.093 Y65.524 E0.03853
G1 X72.034 Y66.456 E0.04424
G1 X71.126 Y67.389 E0.04081
G1 X70.345 Y68.319 E0.03810
G1 X69.621 Y69.315 E0.03858
G1 X68.802 Y70.658 E0.04931
G1 X68.245 Y71.768 E0.03895
G1 X67.744 Y72.976 E0.04101
G1 X67.338 Y74.212 E0.04081
G1 X67.027 Y75.469 E0.04060
G1 X66.833 Y76.580 E0.03536
G1 X66.711 Y77.713 E0.03572
G1 X66.664 Y78.963 E0.03923
G1 X66.664 Y161.045 E2.57361
G1 X66.733 Y162.559 E0.04753
G1 X66.833 Y163.419 E0.02716
G1 X66.974 Y164.265 E0.02689
G1 X67.306 Y165.671 E0.04529
G1 X67.628 Y166.702 E0.03387
G1 X67.957 Y167.569 E0.02906
G1 X68.386 Y168.534 E0.03314
G1 X68.946 Y169.597 E0.03765
G1 X69.581 Y170.625 E0.03789
G1 X70.288 Y171.609 E0.03798
G1 X71.062 Y172.539 E0.03795
G1 X71.895 Y173.410 E0.03778
G1 X72.785 Y174.220 E0.03776
G1 X73.526 Y174.815 E0.02978
G1 X74.504 Y175.505 E0.03751
G1 X75.540 Y176.132 E0.03798
G1 X76.615 Y176.685 E0.03789
G1 X77.727 Y177.162 E0.03794
G1 X78.868 Y177.559 E0.03788
G1 X80.034 Y177.877 E0.03788
G1 X81.220 Y178.112 E0.03792
G1 X82.415 Y178.264 E0.03778
G1 X83.957 Y178.336 E0.04841
G1 X166.523 Y178.328 E2.58878
M73 Q0 S175
M73 P0 R172
G1 X167.614 Y178.261 E0.03428
G1 X169.055 Y178.065 E0.04561
G1 X170.011 Y177.865 E0.03061
G1 X171.453 Y177.457 E0.04698
G1 X172.815 Y176.941 E0.04566
G1 X174.134 Y176.309 E0.04585
G1 X175.402 Y175.565 E0.04613
G1 X176.596 Y174.721 E0.04583
G1 X177.887 Y173.620 E0.05320
G1 X178.876 Y172.608 E0.04438
G1 X179.787 Y171.511 E0.04472
G1 X180.752 Y170.107 E0.05342
G1 X181.466 Y168.835 E0.04573
G1 X181.811 Y168.112 E0.02512
G1 X182.062 Y167.523 E0.02006
G1 X182.368 Y166.712 E0.02720
G1 X182.574 Y166.086 E0.02065
G1 X182.937 Y164.699 E0.04495
G1 X183.215 Y163.048 E0.05249
G1 X183.308 Y161.991 E0.03326
G1 X183.336 Y161.027 E0.03024
G1 X183.334 Y78.711 E2.58097
G1 X183.252 Y77.296 E0.04443
G1 X183.113 Y76.224 E0.03390
G1 X182.934 Y75.290 E0.02982
G1 X182.611 Y74.041 E0.04045
G1 X182.374 Y73.305 E0.02425
G1 X182.040 Y72.423 E0.02957
G1 X181.546 Y71.329 E0.03763
G1 X180.993 Y70.298 E0.03669
G1 X180.365 Y69.295 E0.03709
G1 X179.620 Y68.274 E0.03966
G1 X178.848 Y67.360 E0.03750
G1 X178.014 Y66.502 E0.03751
G1 X177.126 Y65.705 E0.03741
G1 X176.184 Y64.970 E0.03747
G1 X175.182 Y64.295 E0.03787
G1 X174.146 Y63.697 E0.03750
G1 X173.085 Y63.177 E0.03707
G1 X172.118 Y62.784 E0.03271
G1 X171.358 Y62.523 F10800.000
G1 F1200.000
G1 X170.991 Y62.403 E0.01213
G1 X170.989 Y62.129 E0.00860
G1 X170.986 Y61.573 F10800.000
G1 F1200.000
G1 X170.974 Y59.861 E0.05365
G1 X170.571 Y58.531 E0.04360
G1 X169.933 Y57.566 E0.03627
G1 X169.094 Y56.790 E0.03582
G1 X167.617 Y56.104 E0.05106
G1 X166.798 Y55.983 E0.02596
G1 X165.393 Y55.983 E0.04406
G1 X164.841 Y55.983 F10800.000
G1 F1200.000
G1 X144.129 Y55.982 E0.64939
G1 X142.260 Y56.040 E0.05863
G1 X141.293 Y56.343 E0.03177
G1 X140.374 Y56.873 E0.03327
G1 X139.342 Y57.851 E0.04459
G1 X139.339 Y54.787 E0.09608
G1 X140.041 Y54.782 E0.02199
G1 X140.855 Y54.619 E0.02604
G1 X142.022 Y54.031 E0.04098
G1 X143.110 Y52.938 E0.04835
G1 X143.615 Y51.974 E0.03411
G1 X143.830 Y51.109 E0.02795
G1 X143.852 Y36.362 E0.46239
G1 X143.852 Y35.846 F10800.000
G1 F1200.000
G1 X143.854 Y34.676 E0.03670
G1 X143.281 Y32.866 E0.05953
G1 X142.826 Y32.249 E0.02402
G1 X141.821 Y31.324 E0.04283
G1 X140.985 Y30.903 E0.02934
G1 X139.761 Y30.605 E0.03951
G1 X111.089 Y30.605 E0.89899
G1 X110.808 Y30.637 E0.00884
G1 X109.575 Y30.685 E0.03871
G1 X108.763 Y30.947 E0.02675
G1 X107.718 Y31.587 E0.03843
G1 X106.833 Y32.566 E0.04137
G1 X106.261 Y33.814 E0.04305
G1 X106.146 Y34.576 E0.02417
G1 X106.148 Y35.694 E0.03506
G1 X106.148 Y36.211 F10800.000
G1 F1200.000
G1 X106.171 Y50.887 E0.46013
G1 X106.372 Y51.758 E0.02805
G1 X106.894 Y52.813 E0.03689
G1 X107.778 Y53.783 E0.04115
G1 X108.748 Y54.407 E0.03618
G1 X109.738 Y54.735 E0.03270
G1 X110.661 Y54.783 E0.02896
G1 X110.658 Y57.856 E0.09635
G1 X109.703 Y56.938 E0.04154
G1 X108.841 Y56.398 E0.03187
G1 X107.807 Y56.054 E0.03417
G1 X104.353 Y55.982 E0.10831
G1 X85.139 Y55.983 E0.60247
G1 X84.588 Y55.983 F10800.000
G1 F1200.000
G1 X83.202 Y55.983 E0.04347
G1 X82.376 Y56.106 E0.02618
G1 X80.888 Y56.803 E0.05152
G1 X80.057 Y57.577 E0.03561
G1 X79.428 Y58.534 E0.03592
G1 X79.026 Y59.861 E0.04349
G1 X79.014 Y61.580 E0.05388
G1 X79.391 Y61.729 F10800.000
G1 F1200.000
G1 X79.384 Y62.690 E0.03013
G1 X78.965 Y62.806 E0.01364
G1 X78.098 Y63.115 E0.02884
G1 X77.281 Y63.439 F10800.000
G1 F1200.000
G1 X76.522 Y63.778 E0.02605
G1 X75.307 Y64.439 E0.04337
G1 X74.286 Y65.099 E0.03812
G1 X73.326 Y65.821 E0.03767
G1 X72.289 Y66.734 E0.04334
G1 X71.410 Y67.637 E0.03948
G1 X70.646 Y68.546 E0.03726
G1 X69.939 Y69.518 E0.03766
G1 X69.136 Y70.834 E0.04835
G1 X68.590 Y71.918 E0.03805
G1 X68.095 Y73.114 E0.04057
G1 X67.702 Y74.310 E0.03948
G1 X67.397 Y75.540 E0.03975
G1 X67.206 Y76.639 E0.03496
G1 X67.087 Y77.747 E0.03494
G1 X67.041 Y78.967 E0.03828
G1 X67.041 Y161.041 E2.57336
G1 X67.109 Y162.522 E0.04651
G1 X67.206 Y163.362 E0.02652
G1 X67.344 Y164.197 E0.02654
G1 X67.671 Y165.578 E0.04448
G1 X67.983 Y166.574 E0.03272
G1 X68.303 Y167.421 E0.02838
G1 X68.728 Y168.375 E0.03277
G1 X69.276 Y169.416 E0.03686
G1 X69.898 Y170.421 E0.03707
G1 X70.590 Y171.383 E0.03715
G1 X71.347 Y172.293 E0.03712
G1 X72.163 Y173.144 E0.03696
G1 X73.035 Y173.937 E0.03696
G1 X73.757 Y174.517 E0.02905
G1 X74.716 Y175.192 E0.03676
G1 X75.730 Y175.806 E0.03715
G1 X76.781 Y176.346 E0.03707
G1 X77.869 Y176.813 E0.03712
G1 X78.985 Y177.201 E0.03705
G1 X80.126 Y177.511 E0.03706
G1 X81.287 Y177.741 E0.03709
G1 X82.455 Y177.889 E0.03693
G1 X83.962 Y177.959 E0.04729
G1 X166.517 Y177.951 E2.58846
G1 X167.570 Y177.886 E0.03309
G1 X168.985 Y177.694 E0.04477
G1 X169.915 Y177.501 E0.02978
G1 X171.327 Y177.101 E0.04601
G1 X172.674 Y176.591 E0.04515
G1 X173.963 Y175.973 E0.04485
G1 X175.205 Y175.244 E0.04513
G1 X176.371 Y174.419 E0.04481
G1 X177.623 Y173.350 E0.05160
G1 X178.601 Y172.350 E0.04387
G1 X179.491 Y171.276 E0.04373
G1 X180.428 Y169.915 E0.05182
G1 X181.128 Y168.666 E0.04487
G1 X181.469 Y167.953 E0.02480
G1 X181.714 Y167.379 E0.01957
G1 X182.014 Y166.582 E0.02669
G1 X182.214 Y165.974 E0.02008
G1 X182.570 Y164.612 E0.04415
G1 X182.840 Y163.008 E0.05100
G1 X182.931 Y161.964 E0.03286
G1 X182.959 Y161.024 E0.02947
G1 X182.957 Y78.716 E2.58071
G1 X182.876 Y77.325 E0.04370
G1 X182.741 Y76.289 E0.03275
G1 X182.568 Y75.378 E0.02907
G1 X182.247 Y74.141 E0.04008
G1 X182.017 Y73.425 E0.02358
G1 X181.693 Y72.573 E0.02858
G1 X181.211 Y71.501 E0.03684
G1 X180.664 Y70.481 E0.03629
G1 X180.049 Y69.502 E0.03627
G1 X179.327 Y68.512 E0.03841
G1 X178.564 Y67.608 E0.03709
G1 X177.749 Y66.769 E0.03669
G1 X176.879 Y65.990 E0.03659
G1 X175.957 Y65.272 E0.03666
G1 X174.988 Y64.618 E0.03665
G1 X173.975 Y64.033 E0.03669
G1 X172.732 Y63.440 E0.04316
G1 X171.900 Y63.102 F10800.000
G1 F1200.000
G1 X170.616 Y62.677 E0.04240
G1 X170.609 Y61.722 E0.02992
G1 X170.606 Y61.166 F10800.000
G1 F1200.000
G1 X170.597 Y59.891 E0.03999
G1 X170.240 Y58.714 E0.03856
G1 X169.659 Y57.827 E0.03326
G1 X168.860 Y57.088 E0.03413
G1 X167.486 Y56.459 E0.04739
G1 X166.785 Y56.360 E0.02219
G1 X165.796 Y56.360 E0.03101
G1 X165.244 Y56.360 F10800.000
G1 F1200.000
G1 X144.132 Y56.359 E0.66195
G1 X142.298 Y56.416 E0.05753
G1 X141.464 Y56.679 E0.02742
G1 X140.583 Y57.188 E0.03191
G1 X139.936 Y57.807 E0.02808
G1 X139.532 Y58.346 E0.02111
G1 X139.264 Y58.948 E0.02067
G1 X138.966 Y58.885 E0.00958
G1 X138.962 Y54.408 E0.14038
G1 X139.986 Y54.409 E0.03210
G1 X140.757 Y54.255 E0.02465
G1 X141.778 Y53.742 E0.03584
G1 X142.790 Y52.737 E0.04470
G1 X143.270 Y51.819 E0.03248
G1 X143.453 Y51.086 E0.02371
G1 X143.475 Y36.010 E0.47269
G1 X143.476 Y35.494 F10800.000
G1 F1200.000
G1 X143.477 Y34.704 E0.02477
G1 X142.958 Y33.063 E0.05396
G1 X142.555 Y32.513 E0.02139
G1 X141.625 Y31.648 E0.03982
G1 X140.872 Y31.264 E0.02651
G1 X139.737 Y30.982 E0.03667
G1 X111.100 Y30.982 E0.89790
G1 X110.837 Y31.013 E0.00832
G1 X109.663 Y31.052 E0.03683
G1 X108.938 Y31.281 E0.02384
G1 X107.979 Y31.861 E0.03514
G1 X107.132 Y32.796 E0.03954
G1 X106.616 Y33.944 E0.03945
G1 X106.523 Y34.589 E0.02044
G1 X106.524 Y35.340 E0.02356
G1 X106.525 Y35.857 F10800.000
G1 F1200.000
G1 X106.543 Y50.825 E0.46929
G1 X106.720 Y51.612 E0.02529
G1 X107.220 Y52.621 E0.03530
