; generated by PrusaSlicer 2.2.0+ on 2021-05-02 at 12:04:28 UTC

; 

; external perimeters extrusion width = 0.45mm
; perimeters extrusion width = 0.45mm
; infill extrusion width = 0.45mm
; solid infill extrusion width = 0.45mm
; top infill extrusion width = 0.40mm
; first layer extrusion width = 0.42mm

M73 P0 R33
M73 Q0 S33
M201 X1000 Y1000 Z200 E5000 ; sets maximum accelerations, mm/sec^2
M203 X200 Y200 Z12 E120 ; sets maximum feedrates, mm/sec
M204 P1250 R1250 T1250 ; sets acceleration (P, T) and retract acceleration (R), mm/sec^2
M205 X8.00 Y8.00 Z0.40 E4.50 ; sets the jerk limits, mm/sec
M205 S0 T0 ; sets the minimum extruding and travel feed rate, mm/sec
M107
M862.3 P "MK3" ; printer model check
M862.1 P0.4 ; nozzle diameter check
M115 U3.9.3 ; tell printer latest fw version
G90 ; use absolute coordinates
M83 ; extruder relative mode
M104 S215 ; set extruder temp
M140 S60 ; set bed temp
M190 S60 ; wait for bed temp
M109 S215 ; wait for extruder temp
G28 W ; home all without mesh bed level
G80 ; mesh bed leveling
G1 Y-3.0 F1000.0 ; go outside print area
G92 E0.0
G1 X60.0 E9.0 F1000.0 ; intro line
M73 Q0 S33
M73 P0 R33
G1 X100.0 E12.5 F1000.0 ; intro line
G92 E0.0
M221 S95

; Don't change E values below. Excessive value can damage the printer.

M907 E538 ; set extruder motor current
G21 ; set units to millimeters
G90 ; use absolute coordinates
M83 ; use relative distances for extrusion
M900 K0.05 ; Filament gcode LA 1.5
M900 K30 ; Filament gcode LA 1.0
;BEFORE_LAYER_CHANGE
G92 E0.0
;0.2


G1 E-0.80000 F2100.00000
G1 Z0.400 F10800.000
;AFTER_LAYER_CHANGE
;0.2
G1 X78.967 Y74.277
G1 Z0.200
G1 E0.80000 F2100.00000
M204 S1000
G1 F1200.000
G1 X79.978 Y74.187 E0.03182
G1 X165.443 Y74.174 E2.67970
G1 X170.416 Y74.201 E0.15593
G1 X171.345 Y74.341 E0.02945
G1 X172.284 Y74.647 E0.03096
G1 X173.441 Y75.299 E0.04163
G1 X174.409 Y76.181 E0.04107
G1 X175.159 Y77.263 E0.04128
G1 X175.636 Y78.442 E0.03987
G1 X175.799 Y79.209 E0.02459
G1 X175.857 Y80.006 E0.02507
G1 X175.856 Y106.139 E0.81937
G1 X175.657 Y107.561 E0.04501
G1 X175.089 Y108.941 E0.04680
G1 X174.679 Y109.563 E0.02336
G1 X174.157 Y110.166 E0.02500
G1 X172.951 Y111.097 E0.04777
G1 X134.123 Y133.387 E1.40376
G1 X132.728 Y134.113 E0.04931
G1 X131.269 Y134.718 E0.04953
G1 X129.712 Y135.209 E0.05118
G1 X127.859 Y135.601 E0.05940
G1 X125.974 Y135.800 E0.05941
G1 X124.341 Y135.814 E0.05120
G1 X122.454 Y135.648 E0.05941
G1 X120.597 Y135.288 E0.05929
G1 X119.029 Y134.823 E0.05129
G1 X117.268 Y134.111 E0.05955
G1 X115.867 Y133.381 E0.04954
G1 X76.967 Y111.049 E1.40637
G1 X76.166 Y110.467 E0.03107
G1 X75.497 Y109.786 E0.02992
G1 X74.926 Y108.967 E0.03128
G1 X74.501 Y108.059 E0.03143
G1 X74.235 Y107.078 E0.03187
G1 X74.144 Y106.133 E0.02979
G1 X74.175 Y79.426 E0.83738
G1 X74.317 Y78.619 E0.02570
G1 X74.568 Y77.845 E0.02549
G1 X74.925 Y77.112 E0.02558
G1 X75.381 Y76.436 E0.02556
G1 X75.928 Y75.828 E0.02565
G1 X76.550 Y75.305 E0.02547
G1 X77.243 Y74.872 E0.02562
G1 X77.974 Y74.545 E0.02512
G1 X78.909 Y74.292 E0.03037
; printing object Clamp.stl id:0 copy 0
G1 F8640.000
G1 X79.978 Y74.187 E-0.24796
G1 X82.196 Y74.186 E-0.51204
G1 E-0.04000 F2100.00000
G1 Z0.600 F10800.000
G1 X118.711 Y111.470
G1 Z0.200
G1 E0.80000 F2100.00000
G1 F1200.000
G1 X119.380 Y110.846 E0.02869
G1 X120.111 Y110.295 E0.02869
G1 X120.891 Y109.826 E0.02856
G1 X121.586 Y109.494 E0.02413
G1 X122.441 Y109.183 E0.02854
G1 X123.185 Y108.991 E0.02408
G1 X124.084 Y108.849 E0.02853
G1 X124.850 Y108.802 E0.02408
G1 X125.762 Y108.834 E0.02861
G1 X126.668 Y108.961 E0.02869
G1 X127.552 Y109.181 E0.02856
G1 X128.278 Y109.438 E0.02413
G1 X129.101 Y109.822 E0.02848
G1 X129.764 Y110.212 E0.02413
G1 X130.500 Y110.747 E0.02854
G1 X131.075 Y111.256 E0.02408
G1 X131.698 Y111.924 E0.02861
G1 X132.249 Y112.654 E0.02869
G1 X132.719 Y113.437 E0.02861
G1 X133.048 Y114.127 E0.02400
G1 X133.316 Y114.844 E0.02400
G1 X133.552 Y115.726 E0.02861
G1 X133.695 Y116.627 E0.02861
G1 X133.742 Y117.391 E0.02400
G1 X133.722 Y118.156 E0.02400
G1 X133.611 Y119.059 E0.02853
G1 X133.445 Y119.809 E0.02408
G1 X133.163 Y120.677 E0.02862
G1 X132.790 Y121.513 E0.02869
G1 X132.334 Y122.303 E0.02861
G1 X131.888 Y122.929 E0.02408
G1 X131.289 Y123.617 E0.02861
G1 X130.620 Y124.241 E0.02869
G1 X129.889 Y124.792 E0.02869
G1 X129.107 Y125.262 E0.02861
G1 X128.414 Y125.593 E0.02408
G1 X127.559 Y125.904 E0.02853
G1 X126.815 Y126.096 E0.02408
G1 X125.916 Y126.239 E0.02853
G1 X125.150 Y126.286 E0.02408
G1 X124.238 Y126.254 E0.02861
G1 X123.332 Y126.126 E0.02869
G1 X122.448 Y125.906 E0.02856
G1 X121.722 Y125.649 E0.02413
G1 X120.898 Y125.265 E0.02854
G1 X120.236 Y124.875 E0.02408
G1 X119.500 Y124.340 E0.02853
G1 X118.925 Y123.831 E0.02408
G1 X118.302 Y123.164 E0.02861
G1 X117.751 Y122.433 E0.02869
G1 X117.281 Y121.651 E0.02861
G1 X116.952 Y120.960 E0.02400
G1 X116.684 Y120.243 E0.02400
G1 X116.448 Y119.362 E0.02861
G1 X116.305 Y118.460 E0.02861
G1 X116.258 Y117.696 E0.02400
G1 X116.278 Y116.931 E0.02400
G1 X116.389 Y116.028 E0.02853
G1 X116.555 Y115.278 E0.02408
G1 X116.837 Y114.410 E0.02862
G1 X117.210 Y113.574 E0.02869
G1 X117.666 Y112.784 E0.02861
G1 X118.112 Y112.159 E0.02408
G1 X118.671 Y111.515 E0.02673
G1 X118.956 Y111.763 F10800.000
G1 F1200.000
G1 X119.623 Y111.135 E0.02871
G1 X120.322 Y110.608 E0.02746
G1 X121.070 Y110.158 E0.02737
G1 X121.732 Y109.843 E0.02300
G1 X122.553 Y109.544 E0.02740
G1 X123.262 Y109.361 E0.02294
G1 X124.125 Y109.224 E0.02740
G1 X124.855 Y109.179 E0.02294
G1 X125.729 Y109.210 E0.02743
G1 X126.596 Y109.332 E0.02745
G1 X127.443 Y109.543 E0.02737
G1 X128.135 Y109.787 E0.02300
G1 X128.925 Y110.156 E0.02734
G1 X129.557 Y110.528 E0.02299
G1 X130.264 Y111.042 E0.02740
G1 X130.812 Y111.526 E0.02294
G1 X131.409 Y112.166 E0.02743
G1 X131.936 Y112.866 E0.02746
G1 X132.386 Y113.615 E0.02743
G1 X132.701 Y114.275 E0.02291
G1 X132.957 Y114.959 E0.02291
G1 X133.183 Y115.804 E0.02743
G1 X133.320 Y116.668 E0.02743
G1 X133.364 Y117.398 E0.02291
G1 X133.345 Y118.128 E0.02291
G1 X133.239 Y118.995 E0.02740
G1 X133.080 Y119.710 E0.02294
G1 X132.810 Y120.542 E0.02743
G1 X132.454 Y121.342 E0.02746
G1 X132.017 Y122.099 E0.02743
G1 X131.592 Y122.695 E0.02294
G1 X131.018 Y123.355 E0.02743
G1 X130.377 Y123.952 E0.02746
G1 X129.678 Y124.479 E0.02746
G1 X128.928 Y124.930 E0.02743
G1 X128.268 Y125.245 E0.02294
G1 X127.447 Y125.544 E0.02740
G1 X126.738 Y125.727 E0.02294
G1 X125.875 Y125.863 E0.02740
G1 X125.145 Y125.908 E0.02294
G1 X124.271 Y125.878 E0.02743
G1 X123.404 Y125.756 E0.02746
G1 X122.557 Y125.545 E0.02737
G1 X121.865 Y125.300 E0.02300
G1 X121.073 Y124.931 E0.02740
G1 X120.443 Y124.559 E0.02294
G1 X119.736 Y124.046 E0.02740
G1 X119.188 Y123.561 E0.02294
G1 X118.591 Y122.921 E0.02743
G1 X118.064 Y122.222 E0.02746
G1 X117.614 Y121.472 E0.02743
G1 X117.299 Y120.812 E0.02291
G1 X117.043 Y120.128 E0.02291
G1 X116.817 Y119.283 E0.02743
G1 X116.680 Y118.419 E0.02743
G1 X116.636 Y117.690 E0.02291
G1 X116.655 Y116.959 E0.02291
G1 X116.761 Y116.092 E0.02740
G1 X116.920 Y115.378 E0.02294
G1 X117.190 Y114.546 E0.02743
G1 X117.546 Y113.746 E0.02746
G1 X117.983 Y112.988 E0.02743
G1 X118.408 Y112.392 E0.02294
G1 X118.916 Y111.808 E0.02428
G1 X118.845 Y111.378 F10800.000
G1 F8640.000
G1 X119.623 Y111.135 E-0.22522
G1 X120.322 Y110.608 E-0.20219
G1 X121.070 Y110.158 E-0.20157
G1 X121.582 Y109.914 E-0.13102
G1 E-0.04000 F2100.00000
G1 Z0.600 F10800.000
G1 X83.783 Y102.425
G1 Z0.200
G1 E0.80000 F2100.00000
G1 F1200.000
G1 X166.217 Y102.425 E2.58467
G1 X166.217 Y92.315 E0.31700
G1 X165.869 Y91.688 E0.02249
G1 X165.511 Y90.971 E0.02513
G1 X165.298 Y90.490 E0.01649
G1 X165.005 Y89.747 E0.02505
G1 X164.751 Y88.989 E0.02505
G1 X164.606 Y88.483 E0.01649
G1 X164.420 Y87.707 E0.02505
G1 X164.275 Y86.923 E0.02497
G1 X164.171 Y86.134 E0.02497
G1 X164.108 Y85.337 E0.02505
G1 X164.090 Y84.812 E0.01649
G1 X164.097 Y84.013 E0.02505
G1 X164.145 Y83.215 E0.02505
G1 X164.201 Y82.690 E0.01657
G1 X164.274 Y82.166 E0.01657
G1 X164.419 Y81.383 E0.02497
G1 X164.678 Y80.346 E0.03353
G1 X164.831 Y79.845 E0.01641
G1 X165.097 Y79.094 E0.02497
G1 X165.512 Y78.116 E0.03333
G1 X165.907 Y77.351 E0.02699
G1 X170.093 Y77.353 E0.13126
G1 X170.473 Y77.393 E0.01197
G1 X170.883 Y77.499 E0.01327
G1 X171.271 Y77.667 E0.01328
G1 X171.586 Y77.864 E0.01165
G1 X171.873 Y78.105 E0.01174
G1 X172.122 Y78.382 E0.01168
G1 X172.331 Y78.691 E0.01169
G1 X172.514 Y79.075 E0.01335
G1 X172.622 Y79.428 E0.01157
G1 X172.685 Y79.849 E0.01335
G1 X172.693 Y106.017 E0.82048
G1 X172.650 Y106.512 E0.01556
G1 X172.543 Y106.924 E0.01335
G1 X172.442 Y107.175 E0.00848
G1 X172.283 Y107.467 E0.01043
G1 X172.125 Y107.693 E0.00865
G1 X171.906 Y107.940 E0.01034
G1 X171.659 Y108.159 E0.01035
G1 X171.433 Y108.317 E0.00864
G1 X171.142 Y108.475 E0.01038
G1 X170.844 Y108.594 E0.01009
G1 X140.130 Y116.939 E0.99791
G1 X140.097 Y118.336 E0.04381
G1 X140.035 Y119.124 E0.02479
G1 X139.933 Y119.903 E0.02463
G1 X139.731 Y120.945 E0.03328
G1 X139.457 Y121.966 E0.03317
G1 X139.206 Y122.714 E0.02474
G1 X138.917 Y123.448 E0.02474
G1 X138.469 Y124.409 E0.03325
G1 X138.093 Y125.103 E0.02474
G1 X137.681 Y125.775 E0.02474
G1 X137.072 Y126.644 E0.03325
G1 X136.583 Y127.259 E0.02466
G1 X135.873 Y128.047 E0.03325
G1 X135.312 Y128.599 E0.02465
G1 X134.512 Y129.294 E0.03325
G1 X133.886 Y129.775 E0.02473
G1 X133.236 Y130.221 E0.02474
G1 X132.327 Y130.768 E0.03324
G1 X131.624 Y131.133 E0.02484
G1 X130.907 Y131.460 E0.02471
G1 X130.173 Y131.749 E0.02474
G1 X129.167 Y132.076 E0.03317
G1 X128.141 Y132.332 E0.03317
G1 X127.365 Y132.476 E0.02474
G1 X126.583 Y132.579 E0.02474
G1 X125.525 Y132.653 E0.03325
G1 X124.739 Y132.660 E0.02466
G1 X123.682 Y132.604 E0.03317
G1 X122.633 Y132.475 E0.03316
G1 X121.857 Y132.331 E0.02474
G1 X121.086 Y132.146 E0.02484
G1 X120.078 Y131.838 E0.03306
G1 X119.090 Y131.459 E0.03317
G1 X118.370 Y131.131 E0.02481
G1 X117.443 Y130.638 E0.03293
G1 X116.768 Y130.224 E0.02482
G1 X115.898 Y129.615 E0.03333
G1 X115.488 Y129.294 E0.01630
G1 X114.886 Y128.780 E0.02482
G1 X114.121 Y128.042 E0.03333
G1 X113.767 Y127.662 E0.01630
G1 X113.253 Y127.060 E0.02482
G1 X112.613 Y126.211 E0.03333
G1 X112.322 Y125.780 E0.01631
G1 X111.909 Y125.105 E0.02482
G1 X111.411 Y124.169 E0.03325
G1 X111.083 Y123.448 E0.02482
G1 X110.888 Y122.966 E0.01631
G1 X110.542 Y121.961 E0.03333
G1 X110.330 Y121.199 E0.02482
G1 X110.213 Y120.692 E0.01631
G1 X110.029 Y119.648 E0.03324
G1 X109.919 Y118.599 E0.03306
G1 X109.866 Y116.938 E0.05212
G1 X79.222 Y108.613 E0.99566
G1 X78.773 Y108.432 E0.01517
G1 X78.377 Y108.185 E0.01465
G1 X78.029 Y107.872 E0.01465
G1 X77.739 Y107.500 E0.01481
G1 X77.560 Y107.177 E0.01157
G1 X77.426 Y106.828 E0.01173
G1 X77.342 Y106.463 E0.01173
G1 X77.308 Y106.075 E0.01221
G1 X77.307 Y80.050 E0.81601
G1 X77.322 Y79.756 E0.00923
G1 X77.376 Y79.433 E0.01026
G1 X77.487 Y79.070 E0.01189
G1 X77.621 Y78.777 E0.01011
G1 X77.822 Y78.455 E0.01189
G1 X78.029 Y78.205 E0.01019
G1 X78.264 Y77.981 E0.01019
G1 X78.571 Y77.758 E0.01189
G1 X78.854 Y77.604 E0.01011
G1 X79.206 Y77.469 E0.01181
G1 X79.568 Y77.386 E0.01165
G1 X80.014 Y77.351 E0.01402
G1 X84.098 Y77.351 E0.12806
G1 X84.488 Y78.117 E0.02696
G1 X84.805 Y78.845 E0.02489
G1 X85.083 Y79.588 E0.02489
G1 X85.395 Y80.609 E0.03345
G1 X85.580 Y81.378 E0.02481
G1 X85.765 Y82.426 E0.03337
G1 X85.875 Y83.482 E0.03329
G1 X85.913 Y84.544 E0.03329
G1 X85.875 Y85.605 E0.03329
G1 X85.765 Y86.661 E0.03329
G1 X85.580 Y87.709 E0.03337
G1 X85.395 Y88.478 E0.02481
G1 X85.084 Y89.496 E0.03337
G1 X84.703 Y90.488 E0.03329
G1 X84.253 Y91.452 E0.03337
G1 X83.783 Y92.318 E0.03089
G1 X83.783 Y102.365 E0.31503
G1 X84.160 Y102.048 F10800.000
G1 F1200.000
G1 X165.840 Y102.048 E2.56102
G1 X165.840 Y92.413 E0.30211
G1 X165.535 Y91.864 E0.01969
G1 X165.170 Y91.131 E0.02565
G1 X164.950 Y90.636 E0.01701
G1 X164.650 Y89.876 E0.02562
G1 X164.391 Y89.101 E0.02562
G1 X164.242 Y88.580 E0.01700
G1 X164.051 Y87.785 E0.02562
G1 X163.902 Y86.982 E0.02559
G1 X163.795 Y86.173 E0.02559
G1 X163.731 Y85.359 E0.02562
G1 X163.712 Y84.817 E0.01700
G1 X163.720 Y84.000 E0.02562
G1 X163.769 Y83.184 E0.02562
G1 X163.826 Y82.644 E0.01703
G1 X163.902 Y82.106 E0.01703
G1 X164.051 Y81.303 E0.02559
G1 X164.314 Y80.245 E0.03420
G1 X164.473 Y79.727 E0.01698
G1 X164.745 Y78.958 E0.02559
G1 X165.171 Y77.956 E0.03413
G1 X165.677 Y76.974 E0.03464
G1 X170.113 Y76.976 E0.13909
G1 X170.540 Y77.021 E0.01347
G1 X171.006 Y77.141 E0.01508
G1 X171.447 Y77.333 E0.01509
G1 X171.808 Y77.558 E0.01335
G1 X172.135 Y77.833 E0.01339
G1 X172.420 Y78.149 E0.01333
G1 X172.659 Y78.503 E0.01340
G1 X172.867 Y78.938 E0.01511
G1 X172.991 Y79.345 E0.01333
G1 X173.062 Y79.821 E0.01511
G1 X173.070 Y106.034 E0.82188
G1 X173.023 Y106.576 E0.01706
G1 X172.902 Y107.042 E0.01511
G1 X172.783 Y107.336 E0.00993
G1 X172.604 Y107.666 E0.01177
G1 X172.422 Y107.927 E0.00999
G1 X172.173 Y108.207 E0.01174
G1 X171.893 Y108.455 E0.01174
G1 X171.632 Y108.638 E0.00998
G1 X171.303 Y108.817 E0.01175
G1 X170.963 Y108.952 E0.01146
G1 X140.501 Y117.229 E0.98976
G1 X140.474 Y118.355 E0.03532
G1 X140.411 Y119.163 E0.02543
G1 X140.305 Y119.963 E0.02530
G1 X140.098 Y121.029 E0.03405
G1 X139.818 Y122.075 E0.03394
G1 X139.561 Y122.843 E0.02541
G1 X139.264 Y123.597 E0.02541
G1 X138.806 Y124.579 E0.03397
G1 X138.419 Y125.291 E0.02541
G1 X137.996 Y125.982 E0.02541
G1 X137.375 Y126.870 E0.03397
G1 X136.871 Y127.503 E0.02538
G1 X136.146 Y128.308 E0.03397
G1 X135.568 Y128.876 E0.02538
G1 X134.751 Y129.586 E0.03397
G1 X134.108 Y130.080 E0.02541
G1 X133.440 Y130.539 E0.02541
G1 X132.512 Y131.097 E0.03397
G1 X131.790 Y131.472 E0.02552
G1 X131.055 Y131.807 E0.02533
G1 X130.301 Y132.104 E0.02541
G1 X129.271 Y132.439 E0.03394
G1 X128.221 Y132.701 E0.03394
G1 X127.424 Y132.848 E0.02541
G1 X126.621 Y132.954 E0.02541
G1 X125.540 Y133.030 E0.03397
G1 X124.730 Y133.037 E0.02538
G1 X123.649 Y132.980 E0.03394
G1 X122.575 Y132.848 E0.03394
G1 X121.778 Y132.700 E0.02541
G1 X120.987 Y132.510 E0.02552
G1 X119.955 Y132.195 E0.03383
G1 X118.945 Y131.807 E0.03394
G1 X118.206 Y131.470 E0.02543
G1 X117.253 Y130.964 E0.03386
G1 X116.561 Y130.540 E0.02544
G1 X115.673 Y129.918 E0.03400
G1 X115.249 Y129.586 E0.01687
G1 X114.632 Y129.060 E0.02544
G1 X113.852 Y128.306 E0.03400
G1 X113.485 Y127.913 E0.01687
G1 X112.958 Y127.296 E0.02544
G1 X112.306 Y126.430 E0.03400
G1 X112.005 Y125.984 E0.01687
G1 X111.581 Y125.292 E0.02544
G1 X111.072 Y124.336 E0.03397
G1 X110.736 Y123.597 E0.02544
G1 X110.534 Y123.098 E0.01687
G1 X110.181 Y122.073 E0.03400
G1 X109.965 Y121.291 E0.02544
G1 X109.844 Y120.767 E0.01687
G1 X109.655 Y119.700 E0.03397
G1 X109.542 Y118.625 E0.03390
G1 X109.498 Y117.228 E0.04381
G1 X79.101 Y108.971 E0.98762
G1 X78.601 Y108.769 E0.01691
G1 X78.149 Y108.487 E0.01672
G1 X77.753 Y108.130 E0.01672
G1 X77.423 Y107.708 E0.01678
G1 X77.217 Y107.337 E0.01333
G1 X77.064 Y106.938 E0.01338
G1 X76.968 Y106.522 E0.01338
G1 X76.930 Y106.092 E0.01356
G1 X76.930 Y80.040 E0.81683
G1 X76.947 Y79.715 E0.01021
G1 X77.009 Y79.346 E0.01171
G1 X77.134 Y78.936 E0.01344
G1 X77.288 Y78.598 E0.01166
G1 X77.515 Y78.235 E0.01344
G1 X77.752 Y77.947 E0.01168
G1 X78.023 Y77.690 E0.01168
G1 X78.370 Y77.439 E0.01344
G1 X78.696 Y77.261 E0.01166
G1 X79.096 Y77.108 E0.01341
G1 X79.510 Y77.012 E0.01335
G1 X79.999 Y76.974 E0.01537
G1 X84.329 Y76.974 E0.13575
G1 X84.830 Y77.956 E0.03457
G1 X85.155 Y78.704 E0.02556
G1 X85.440 Y79.467 E0.02556
G1 X85.759 Y80.510 E0.03418
G1 X85.949 Y81.301 E0.02553
G1 X86.138 Y82.374 E0.03415
G1 X86.252 Y83.456 E0.03412
G1 X86.290 Y84.544 E0.03412
G1 X86.252 Y85.631 E0.03412
G1 X86.138 Y86.713 E0.03412
G1 X85.949 Y87.786 E0.03415
G1 X85.759 Y88.578 E0.02553
G1 X85.441 Y89.619 E0.03415
G1 X85.051 Y90.635 E0.03412
G1 X84.590 Y91.622 E0.03415
G1 X84.160 Y92.414 E0.02825
G1 X84.160 Y101.988 E0.30020
G1 X84.154 Y102.448 F10800.000
G1 F8640.000
G1 X87.451 Y101.991 E-0.76000
G1 E-0.04000 F2100.00000
G1 Z0.600 F10800.000
G1 X79.725 Y108.633
G1 Z0.200
G1 E0.80000 F2100.00000
G1 F1200.000
G1 X77.655 Y106.562 E0.09194
G1 X77.622 Y106.419 E0.00462
G1 X77.590 Y105.964 E0.01431
G1 X80.217 Y108.591 E0.11662
G1 X80.950 Y108.790 E0.02385
G1 X77.590 Y105.430 E0.14917
