; generated by PrusaSlicer 2.2.0+ on 2021-05-02 at 12:05:00 UTC

; 

; external perimeters extrusion width = 0.45mm
; perimeters extrusion width = 0.45mm
; infill extrusion width = 0.45mm
; solid infill extrusion width = 0.45mm
; top infill extrusion width = 0.40mm
; first layer extrusion width = 0.42mm

M73 P0 R10
M73 Q0 S10
M201 X1000 Y1000 Z200 E5000 ; sets maximum accelerations, mm/sec^2
M203 X200 Y200 Z12 E120 ; sets maximum feedrates, mm/sec
M204 P1250 R1250 T1250 ; sets acceleration (P, T) and retract acceleration (R), mm/sec^2
M205 X8.00 Y8.00 Z0.40 E4.50 ; sets the jerk limits, mm/sec
M205 S0 T0 ; sets the minimum extruding and travel feed rate, mm/sec
M107
M862.3 P "MK3" ; printer model check
M862.1 P0.4 ; nozzle diameter check
M115 U3.9.3 ; tell printer latest fw version
G90 ; use absolute coordinates
M83 ; extruder relative mode
M104 S215 ; set extruder temp
M140 S60 ; set bed temp
M190 S60 ; wait for bed temp
M109 S215 ; wait for extruder temp
G28 W ; home all without mesh bed level
G80 ; mesh bed leveling
G1 Y-3.0 F1000.0 ; go outside print area
G92 E0.0
G1 X60.0 E9.0 F1000.0 ; intro line
M73 Q0 S10
M73 P0 R10
G1 X100.0 E12.5 F1000.0 ; intro line
G92 E0.0
M221 S95

; Don't change E values below. Excessive value can damage the printer.

M907 E538 ; set extruder motor current
G21 ; set units to millimeters
G90 ; use absolute coordinates
M83 ; use relative distances for extrusion
M900 K0.05 ; Filament gcode LA 1.5
M900 K30 ; Filament gcode LA 1.0
;BEFORE_LAYER_CHANGE
G92 E0.0
;0.2


G1 E-0.80000 F2100.00000
G1 Z0.400 F10800.000
;AFTER_LAYER_CHANGE
;0.2
G1 X110.690 Y93.025
G1 Z0.200
G1 E0.80000 F2100.00000
M204 S1000
G1 F1200.000
G1 X111.806 Y91.805 E0.05185
G1 X113.238 Y90.514 E0.06046
G1 X114.569 Y89.528 E0.05192
G1 X116.219 Y88.536 E0.06038
G1 X117.732 Y87.814 E0.05254
G1 X119.545 Y87.156 E0.06049
G1 X121.419 Y86.687 E0.06059
G1 X123.070 Y86.440 E0.05232
G1 X124.998 Y86.340 E0.06054
G1 X126.926 Y86.440 E0.06055
G1 X128.580 Y86.687 E0.05243
G1 X130.449 Y87.154 E0.06039
G1 X132.268 Y87.814 E0.06069
G1 X133.774 Y88.532 E0.05229
G1 X135.432 Y89.529 E0.06067
G1 X136.975 Y90.690 E0.06054
G1 X138.195 Y91.806 E0.05185
G1 X139.488 Y93.241 E0.06055
G1 X140.481 Y94.582 E0.05234
G1 X141.474 Y96.236 E0.06048
G1 X142.278 Y97.955 E0.05950
G1 X142.848 Y99.558 E0.05335
G1 X143.316 Y101.434 E0.06064
G1 X143.586 Y103.349 E0.06062
G1 X143.660 Y104.993 E0.05160
G1 X143.560 Y106.925 E0.06068
G1 X143.314 Y108.573 E0.05225
G1 X142.847 Y110.445 E0.06048
G1 X142.194 Y112.249 E0.06017
G1 X141.468 Y113.774 E0.05294
G1 X140.475 Y115.426 E0.06045
G1 X139.310 Y116.975 E0.06076
G1 X138.194 Y118.195 E0.05185
G1 X136.759 Y119.488 E0.06055
G1 X135.422 Y120.478 E0.05218
G1 X133.764 Y121.474 E0.06063
G1 X132.044 Y122.279 E0.05954
G1 X130.446 Y122.847 E0.05318
G1 X128.571 Y123.315 E0.06059
G1 X126.935 Y123.559 E0.05189
G1 X125.006 Y123.660 E0.06055
G1 X123.075 Y123.560 E0.06064
G1 X121.427 Y123.314 E0.05225
G1 X119.555 Y122.847 E0.06048
G1 X117.751 Y122.194 E0.06017
G1 X116.226 Y121.468 E0.05294
G1 X114.574 Y120.475 E0.06045
G1 X113.025 Y119.310 E0.06076
G1 X111.805 Y118.194 E0.05185
G1 X110.691 Y116.976 E0.05176
G1 X109.534 Y115.439 E0.06030
G1 X108.536 Y113.781 E0.06069
G1 X107.814 Y112.268 E0.05254
G1 X107.156 Y110.455 E0.06049
G1 X106.689 Y108.587 E0.06037
G1 X106.440 Y106.926 E0.05265
G1 X106.340 Y104.999 E0.06051
G1 X106.440 Y103.074 E0.06046
G1 X106.687 Y101.420 E0.05243
G1 X107.154 Y99.551 E0.06039
G1 X107.814 Y97.732 E0.06069
G1 X108.532 Y96.226 E0.05229
G1 X109.529 Y94.568 E0.06067
G1 X110.654 Y93.073 E0.05866
G1 X110.955 Y93.300 F10800.000
G1 F1200.000
G1 X112.071 Y92.073 E0.05199
G1 X113.478 Y90.805 E0.05940
G1 X114.778 Y89.842 E0.05070
G1 X116.399 Y88.867 E0.05932
G1 X117.876 Y88.163 E0.05130
G1 X119.657 Y87.516 E0.05940
G1 X121.494 Y87.057 E0.05940
G1 X123.110 Y86.815 E0.05121
G1 X124.995 Y86.717 E0.05920
G1 X126.890 Y86.815 E0.05950
G1 X128.505 Y87.057 E0.05118
G1 X130.337 Y87.514 E0.05920
G1 X132.105 Y88.155 E0.05897
G1 X133.594 Y88.863 E0.05171
G1 X135.219 Y89.840 E0.05946
G1 X136.735 Y90.981 E0.05948
G1 X137.927 Y92.071 E0.05064
G1 X139.197 Y93.480 E0.05948
G1 X140.166 Y94.790 E0.05109
G1 X141.141 Y96.415 E0.05941
G1 X141.930 Y98.100 E0.05834
G1 X142.487 Y99.665 E0.05206
G1 X142.946 Y101.508 E0.05958
G1 X143.211 Y103.385 E0.05942
G1 X143.283 Y104.991 E0.05039
G1 X143.185 Y106.889 E0.05962
G1 X142.945 Y108.498 E0.05099
G1 X142.486 Y110.337 E0.05942
G1 X141.845 Y112.105 E0.05897
G1 X141.137 Y113.594 E0.05171
G1 X140.163 Y115.214 E0.05924
G1 X139.200 Y116.516 E0.05078
G1 X137.929 Y117.927 E0.05955
G1 X136.520 Y119.197 E0.05948
G1 X135.213 Y120.164 E0.05095
G1 X133.585 Y121.141 E0.05955
G1 X131.900 Y121.930 E0.05834
G1 X130.335 Y122.487 E0.05206
G1 X128.501 Y122.944 E0.05928
G1 X126.898 Y123.184 E0.05082
G1 X125.008 Y123.283 E0.05933
G1 X123.111 Y123.185 E0.05958
G1 X121.502 Y122.945 E0.05099
G1 X119.663 Y122.486 E0.05942
G1 X117.895 Y121.845 E0.05897
G1 X116.406 Y121.137 E0.05171
G1 X114.786 Y120.163 E0.05924
G1 X113.484 Y119.200 E0.05078
G1 X112.073 Y117.929 E0.05955
G1 X110.982 Y116.736 E0.05070
G1 X109.846 Y115.227 E0.05921
G1 X108.867 Y113.601 E0.05951
G1 X108.163 Y112.124 E0.05130
G1 X107.517 Y110.347 E0.05929
G1 X107.058 Y108.512 E0.05930
G1 X106.815 Y106.890 E0.05142
G1 X106.717 Y105.002 E0.05930
G1 X106.815 Y103.110 E0.05940
G1 X107.057 Y101.491 E0.05132
G1 X107.514 Y99.663 E0.05906
G1 X108.163 Y97.876 E0.05963
G1 X108.863 Y96.406 E0.05105
G1 X109.842 Y94.777 E0.05958
G1 X110.919 Y93.347 E0.05612
; printing object Clamp_ring.stl id:0 copy 0
G1 F8640.000
G1 X112.071 Y92.073 E-0.39669
G1 X113.240 Y91.020 E-0.36331
G1 E-0.04000 F2100.00000
G1 Z0.600 F10800.000
G1 X118.112 Y99.615
G1 Z0.200
G1 E0.80000 F2100.00000
G1 F1200.000
G1 X118.711 Y98.926 E0.02861
G1 X119.380 Y98.302 E0.02869
G1 X120.111 Y97.751 E0.02869
G1 X120.893 Y97.281 E0.02861
G1 X121.586 Y96.951 E0.02408
G1 X122.441 Y96.640 E0.02853
G1 X123.185 Y96.447 E0.02408
G1 X124.084 Y96.305 E0.02853
G1 X124.850 Y96.258 E0.02408
G1 X125.762 Y96.290 E0.02861
G1 X126.668 Y96.417 E0.02869
G1 X127.550 Y96.637 E0.02850
G1 X128.278 Y96.894 E0.02419
G1 X129.099 Y97.277 E0.02842
G1 X129.762 Y97.667 E0.02411
G1 X130.385 Y98.112 E0.02400
G1 X131.074 Y98.711 E0.02861
G1 X131.698 Y99.380 E0.02869
G1 X132.249 Y100.111 E0.02869
G1 X132.719 Y100.893 E0.02861
G1 X133.048 Y101.584 E0.02400
G1 X133.316 Y102.301 E0.02399
G1 X133.551 Y103.176 E0.02842
G1 X133.678 Y103.937 E0.02419
G1 X133.742 Y104.847 E0.02862
G1 X133.710 Y105.762 E0.02869
G1 X133.583 Y106.668 E0.02869
G1 X133.363 Y107.550 E0.02850
G1 X133.106 Y108.278 E0.02419
G1 X132.723 Y109.099 E0.02842
G1 X132.333 Y109.762 E0.02411
G1 X131.888 Y110.385 E0.02400
G1 X131.289 Y111.074 E0.02861
G1 X130.620 Y111.698 E0.02869
G1 X129.889 Y112.249 E0.02869
G1 X129.107 Y112.719 E0.02861
G1 X128.416 Y113.048 E0.02400
G1 X127.699 Y113.316 E0.02399
G1 X126.824 Y113.551 E0.02842
G1 X126.063 Y113.678 E0.02419
G1 X125.153 Y113.742 E0.02862
G1 X124.238 Y113.710 E0.02869
G1 X123.332 Y113.583 E0.02869
G1 X122.450 Y113.363 E0.02850
G1 X121.722 Y113.106 E0.02419
G1 X120.901 Y112.723 E0.02842
G1 X120.238 Y112.333 E0.02411
G1 X119.615 Y111.888 E0.02400
G1 X118.926 Y111.289 E0.02861
G1 X118.302 Y110.620 E0.02869
G1 X117.751 Y109.889 E0.02869
G1 X117.281 Y109.107 E0.02861
G1 X116.951 Y108.414 E0.02408
G1 X116.640 Y107.559 E0.02853
G1 X116.447 Y106.815 E0.02408
G1 X116.305 Y105.916 E0.02853
G1 X116.258 Y105.150 E0.02408
G1 X116.290 Y104.238 E0.02861
G1 X116.417 Y103.332 E0.02869
G1 X116.637 Y102.450 E0.02850
G1 X116.894 Y101.722 E0.02419
G1 X117.277 Y100.901 E0.02842
G1 X117.667 Y100.238 E0.02411
G1 X118.077 Y99.664 E0.02212
G1 X118.384 Y99.883 F10800.000
G1 F1200.000
G1 X118.982 Y99.189 E0.02873
G1 X119.623 Y98.591 E0.02746
G1 X120.322 Y98.064 E0.02746
G1 X121.072 Y97.614 E0.02743
G1 X121.732 Y97.299 E0.02294
G1 X122.553 Y97.000 E0.02740
G1 X123.262 Y96.817 E0.02294
G1 X124.125 Y96.680 E0.02740
G1 X124.855 Y96.636 E0.02294
G1 X125.729 Y96.666 E0.02743
G1 X126.596 Y96.788 E0.02745
G1 X127.442 Y96.999 E0.02732
G1 X128.135 Y97.244 E0.02305
G1 X128.924 Y97.611 E0.02729
G1 X129.556 Y97.984 E0.02302
G1 X130.151 Y98.408 E0.02291
G1 X130.811 Y98.982 E0.02743
G1 X131.409 Y99.623 E0.02746
G1 X131.936 Y100.322 E0.02746
G1 X132.386 Y101.072 E0.02743
G1 X132.701 Y101.731 E0.02291
G1 X132.957 Y102.416 E0.02291
G1 X133.182 Y103.256 E0.02729
G1 X133.303 Y103.981 E0.02305
G1 X133.365 Y104.854 E0.02743
G1 X133.334 Y105.729 E0.02746
G1 X133.212 Y106.596 E0.02745
G1 X133.001 Y107.442 E0.02732
G1 X132.756 Y108.135 E0.02305
G1 X132.389 Y108.924 E0.02729
G1 X132.016 Y109.556 E0.02302
G1 X131.592 Y110.151 E0.02291
G1 X131.018 Y110.811 E0.02743
G1 X130.377 Y111.409 E0.02746
G1 X129.678 Y111.936 E0.02746
G1 X128.928 Y112.386 E0.02743
G1 X128.269 Y112.701 E0.02291
G1 X127.584 Y112.957 E0.02291
G1 X126.744 Y113.182 E0.02729
G1 X126.019 Y113.303 E0.02305
G1 X125.146 Y113.365 E0.02743
G1 X124.271 Y113.334 E0.02746
G1 X123.404 Y113.212 E0.02745
G1 X122.558 Y113.001 E0.02732
G1 X121.865 Y112.756 E0.02305
G1 X121.076 Y112.389 E0.02729
G1 X120.444 Y112.016 E0.02302
G1 X119.849 Y111.592 E0.02291
G1 X119.189 Y111.018 E0.02743
G1 X118.591 Y110.377 E0.02746
G1 X118.064 Y109.678 E0.02746
G1 X117.614 Y108.928 E0.02743
G1 X117.299 Y108.268 E0.02294
G1 X117.000 Y107.447 E0.02740
G1 X116.817 Y106.738 E0.02294
G1 X116.680 Y105.875 E0.02740
G1 X116.636 Y105.145 E0.02294
G1 X116.666 Y104.271 E0.02743
G1 X116.788 Y103.404 E0.02745
G1 X116.999 Y102.558 E0.02732
G1 X117.244 Y101.865 E0.02305
G1 X117.611 Y101.076 E0.02729
G1 X117.984 Y100.444 E0.02302
G1 X118.349 Y99.932 E0.01972
G1 X118.235 Y99.512 F10800.000
G1 F8640.000
G1 X118.982 Y99.189 E-0.22541
G1 X119.623 Y98.591 E-0.20219
G1 X120.322 Y98.064 E-0.20219
G1 X120.805 Y97.774 E-0.13021
G1 E-0.04000 F2100.00000
G1 Z0.600 F10800.000
G1 X113.064 Y95.728
G1 Z0.200
G1 E0.80000 F2100.00000
G1 F1200.000
G1 X113.419 Y95.282 E0.01784
G1 X113.943 Y94.689 E0.02482
G1 X114.498 Y94.125 E0.02482
G1 X115.082 Y93.590 E0.02482
G1 X115.694 Y93.085 E0.02490
G1 X116.112 Y92.771 E0.01638
G1 X116.766 Y92.321 E0.02490
G1 X117.441 Y91.907 E0.02482
G1 X118.136 Y91.530 E0.02482
G1 X118.851 Y91.189 E0.02482
G1 X119.582 Y90.886 E0.02482
G1 X120.328 Y90.622 E0.02482
G1 X121.087 Y90.397 E0.02482
G1 X121.859 Y90.212 E0.02490
G1 X122.893 Y90.029 E0.03293
G1 X123.682 Y89.939 E0.02490
G1 X124.472 Y89.891 E0.02482
G1 X125.261 Y89.884 E0.02474
G1 X125.789 Y89.902 E0.01655
G1 X126.580 Y89.965 E0.02489
G1 X127.365 Y90.068 E0.02482
G1 X128.146 Y90.213 E0.02490
G1 X128.655 Y90.330 E0.01639
G1 X129.420 Y90.542 E0.02490
G1 X130.171 Y90.794 E0.02482
G1 X130.907 Y91.084 E0.02482
G1 X131.627 Y91.412 E0.02482
G1 X132.329 Y91.777 E0.02482
G1 X133.011 Y92.179 E0.02482
G1 X133.674 Y92.617 E0.02490
G1 X134.096 Y92.924 E0.01638
G1 X134.718 Y93.419 E0.02490
G1 X135.311 Y93.943 E0.02482
G1 X135.875 Y94.498 E0.02482
G1 X136.410 Y95.082 E0.02482
G1 X136.915 Y95.694 E0.02490
G1 X137.229 Y96.112 E0.01638
G1 X137.679 Y96.766 E0.02490
G1 X138.093 Y97.441 E0.02482
G1 X138.470 Y98.136 E0.02482
G1 X138.811 Y98.851 E0.02482
G1 X139.114 Y99.582 E0.02482
G1 X139.378 Y100.328 E0.02482
G1 X139.603 Y101.087 E0.02482
G1 X139.788 Y101.859 E0.02490
G1 X139.971 Y102.893 E0.03293
G1 X140.061 Y103.682 E0.02490
G1 X140.109 Y104.472 E0.02482
G1 X140.116 Y105.266 E0.02490
G1 X140.098 Y105.789 E0.01638
G1 X140.035 Y106.580 E0.02490
G1 X139.932 Y107.365 E0.02482
G1 X139.787 Y108.146 E0.02490
G1 X139.670 Y108.655 E0.01639
G1 X139.458 Y109.420 E0.02490
G1 X139.206 Y110.171 E0.02482
G1 X138.916 Y110.907 E0.02482
G1 X138.588 Y111.627 E0.02482
G1 X138.223 Y112.329 E0.02482
G1 X137.821 Y113.011 E0.02482
G1 X137.383 Y113.674 E0.02490
G1 X137.076 Y114.096 E0.01638
G1 X136.581 Y114.718 E0.02490
G1 X136.057 Y115.311 E0.02482
G1 X135.502 Y115.875 E0.02482
G1 X134.918 Y116.410 E0.02482
G1 X134.306 Y116.915 E0.02490
G1 X133.888 Y117.229 E0.01638
G1 X133.234 Y117.679 E0.02490
G1 X132.559 Y118.093 E0.02482
G1 X131.864 Y118.470 E0.02482
G1 X131.149 Y118.811 E0.02482
G1 X130.418 Y119.114 E0.02482
G1 X129.672 Y119.378 E0.02482
G1 X128.913 Y119.603 E0.02482
G1 X128.141 Y119.788 E0.02490
G1 X127.107 Y119.971 E0.03293
G1 X126.318 Y120.061 E0.02490
G1 X125.528 Y120.109 E0.02482
G1 X124.734 Y120.116 E0.02490
G1 X124.211 Y120.098 E0.01638
G1 X123.420 Y120.035 E0.02490
G1 X122.635 Y119.932 E0.02482
G1 X121.854 Y119.787 E0.02490
G1 X121.345 Y119.670 E0.01639
G1 X120.580 Y119.458 E0.02490
G1 X119.829 Y119.206 E0.02482
G1 X119.093 Y118.916 E0.02482
G1 X118.373 Y118.588 E0.02482
G1 X117.671 Y118.223 E0.02482
G1 X116.989 Y117.821 E0.02482
G1 X116.326 Y117.383 E0.02490
G1 X115.904 Y117.076 E0.01638
G1 X115.282 Y116.581 E0.02490
G1 X114.689 Y116.057 E0.02482
G1 X114.125 Y115.502 E0.02482
G1 X113.590 Y114.918 E0.02482
G1 X113.085 Y114.306 E0.02490
G1 X112.771 Y113.888 E0.01638
G1 X112.321 Y113.234 E0.02490
G1 X111.907 Y112.559 E0.02482
G1 X111.530 Y111.864 E0.02482
G1 X111.189 Y111.149 E0.02482
G1 X110.886 Y110.418 E0.02482
G1 X110.622 Y109.672 E0.02482
G1 X110.397 Y108.913 E0.02482
G1 X110.212 Y108.141 E0.02490
G1 X110.029 Y107.107 E0.03293
G1 X109.939 Y106.318 E0.02490
G1 X109.891 Y105.528 E0.02482
G1 X109.884 Y104.734 E0.02490
G1 X109.902 Y104.211 E0.01638
G1 X109.965 Y103.420 E0.02490
G1 X110.068 Y102.635 E0.02482
G1 X110.213 Y101.854 E0.02490
G1 X110.330 Y101.345 E0.01639
G1 X110.542 Y100.580 E0.02490
G1 X110.794 Y99.829 E0.02482
G1 X111.084 Y99.093 E0.02482
G1 X111.412 Y98.373 E0.02482
G1 X111.777 Y97.671 E0.02482
G1 X112.179 Y96.989 E0.02482
G1 X112.617 Y96.326 E0.02490
G1 X113.027 Y95.775 E0.02155
G1 X112.732 Y95.540 F10800.000
G1 F1200.000
G1 X113.130 Y95.040 E0.02004
G1 X113.667 Y94.432 E0.02544
G1 X114.236 Y93.854 E0.02544
G1 X114.834 Y93.306 E0.02544
G1 X115.461 Y92.789 E0.02547
G1 X115.891 Y92.464 E0.01690
G1 X116.561 Y92.004 E0.02547
G1 X117.252 Y91.581 E0.02544
G1 X117.965 Y91.193 E0.02544
G1 X118.697 Y90.844 E0.02544
G1 X119.447 Y90.534 E0.02544
G1 X120.212 Y90.263 E0.02543
G1 X120.990 Y90.033 E0.02544
G1 X121.779 Y89.843 E0.02547
G1 X122.843 Y89.655 E0.03385
G1 X123.649 Y89.564 E0.02546
G1 X124.459 Y89.514 E0.02544
G1 X125.266 Y89.507 E0.02530
G1 X125.810 Y89.526 E0.01706
G1 X126.620 Y89.589 E0.02546
G1 X127.424 Y89.695 E0.02544
G1 X128.223 Y89.843 E0.02546
G1 X128.748 Y89.965 E0.01690
G1 X129.530 Y90.182 E0.02546
G1 X130.300 Y90.439 E0.02544
G1 X131.055 Y90.736 E0.02544
G1 X131.793 Y91.073 E0.02543
G1 X132.512 Y91.447 E0.02544
G1 X133.211 Y91.859 E0.02544
G1 X133.889 Y92.307 E0.02547
G1 X134.325 Y92.624 E0.01690
G1 X134.960 Y93.130 E0.02546
G1 X135.568 Y93.667 E0.02544
G1 X136.146 Y94.236 E0.02544
G1 X136.694 Y94.834 E0.02544
G1 X137.211 Y95.461 E0.02547
G1 X137.536 Y95.891 E0.01690
G1 X137.996 Y96.561 E0.02547
G1 X138.419 Y97.252 E0.02544
G1 X138.807 Y97.965 E0.02544
G1 X139.156 Y98.697 E0.02544
G1 X139.466 Y99.447 E0.02544
G1 X139.737 Y100.212 E0.02543
G1 X139.967 Y100.990 E0.02544
G1 X140.157 Y101.779 E0.02547
G1 X140.345 Y102.843 E0.03385
G1 X140.436 Y103.649 E0.02546
G1 X140.486 Y104.459 E0.02544
G1 X140.493 Y105.271 E0.02546
G1 X140.474 Y105.810 E0.01690
G1 X140.411 Y106.620 E0.02546
G1 X140.305 Y107.424 E0.02544
G1 X140.157 Y108.223 E0.02546
G1 X140.035 Y108.748 E0.01690
G1 X139.818 Y109.530 E0.02546
G1 X139.561 Y110.300 E0.02544
G1 X139.264 Y111.055 E0.02544
G1 X138.927 Y111.793 E0.02543
G1 X138.553 Y112.512 E0.02544
G1 X138.141 Y113.211 E0.02544
G1 X137.693 Y113.889 E0.02547
G1 X137.376 Y114.325 E0.01690
G1 X136.870 Y114.960 E0.02546
G1 X136.333 Y115.568 E0.02544
G1 X135.764 Y116.146 E0.02544
G1 X135.166 Y116.694 E0.02544
G1 X134.539 Y117.211 E0.02547
G1 X134.109 Y117.536 E0.01690
G1 X133.439 Y117.996 E0.02547
G1 X132.748 Y118.419 E0.02544
G1 X132.035 Y118.807 E0.02544
G1 X131.303 Y119.156 E0.02544
G1 X130.553 Y119.466 E0.02544
G1 X129.788 Y119.737 E0.02543
G1 X129.011 Y119.967 E0.02544
G1 X128.221 Y120.157 E0.02547
G1 X127.157 Y120.345 E0.03385
G1 X126.351 Y120.436 E0.02546
G1 X125.541 Y120.486 E0.02544
G1 X124.729 Y120.493 E0.02546
G1 X124.190 Y120.474 E0.01690
G1 X123.380 Y120.411 E0.02546
