; generated by PrusaSlicer 2.5.0+MacOS-x64 on 2023-02-05 at 21:36:48 UTC


;
;

;
;
; 

; external perimeters extrusion width = 0.45mm
; perimeters extrusion width = 0.45mm
; infill extrusion width = 0.45mm
; solid infill extrusion width = 0.45mm
; top infill extrusion width = 0.40mm
; first layer extrusion width = 0.42mm

; external perimeters extrusion width = 0.45mm
; perimeters extrusion width = 0.45mm
; infill extrusion width = 0.45mm
; solid infill extrusion width = 0.45mm
; top infill extrusion width = 0.40mm
; first layer extrusion width = 0.42mm

M73 P0 R30
M201 X2500 Y2500 Z400 E5000 ; sets maximum accelerations, mm/sec^2
M203 X180 Y180 Z12 E80 ; sets maximum feedrates, mm / sec
M204 P1250 R1250 T2500 ; sets acceleration (P, T) and retract acceleration (R), mm/sec^2
M205 X8.00 Y8.00 Z2.00 E10.00 ; sets the jerk limits, mm/sec
M205 S0 T0 ; sets the minimum extruding and travel feed rate, mm/sec
M107
;TYPE:Custom
M862.3 P "MINI" ; printer model check
G90 ; use absolute coordinates
M83 ; extruder relative mode
M104 S170 ; set extruder temp for bed leveling
M140 S60 ; set bed temp
M109 R170 ; wait for bed leveling temp
M190 S60 ; wait for bed temp
M204 T1250 ; set travel acceleration
G28 ; home all without mesh bed level
G29 ; mesh bed leveling 
M204 T2500 ; restore travel acceleration
M104 S215 ; set extruder temp
G92 E0
G1 Y-2 X179 F2400
G1 Z3 F720
M109 S215 ; wait for extruder temp

; intro line
G1 X170 F1000
G1 Z0.2 F720
G1 X110 E8 F900
G1 X40 E10 F700
G92 E0

M221 S95 ; set flow
G21 ; set units to millimeters
G90 ; use absolute coordinates
M83 ; use relative distances for extrusion
M900 K0.2 ; Filament gcode LA 1.5
; ; Filament gcode LA 1.0
M107
;LAYER_CHANGE
;Z:0.2
;HEIGHT:0.2
;BEFORE_LAYER_CHANGE
G92 E0.0
;0.2


G1 E-3.2 F4200
G1 Z.2 F720
;AFTER_LAYER_CHANGE
;0.2
G1 Z.4
G1 X78.069 Y79.543 F9000
G1 Z.2 F720
G1 E3.2 F2400
M204 P800
;TYPE:Skirt/Brim
;WIDTH:0.42
G1 F1200
G1 X79.014 Y78.804 E.03762
G1 X80.02 Y78.151 E.03762
G1 X81.079 Y77.588 E.03762
G1 X82.409 Y77.037 E.04514
G1 X84.494 Y76.478 E.06766
G1 X85.921 Y76.29 E.04514
G1 X104 Y76.246 E.56686
G1 X105.417 Y76.639 E.04612
G1 X106.431 Y77.705 E.04612
G1 X106.754 Y79 E.04186
G1 X106.754 Y101 E.68979
G1 X106.361 Y102.417 E.04612
M73 P1 R30
G1 X105.295 Y103.431 E.04612
G1 X104 Y103.754 E.04186
G1 X87 Y103.754 E.53302
G1 X85.682 Y103.689 E.04138
G1 X84.494 Y103.522 E.03762
G1 X83.325 Y103.252 E.03762
G1 X82.184 Y102.881 E.03761
G1 X81.079 Y102.412 E.03762
G1 X80.02 Y101.849 E.03762
G1 X79.014 Y101.196 E.03762
G1 X78.069 Y100.457 E.03762
G1 X76.543 Y98.931 E.06765
G1 X75.804 Y97.986 E.03762
G1 X75.151 Y96.98 E.03762
G1 X74.588 Y95.921 E.03761
G1 X74.119 Y94.816 E.03762
G1 X73.686 Y93.443 E.04514
G1 X73.436 Y92.269 E.03762
G1 X73.248 Y90.12 E.06764
G1 X73.29 Y88.921 E.03762
G1 X73.436 Y87.731 E.03761
G1 X73.686 Y86.557 E.03762
G1 X74.037 Y85.409 E.03762
G1 X74.588 Y84.079 E.04514
G1 X75.151 Y83.02 E.03762
G1 X75.804 Y82.014 E.03762
G1 X76.543 Y81.069 E.03762
G1 X78.026 Y79.585 E.06577
M204 P1000
G1 X78.293 Y79.852 F9000
M204 P800
G1 F1200
G1 X79.244 Y79.103 E.03794
G1 X80.223 Y78.469 E.03659
G1 X81.254 Y77.922 E.03659
G1 X82.523 Y77.396 E.04308
G1 X84.575 Y76.846 E.06662
G1 X85.937 Y76.667 E.04308
G1 X104 Y76.623 E.56634
G1 X105.307 Y77.015 E.04278
G1 X106.183 Y78.06 E.04278
G1 X106.377 Y79 E.03008
G1 X106.377 Y101 E.68979
G1 X105.985 Y102.307 E.04278
G1 X104.94 Y103.183 E.04278
G1 X104 Y103.377 E.03008
G1 X87 Y103.377 E.53302
G1 X85.731 Y103.315 E.03983
G1 X84.575 Y103.154 E.03659
G1 X83.438 Y102.892 E.03659
G1 X82.328 Y102.533 E.03658
G1 X81.254 Y102.078 E.03659
G1 X80.223 Y101.531 E.03659
G1 X79.244 Y100.897 E.03659
G1 X78.323 Y100.179 E.03659
G1 X76.821 Y98.677 E.06662
G1 X76.103 Y97.756 E.03659
G1 X75.469 Y96.777 E.03659
G1 X74.922 Y95.746 E.03658
G1 X74.467 Y94.672 E.03659
G1 X74.054 Y93.362 E.04308
G1 X73.81 Y92.22 E.03659
G1 X73.625 Y90.104 E.06661
G1 X73.667 Y88.937 E.03659
M73 P1 R29
G1 X73.81 Y87.78 E.03658
G1 X74.054 Y86.638 E.03659
G1 X74.396 Y85.523 E.03659
G1 X74.922 Y84.254 E.04308
G1 X75.469 Y83.223 E.03659
G1 X76.103 Y82.244 E.03659
G1 X76.821 Y81.323 E.03659
G1 X78.25 Y79.894 E.06337
M204 P1000
; printing object RJ45_WireGland_Plug_6.4mm_-1mm.stl id:1 copy 0
G1 E-2.24 F4200
;WIPE_START
G1 F7200
G1 X79.244 Y79.103 E-.70361
G1 X79.559 Y78.899 E-.20839
;WIPE_END
G1 E-.048 F4200
G1 Z.4 F720
G1 X103.213 Y93.893 F9000
G1 Z.2 F720
G1 E3.2 F2400
M204 P800
;TYPE:Perimeter
;WIDTH:0.419999
G1 F1200
G1 X103.213 Y100.178 E.19704
G1 X102.227 Y100.057 E.03115
G1 X101.357 Y99.864 E.02793
G1 X100.507 Y99.596 E.02793
G1 X99.684 Y99.255 E.02793
G1 X98.894 Y98.844 E.02793
G1 X98.143 Y98.365 E.02793
G1 X97.436 Y97.823 E.02793
G1 X96.779 Y97.221 E.02793
G1 X96.177 Y96.564 E.02793
G1 X95.635 Y95.857 E.02793
G1 X95.156 Y95.106 E.02793
G1 X94.745 Y94.316 E.02793
G1 X94.404 Y93.493 E.02793
G1 X94.136 Y92.643 E.02793
G1 X93.943 Y91.773 E.02793
G1 X93.827 Y90.89 E.02793
G1 X93.788 Y90 E.02793
G1 X93.827 Y89.11 E.02793
G1 X93.943 Y88.227 E.02793
G1 X94.136 Y87.357 E.02793
G1 X94.404 Y86.507 E.02793
G1 X94.745 Y85.684 E.02793
G1 X95.156 Y84.894 E.02793
G1 X95.635 Y84.143 E.02793
G1 X96.177 Y83.436 E.02793
G1 X96.779 Y82.779 E.02793
G1 X97.436 Y82.177 E.02793
G1 X97.908 Y81.815 E.01865
G1 X98.433 Y81.45 E.02006
G1 X99.005 Y81.098 E.02107
G1 X99.784 Y80.703 E.02738
G1 X100.591 Y80.377 E.02729
G1 X101.42 Y80.122 E.02719
G1 X102.263 Y79.938 E.02706
G1 X103.213 Y79.822 E.03
G1 X103.213 Y86.107 E.19704
G1 X102.921 Y86.163 E.00933
G1 X102.271 Y86.409 E.02178
G1 X101.674 Y86.764 E.02178
G1 X101.147 Y87.217 E.02178
G1 X100.707 Y87.755 E.02178
G1 X100.367 Y88.36 E.02178
G1 X100.138 Y89.016 E.02178
G1 X100.026 Y89.702 E.02178
G1 X100.034 Y90.396 E.02178
G1 X100.163 Y91.079 E.02178
G1 X100.409 Y91.729 E.02178
G1 X100.764 Y92.326 E.02178
G1 X101.217 Y92.853 E.02178
G1 X101.755 Y93.293 E.02178
G1 X102.36 Y93.633 E.02178
G1 X102.921 Y93.837 E.0187
G1 X103.154 Y93.882 E.00745
M204 P1000
G1 X103.59 Y93.572 F9000
M204 P800
;TYPE:External perimeter
G1 F1200
G1 X103.59 Y100.572 E.21948
G1 X103.077 Y100.549 E.0161
G1 X102.161 Y100.429 E.02897
G1 X101.259 Y100.229 E.02897
G1 X100.378 Y99.951 E.02897
G1 X99.525 Y99.597 E.02897
G1 X98.705 Y99.171 E.02896
G1 X97.926 Y98.674 E.02897
G1 X97.193 Y98.112 E.02897
G1 X96.512 Y97.488 E.02897
G1 X95.888 Y96.807 E.02897
G1 X95.326 Y96.074 E.02897
G1 X94.829 Y95.295 E.02897
G1 X94.403 Y94.475 E.02896
G1 X94.049 Y93.622 E.02897
G1 X93.771 Y92.741 E.02897
G1 X93.571 Y91.839 E.02897
G1 X93.451 Y90.923 E.02897
G1 X93.41 Y90 E.02897
G1 X93.451 Y89.077 E.02897
G1 X93.571 Y88.161 E.02897
G1 X93.771 Y87.259 E.02897
G1 X94.049 Y86.378 E.02897
G1 X94.403 Y85.525 E.02897
G1 X94.829 Y84.705 E.02896
G1 X95.326 Y83.926 E.02897
G1 X95.888 Y83.193 E.02897
G1 X96.512 Y82.512 E.02897
G1 X97.193 Y81.888 E.02897
G1 X97.926 Y81.326 E.02897
G1 X98.705 Y80.829 E.02897
G1 X99.525 Y80.403 E.02896
G1 X100.378 Y80.049 E.02897
G1 X101.259 Y79.771 E.02897
G1 X102.161 Y79.571 E.02897
G1 X103.077 Y79.451 E.02897
G1 X103.59 Y79.428 E.0161
G1 X103.59 Y86.428 E.21948
G1 X103.05 Y86.518 E.01716
G1 X102.46 Y86.736 E.01973
G1 X101.916 Y87.053 E.01973
G1 X101.436 Y87.459 E.01973
G1 X101.034 Y87.943 E.01973
G1 X100.722 Y88.489 E.01973
G1 X100.509 Y89.082 E.01973
G1 X100.403 Y89.702 E.01973
G1 X100.406 Y90.331 E.01973
G1 X100.518 Y90.95 E.01973
G1 X100.736 Y91.54 E.01973
G1 X101.053 Y92.084 E.01973
G1 X101.459 Y92.564 E.01973
G1 X101.943 Y92.966 E.01973
G1 X102.489 Y93.278 E.01973
G1 X103.085 Y93.491 E.01983
G1 X103.531 Y93.562 E.01416
M204 P1000
G1 X103.361 Y93.899 F9000
G1 E-2.24 F4200
;WIPE_START
G1 F7200
G1 X103.545 Y95.208 E-.912
;WIPE_END
G1 E-.048 F4200
G1 Z.4 F720
G1 X102.427 Y80.031 F9000
G1 Z.2 F720
G1 E3.2 F2400
M204 P800
;TYPE:Solid infill
;WIDTH:0.420687
G1 F1200
G1 X102.93 Y80.534 E.02234
G1 X102.93 Y81.068 E.01678
G1 X102.119 Y80.257 E.03604
G1 X101.682 Y80.353 E.01407
G1 X102.93 Y81.602 E.05546
G1 X102.93 Y82.136 E.01678
G1 X101.257 Y80.464 E.0743
G1 X100.851 Y80.592 E.01338
G1 X102.93 Y82.671 E.09234
G1 X102.93 Y83.205 E.01678
G1 X100.456 Y80.731 E.10989
G1 X100.079 Y80.887 E.01284
G1 X102.93 Y83.739 E.12668
G1 X102.93 Y84.273 E.01678
G1 X99.708 Y81.051 E.14314
G1 X99.357 Y81.234 E.01244
G1 X102.93 Y84.807 E.15875
G1 X102.93 Y85.342 E.01678
G1 X99.007 Y81.419 E.17426
G1 X98.681 Y81.627 E.01215
G1 X102.926 Y85.872 E.18859
G1 X102.53 Y86.01 E.01319
G1 X98.355 Y81.835 E.18547
G1 X98.049 Y82.063 E.01199
G1 X102.143 Y86.158 E.18189
G1 X101.805 Y86.354 E.01228
M73 P2 R29
G1 X97.746 Y82.295 E.18029
G1 X97.458 Y82.541 E.01191
G1 X101.48 Y86.563 E.17867
G1 X101.192 Y86.809 E.0119
G1 X97.179 Y82.796 E.17828
G1 X96.907 Y83.058 E.01187
G1 X100.909 Y87.061 E.17781
G1 X100.667 Y87.352 E.01192
G1 X96.651 Y83.337 E.17838
G1 X96.396 Y83.616 E.01188
G1 X100.439 Y87.659 E.17962
G1 X100.244 Y87.998 E.01228
G1 X96.164 Y83.918 E.18124
G1 X95.932 Y84.22 E.01197
G1 X100.07 Y88.359 E.18384
G1 X99.928 Y88.75 E.01309
G1 X95.717 Y84.54 E.18705
G1 X95.509 Y84.866 E.01215
G1 X99.827 Y89.184 E.19182
G1 X99.751 Y89.642 E.0146
G1 X95.313 Y85.204 E.19716
G1 X95.13 Y85.556 E.01244
G1 X99.745 Y90.17 E.20499
G1 X99.746 Y90.372 E.00635
G1 X99.817 Y90.777 E.01289
G1 X94.955 Y85.915 E.21598
G1 X94.799 Y86.293 E.01284
G1 X100.346 Y91.839 E.2464
M204 P1000
G1 E-2.24 F4200
;WIPE_START
G1 F7200
G1 X99.182 Y90.676 E-.912
;WIPE_END
G1 E-.048 F4200
G1 Z.4 F720
G1 X102.144 Y93.637 F9000
G1 Z.2 F720
G1 E3.2 F2400
M204 P800
G1 F1200
G1 X102.93 Y94.424 E.03493
G1 X102.93 Y94.958 E.01678
G1 X94.647 Y86.675 E.36795
G1 X94.519 Y87.081 E.01338
G1 X102.93 Y95.492 E.37364
G1 X102.93 Y96.027 E.01678
G1 X94.396 Y87.492 E.37913
G1 X94.299 Y87.929 E.01407
G1 X102.93 Y96.561 E.38344
G1 X102.93 Y97.095 E.01678
G1 X94.209 Y88.374 E.38742
G1 X94.147 Y88.846 E.01496
G1 X102.93 Y97.629 E.39018
G1 X102.93 Y98.164 E.01678
G1 X94.1 Y89.333 E.39226
G1 X94.078 Y89.845 E.01609
G1 X102.93 Y98.698 E.39325
G1 X102.93 Y99.232 E.01678
G1 X94.088 Y90.39 E.39279
G1 X94.121 Y90.957 E.01784
G1 X102.93 Y99.766 E.39133
G1 X102.93 Y99.864 E.00308
G1 X102.428 Y99.798 E.01591
G1 X94.202 Y91.572 E.36543
G1 X94.336 Y92.241 E.02143
G1 X101.759 Y99.664 E.32974
G1 X101.43 Y99.591 E.01058
G1 X101.024 Y99.463 E.01339
G1 X94.537 Y92.976 E.28814
G1 X94.67 Y93.396 E.01382
G1 X94.844 Y93.817 E.01433
G1 X100.183 Y99.156 E.23714
G1 X99.804 Y98.999 E.01288
G1 X99.152 Y98.66 E.02307
G1 X95.34 Y94.848 E.16934
G1 X95.867 Y95.695 E.03133
G1 X96.394 Y96.382 E.02721
G1 X96.977 Y97.018 E.0271
G1 X98.272 Y98.314 E.05755
M204 P1000
; stop printing object RJ45_WireGland_Plug_6.4mm_-1mm.stl id:1 copy 0
; printing object RJ45_WireGland_Plug_6.4mm_-2mm.stl id:0 copy 0
G1 E-2.24 F4200
;WIPE_START
G1 F7200
G1 X97.108 Y97.15 E-.912
;WIPE_END
G1 E-.048 F4200
G1 Z.4 F720
G1 X86.213 Y86.107 F9000
G1 Z.2 F720
G1 E3.2 F2400
M204 P800
;TYPE:Perimeter
;WIDTH:0.419999
G1 F1200
G1 X85.921 Y86.163 E.00933
G1 X85.271 Y86.409 E.02178
G1 X84.674 Y86.764 E.02178
G1 X84.147 Y87.217 E.02178
G1 X83.707 Y87.755 E.02178
G1 X83.367 Y88.36 E.02178
G1 X83.138 Y89.016 E.02178
G1 X83.026 Y89.702 E.02178
G1 X83.034 Y90.396 E.02178
G1 X83.163 Y91.079 E.02178
G1 X83.409 Y91.728 E.02177
G1 X83.756 Y92.315 E.02137
G1 X84.217 Y92.853 E.02221
G1 X84.755 Y93.293 E.02178
G1 X85.36 Y93.633 E.02178
G1 X85.921 Y93.837 E.0187
G1 X86.213 Y93.893 E.00933
G1 X86.213 Y100.178 E.19704
G1 X85.227 Y100.057 E.03115
G1 X84.357 Y99.864 E.02793
G1 X83.507 Y99.596 E.02793
G1 X82.684 Y99.255 E.02793
G1 X81.894 Y98.844 E.02793
G1 X81.143 Y98.365 E.02793
G1 X80.436 Y97.823 E.02793
G1 X79.779 Y97.221 E.02793
G1 X79.177 Y96.564 E.02793
G1 X78.635 Y95.857 E.02793
G1 X78.156 Y95.106 E.02793
G1 X77.745 Y94.316 E.02793
G1 X77.404 Y93.493 E.02793
G1 X77.136 Y92.643 E.02793
G1 X76.943 Y91.773 E.02793
G1 X76.844 Y91.025 E.02368
G1 X76.788 Y90 E.03217
G1 X76.827 Y89.11 E.02793
G1 X76.943 Y88.227 E.02793
G1 X77.136 Y87.357 E.02793
G1 X77.404 Y86.507 E.02793
G1 X77.745 Y85.684 E.02793
G1 X78.156 Y84.894 E.02793
G1 X78.635 Y84.143 E.02793
G1 X79.177 Y83.436 E.02793
G1 X79.779 Y82.779 E.02793
G1 X80.436 Y82.177 E.02793
G1 X80.908 Y81.815 E.01865
G1 X81.433 Y81.45 E.02006
G1 X82.005 Y81.098 E.02107
G1 X82.784 Y80.703 E.02738
G1 X83.591 Y80.377 E.02729
G1 X84.42 Y80.122 E.02719
G1 X85.263 Y79.938 E.02706
G1 X86.213 Y79.822 E.03
G1 X86.213 Y86.047 E.19516
M204 P1000
G1 X86.59 Y86.428 F9000
M204 P800
;TYPE:External perimeter
G1 F1200
G1 X86.05 Y86.518 E.01716
G1 X85.46 Y86.736 E.01973
G1 X84.916 Y87.053 E.01973
G1 X84.436 Y87.459 E.01973
G1 X84.034 Y87.943 E.01973
G1 X83.722 Y88.489 E.01973
G1 X83.509 Y89.082 E.01973
G1 X83.403 Y89.702 E.01973
G1 X83.406 Y90.331 E.01973
G1 X83.518 Y90.95 E.01973
G1 X83.736 Y91.54 E.01972
G1 X84.046 Y92.073 E.01934
G1 X84.459 Y92.564 E.02012
G1 X84.943 Y92.966 E.01973
G1 X85.489 Y93.278 E.01973
G1 X86.085 Y93.491 E.01983
G1 X86.59 Y93.572 E.01604
G1 X86.59 Y100.572 E.21948
M73 P3 R29
G1 X86.077 Y100.549 E.0161
G1 X85.161 Y100.429 E.02897
G1 X84.259 Y100.229 E.02897
G1 X83.378 Y99.951 E.02897
G1 X82.525 Y99.597 E.02897
G1 X81.705 Y99.171 E.02896
G1 X80.926 Y98.674 E.02897
G1 X80.193 Y98.112 E.02897
G1 X79.512 Y97.488 E.02897
G1 X78.888 Y96.807 E.02897
G1 X78.326 Y96.074 E.02897
G1 X77.829 Y95.295 E.02897
G1 X77.403 Y94.475 E.02896
G1 X77.049 Y93.622 E.02897
G1 X76.771 Y92.741 E.02897
G1 X76.571 Y91.839 E.02897
G1 X76.471 Y91.074 E.0242
G1 X76.41 Y90 E.03372
G1 X76.451 Y89.077 E.02897
G1 X76.571 Y88.161 E.02897
G1 X76.771 Y87.259 E.02897
G1 X77.049 Y86.378 E.02897
G1 X77.403 Y85.525 E.02897
G1 X77.829 Y84.705 E.02896
G1 X78.326 Y83.926 E.02897
G1 X78.888 Y83.193 E.02897
G1 X79.512 Y82.512 E.02897
G1 X80.193 Y81.888 E.02897
G1 X80.926 Y81.326 E.02897
G1 X81.705 Y80.829 E.02897
G1 X82.525 Y80.403 E.02896
G1 X83.378 Y80.049 E.02897
G1 X84.259 Y79.771 E.02897
G1 X85.161 Y79.571 E.02897
G1 X86.077 Y79.451 E.02897
G1 X86.59 Y79.428 E.0161
G1 X86.59 Y86.368 E.2176
M204 P1000
G1 X86.22 Y86.276 F9000
G1 E-2.24 F4200
;WIPE_START
G1 F7200
G1 X86.05 Y86.518 E-.31053
G1 X85.46 Y86.736 E-.34867
G1 X85.066 Y86.966 E-.2528
;WIPE_END
G1 E-.048 F4200
G1 Z.4 F720
G1 X85.427 Y80.031 F9000
G1 Z.2 F720
G1 E3.2 F2400
M204 P800
;TYPE:Solid infill
;WIDTH:0.420687
G1 F1200
G1 X85.93 Y80.534 E.02234
G1 X85.93 Y81.068 E.01678
G1 X85.119 Y80.257 E.03604
G1 X84.682 Y80.353 E.01407
G1 X85.93 Y81.602 E.05546
G1 X85.93 Y82.136 E.01678
G1 X84.257 Y80.464 E.0743
G1 X83.851 Y80.592 E.01338
G1 X85.93 Y82.671 E.09234
G1 X85.93 Y83.205 E.01678
G1 X83.456 Y80.731 E.10989
G1 X83.079 Y80.887 E.01284
G1 X85.93 Y83.739 E.12668
G1 X85.93 Y84.273 E.01678
G1 X82.708 Y81.051 E.14314
G1 X82.357 Y81.234 E.01244
G1 X85.93 Y84.807 E.15875
G1 X85.93 Y85.342 E.01678
G1 X82.007 Y81.419 E.17426
G1 X81.681 Y81.627 E.01215
G1 X85.926 Y85.872 E.18859
G1 X85.526 Y86.006 E.01326
G1 X81.355 Y81.835 E.1853
G1 X81.049 Y82.063 E.01199
G1 X85.15 Y86.164 E.18219
G1 X84.808 Y86.357 E.01232
G1 X80.746 Y82.295 E.18043
G1 X80.458 Y82.541 E.01191
G1 X84.479 Y86.562 E.17864
G1 X84.189 Y86.806 E.01191
G1 X80.179 Y82.796 E.17812
G1 X79.907 Y83.058 E.01187
G1 X83.911 Y87.063 E.17789
G1 X83.668 Y87.353 E.01191
G1 X79.651 Y83.337 E.17841
G1 X79.396 Y83.616 E.01188
G1 X83.439 Y87.659 E.17962
G1 X83.244 Y87.998 E.01228
G1 X79.164 Y83.918 E.18125
G1 X78.932 Y84.22 E.01197
G1 X83.07 Y88.359 E.18384
G1 X82.928 Y88.75 E.01309
G1 X78.717 Y84.54 E.18705
G1 X78.509 Y84.866 E.01215
G1 X82.825 Y89.181 E.1917
G1 X82.746 Y89.637 E.01452
G1 X78.313 Y85.204 E.1969
G1 X78.13 Y85.556 E.01244
G1 X82.743 Y90.169 E.20493
G1 X82.743 Y90.306 E.0043
G1 X82.821 Y90.781 E.01513
G1 X77.955 Y85.915 E.21617
G1 X77.799 Y86.293 E.01284
G1 X83.345 Y91.839 E.24639
M204 P1000
G1 E-2.24 F4200
;WIPE_START
G1 F7200
G1 X82.182 Y90.675 E-.912
;WIPE_END
G1 E-.048 F4200
G1 Z.4 F720
G1 X85.168 Y93.662 F9000
G1 Z.2 F720
G1 E3.2 F2400
M204 P800
G1 F1200
G1 X85.93 Y94.424 E.03386
G1 X85.93 Y94.958 E.01678
G1 X77.647 Y86.675 E.36795
G1 X77.519 Y87.081 E.01338
G1 X85.93 Y95.492 E.37364
G1 X85.93 Y96.027 E.01678
G1 X77.396 Y87.492 E.37913
G1 X77.299 Y87.929 E.01407
G1 X85.93 Y96.561 E.38344
G1 X85.93 Y97.095 E.01678
