; generated by PrusaSlicer 2.2.0+ on 2022-05-09 at 14:39:38 UTC


;
;

;
;
; 

; external perimeters extrusion width = 0.45mm
; perimeters extrusion width = 0.45mm
; infill extrusion width = 0.45mm
; solid infill extrusion width = 0.45mm
; top infill extrusion width = 0.40mm
; first layer extrusion width = 0.42mm

M73 P0 R37
M201 X1250 Y1250 Z400 E5000 ; sets maximum accelerations, mm/sec^2
M203 X180 Y180 Z12 E80 ; sets maximum feedrates, mm/sec
M204 P1250 R1250 T1250 ; sets acceleration (P, T) and retract acceleration (R), mm/sec^2
M205 X8.00 Y8.00 Z2.00 E10.00 ; sets the jerk limits, mm/sec
M205 S0 T0 ; sets the minimum extruding and travel feed rate, mm/sec
M107
G90 ; use absolute coordinates
M83 ; extruder relative mode
M104 S170 ; set extruder temp for bed leveling
M140 S60 ; set bed temp
M109 R170 ; wait for bed leveling temp
M190 S60 ; wait for bed temp
G28 ; home all without mesh bed level
G29 ; mesh bed leveling 
M104 S215 ; set extruder temp
G92 E0.0
G1 Y-2.0 X179 F2400
G1 Z3 F720
M109 S215 ; wait for extruder temp

; intro line
G1 X170 F1000
G1 Z0.2 F720
G1 X110.0 E8.0 F900
M73 P0 R37
G1 X40.0 E10.0 F700
G92 E0.0

M221 S95 ; set flow
G21 ; set units to millimeters
G90 ; use absolute coordinates
M83 ; use relative distances for extrusion
M900 K0.2 ; Filament gcode LA 1.5
; ; Filament gcode LA 1.0
;BEFORE_LAYER_CHANGE
G92 E0.0
;0.2


G1 Z0.200 F9000.000
;AFTER_LAYER_CHANGE
;0.2
G1 E-3.20000 F4200.00000
G1 Z0.400 F9000.000
G1 X80.624 Y80.420
G1 Z0.200
G1 E3.20000 F2400.00000
M204 S800
G1 F1200.000
G1 X81.664 Y79.482 E0.04392
G1 X82.651 Y78.751 E0.03848
G1 X83.850 Y78.032 E0.04384
G1 X85.113 Y77.442 E0.04371
G1 X86.270 Y77.032 E0.03849
G1 X87.623 Y76.696 E0.04371
G1 X89.007 Y76.500 E0.04384
G1 X90.218 Y76.446 E0.03801
G1 X91.840 Y76.544 E0.05095
G1 X93.262 Y76.793 E0.04527
G1 X94.648 Y77.192 E0.04521
G1 X96.151 Y77.816 E0.05104
G1 X97.416 Y78.518 E0.04535
G1 X98.740 Y79.464 E0.05102
G1 X99.812 Y80.431 E0.04526
G1 X100.878 Y81.635 E0.05044
G1 X101.593 Y82.638 E0.03861
G1 X102.297 Y83.862 E0.04426
G1 X102.865 Y85.138 E0.04380
G1 X103.276 Y86.407 E0.04181
G1 X103.338 Y86.960 E0.01745
G1 X103.342 Y93.002 E0.18947
G1 X103.255 Y93.684 E0.02154
G1 X102.869 Y94.850 E0.03852
G1 X102.395 Y95.942 E0.03733
G1 X101.820 Y96.999 E0.03771
G1 X101.181 Y97.963 E0.03627
G1 X100.440 Y98.895 E0.03733
G1 X99.628 Y99.750 E0.03698
G1 X98.736 Y100.539 E0.03733
G1 X97.792 Y101.237 E0.03682
G1 X96.787 Y101.853 E0.03695
G1 X95.729 Y102.381 E0.03707
G1 X94.648 Y102.808 E0.03644
G1 X92.545 Y103.352 E0.06811
G1 X91.394 Y103.503 E0.03639
G1 X90.211 Y103.554 E0.03711
G1 X88.819 Y103.482 E0.04371
G1 X87.622 Y103.304 E0.03794
G1 X86.269 Y102.968 E0.04372
G1 X85.099 Y102.553 E0.03892
G1 X83.849 Y101.967 E0.04329
G1 X82.650 Y101.248 E0.04384
G1 X81.666 Y100.520 E0.03836
G1 X80.628 Y99.584 E0.04384
G1 X79.692 Y98.545 E0.04384
G1 X78.964 Y97.562 E0.03836
G1 X78.245 Y96.363 E0.04385
G1 X77.657 Y95.105 E0.04354
G1 X77.247 Y93.949 E0.03844
G1 X76.909 Y92.592 E0.04384
G1 X76.730 Y91.393 E0.03801
G1 X76.658 Y89.999 E0.04378
G1 X76.712 Y88.794 E0.03780
G1 X76.907 Y87.415 E0.04368
G1 X77.245 Y86.057 E0.04389
G1 X77.655 Y84.900 E0.03847
G1 X78.243 Y83.641 E0.04358
G1 X78.959 Y82.445 E0.04371
G1 X79.692 Y81.454 E0.03865
G1 X80.584 Y80.465 E0.04176
M204 S1250
G1 E-2.24000 F4200.00000
G1 F7200.000
G1 X81.664 Y79.482 E-0.80929
G1 X81.813 Y79.371 E-0.10271
G1 E-0.04800 F4200.00000
G1 Z0.400 F9000.000
G1 X102.912 Y86.502
G1 Z0.200
G1 E3.20000 F2400.00000
M204 S800
G1 F1200.000
G1 X102.964 Y93.000 E0.20375
G1 X102.880 Y93.629 E0.01989
G1 X102.436 Y94.921 E0.04284
G1 X101.954 Y95.981 E0.03651
G1 X101.394 Y96.972 E0.03569
G1 X100.019 Y98.802 E0.07178
G1 X98.492 Y100.251 E0.06602
G1 X96.602 Y101.524 E0.07142
G1 X94.522 Y102.452 E0.07143
G1 X92.480 Y102.980 E0.06612
G1 X90.214 Y103.177 E0.07133
G1 X89.043 Y103.125 E0.03674
G1 X87.697 Y102.935 E0.04263
G1 X86.377 Y102.606 E0.04266
G1 X85.257 Y102.210 E0.03724
G1 X84.028 Y101.635 E0.04254
G1 X82.861 Y100.936 E0.04265
G1 X81.907 Y100.230 E0.03724
G1 X80.896 Y99.319 E0.04265
G1 X79.985 Y98.309 E0.04265
G1 X79.287 Y97.367 E0.03676
G1 X78.588 Y96.204 E0.04254
G1 X78.075 Y95.130 E0.03733
G1 X77.613 Y93.857 E0.04246
G1 X77.282 Y92.537 E0.04265
G1 X77.106 Y91.360 E0.03734
G1 X77.036 Y90.001 E0.04265
G1 X77.088 Y88.830 E0.03674
G1 X77.277 Y87.489 E0.04247
G1 X77.606 Y86.164 E0.04282
G1 X78.003 Y85.044 E0.03724
G1 X78.575 Y83.820 E0.04238
G1 X79.274 Y82.653 E0.04264
G1 X79.983 Y81.694 E0.03740
G1 X80.892 Y80.685 E0.04257
G1 X81.904 Y79.773 E0.04273
G1 X82.858 Y79.066 E0.03723
G1 X84.025 Y78.366 E0.04265
G1 X85.257 Y77.790 E0.04264
G1 X86.376 Y77.394 E0.03723
G1 X87.696 Y77.065 E0.04265
G1 X89.043 Y76.875 E0.04264
G1 X90.215 Y76.823 E0.03679
G1 X91.797 Y76.919 E0.04970
G1 X93.175 Y77.160 E0.04386
G1 X94.522 Y77.548 E0.04394
G1 X95.988 Y78.156 E0.04975
G1 X97.213 Y78.836 E0.04395
G1 X98.504 Y79.758 E0.04974
G1 X99.545 Y80.697 E0.04395
G1 X100.587 Y81.876 E0.04934
G1 X101.275 Y82.841 E0.03715
G1 X101.960 Y84.030 E0.04302
G1 X102.512 Y85.271 E0.04260
G1 X102.893 Y86.445 E0.03869
M204 S1250
; printing object plug.stl id:0 copy 0
G1 E-2.24000 F4200.00000
G1 F7200.000
G1 X102.911 Y88.090 E-0.91200
G1 E-0.04800 F4200.00000
G1 Z0.400 F9000.000
G1 X99.480 Y86.213
G1 Z0.200
G1 E3.20000 F2400.00000
M204 S800
G1 F1200.000
G1 X96.196 Y86.213 E0.10296
G1 X95.812 Y86.233 E0.01208
G1 X95.296 Y86.324 E0.01641
G1 X94.793 Y86.487 E0.01657
G1 X94.321 Y86.718 E0.01649
G1 X93.935 Y86.973 E0.01450
G1 X93.631 Y87.228 E0.01243
G1 X93.396 Y87.467 E0.01051
G1 X93.150 Y87.771 E0.01227
G1 X92.966 Y88.049 E0.01044
G1 X92.807 Y88.342 E0.01044
G1 X92.653 Y88.704 E0.01235
G1 X92.538 Y89.081 E0.01235
G1 X92.471 Y89.410 E0.01052
G1 X92.430 Y89.802 E0.01235
G1 X92.430 Y90.198 E0.01243
G1 X92.471 Y90.590 E0.01235
G1 X92.537 Y90.916 E0.01044
G1 X92.632 Y91.235 E0.01044
G1 X92.779 Y91.598 E0.01227
G1 X92.933 Y91.896 E0.01052
G1 X93.154 Y92.235 E0.01267
G1 X93.572 Y92.716 E0.01999
G1 X93.831 Y92.945 E0.01084
G1 X94.150 Y93.177 E0.01235
G1 X94.491 Y93.374 E0.01235
G1 X94.794 Y93.512 E0.01044
G1 X95.108 Y93.623 E0.01044
G1 X95.500 Y93.721 E0.01267
G1 X96.126 Y93.787 E0.01974
G1 X99.479 Y93.787 E0.10514
G1 X99.133 Y94.548 E0.02622
G1 X98.796 Y95.155 E0.02175
G1 X98.311 Y95.887 E0.02755
G1 X97.884 Y96.434 E0.02175
G1 X97.292 Y97.080 E0.02747
G1 X96.647 Y97.672 E0.02746
G1 X96.096 Y98.102 E0.02191
G1 X95.369 Y98.582 E0.02731
G1 X94.602 Y98.999 E0.02739
G1 X93.798 Y99.348 E0.02747
G1 X93.142 Y99.574 E0.02175
G1 X92.292 Y99.794 E0.02755
G1 X91.606 Y99.915 E0.02183
G1 X90.914 Y99.988 E0.02183
G1 X90.033 Y100.011 E0.02763
G1 X89.514 Y99.988 E0.01628
G1 X88.997 Y99.939 E0.01628
G1 X88.126 Y99.793 E0.02771
G1 X87.621 Y99.672 E0.01627
G1 X87.118 Y99.523 E0.01644
G1 X86.624 Y99.348 E0.01644
G1 X86.140 Y99.147 E0.01644
G1 X85.667 Y98.921 E0.01644
G1 X85.211 Y98.674 E0.01628
G1 X84.470 Y98.202 E0.02755
G1 X83.773 Y97.667 E0.02755
G1 X83.384 Y97.323 E0.01628
G1 X83.010 Y96.955 E0.01644
G1 X82.659 Y96.573 E0.01628
G1 X82.326 Y96.168 E0.01644
G1 X82.011 Y95.743 E0.01660
G1 X81.727 Y95.314 E0.01611
G1 X81.289 Y94.541 E0.02787
G1 X81.066 Y94.073 E0.01627
G1 X80.865 Y93.588 E0.01644
G1 X80.690 Y93.094 E0.01644
G1 X80.543 Y92.596 E0.01628
G1 X80.351 Y91.734 E0.02771
G1 X80.275 Y91.220 E0.01628
G1 X80.225 Y90.704 E0.01628
G1 X80.202 Y89.820 E0.02771
G1 X80.224 Y89.302 E0.01628
G1 X80.274 Y88.785 E0.01628
G1 X80.420 Y87.913 E0.02771
G1 X80.541 Y87.409 E0.01627
G1 X80.690 Y86.906 E0.01644
G1 X80.865 Y86.412 E0.01644
G1 X81.066 Y85.927 E0.01644
G1 X81.291 Y85.454 E0.01644
G1 X81.539 Y84.998 E0.01628
G1 X82.011 Y84.257 E0.02755
G1 X82.546 Y83.560 E0.02755
G1 X82.890 Y83.171 E0.01628
G1 X83.257 Y82.797 E0.01644
G1 X83.644 Y82.443 E0.01643
G1 X84.052 Y82.107 E0.01660
G1 X84.469 Y81.798 E0.01628
G1 X84.902 Y81.512 E0.01628
G1 X85.671 Y81.076 E0.02771
G1 X86.145 Y80.851 E0.01644
G1 X86.624 Y80.652 E0.01628
G1 X87.118 Y80.477 E0.01644
G1 X87.616 Y80.330 E0.01627
G1 X88.484 Y80.138 E0.02787
G1 X88.992 Y80.062 E0.01612
G1 X89.509 Y80.012 E0.01628
G1 X90.390 Y79.989 E0.02763
G1 X91.083 Y80.025 E0.02175
G1 X91.954 Y80.140 E0.02755
G1 X92.632 Y80.284 E0.02175
G1 X93.472 Y80.533 E0.02747
G1 X94.287 Y80.854 E0.02747
G1 X94.913 Y81.159 E0.02183
G1 X95.516 Y81.508 E0.02183
G1 X96.240 Y82.005 E0.02755
G1 X96.779 Y82.442 E0.02175
G1 X97.415 Y83.045 E0.02747
G1 X97.995 Y83.701 E0.02747
G1 X98.414 Y84.257 E0.02183
G1 X98.794 Y84.841 E0.02183
G1 X99.213 Y85.613 E0.02755
G1 X99.456 Y86.158 E0.01871
M204 S1250
G1 X100.019 Y86.590 F9000.000
M204 S800
G1 F1200.000
G1 X96.206 Y86.590 E0.11955
G1 X95.854 Y86.608 E0.01105
G1 X95.388 Y86.691 E0.01486
G1 X94.935 Y86.838 E0.01492
G1 X94.508 Y87.046 E0.01489
G1 X94.161 Y87.276 E0.01306
G1 X93.888 Y87.505 E0.01119
G1 X93.678 Y87.719 E0.00938
G1 X93.454 Y87.995 E0.01113
G1 X93.290 Y88.243 E0.00936
G1 X93.147 Y88.506 E0.00936
G1 X93.008 Y88.833 E0.01116
G1 X92.904 Y89.174 E0.01116
G1 X92.844 Y89.467 E0.00939
G1 X92.807 Y89.821 E0.01116
G1 X92.807 Y90.178 E0.01119
G1 X92.844 Y90.532 E0.01116
G1 X92.904 Y90.825 E0.00936
G1 X92.988 Y91.111 E0.00936
G1 X93.121 Y91.440 E0.01114
G1 X93.260 Y91.706 E0.00939
G1 X93.456 Y92.007 E0.01128
G1 X93.840 Y92.450 E0.01839
G1 X94.067 Y92.651 E0.00950
G1 X94.355 Y92.860 E0.01116
G1 X94.664 Y93.038 E0.01116
G1 X94.935 Y93.162 E0.00936
G1 X95.216 Y93.261 E0.00936
G1 X95.565 Y93.349 E0.01128
G1 X96.146 Y93.410 E0.01829
G1 X100.019 Y93.410 E0.12145
G1 X99.846 Y93.892 E0.01605
G1 X99.470 Y94.718 E0.02846
G1 X99.119 Y95.350 E0.02268
G1 X98.618 Y96.108 E0.02848
G1 X98.172 Y96.678 E0.02268
G1 X97.559 Y97.347 E0.02845
G1 X96.890 Y97.960 E0.02845
G1 X96.316 Y98.408 E0.02284
G1 X95.564 Y98.906 E0.02829
G1 X94.767 Y99.338 E0.02842
G1 X93.935 Y99.700 E0.02845
G1 X93.251 Y99.936 E0.02268
G1 X92.372 Y100.163 E0.02848
G1 X91.659 Y100.289 E0.02271
G1 X90.938 Y100.364 E0.02271
G1 X90.029 Y100.388 E0.02850
G1 X89.488 Y100.365 E0.01700
G1 X88.948 Y100.313 E0.01700
G1 X88.051 Y100.162 E0.02853
G1 X87.524 Y100.036 E0.01700
G1 X87.002 Y99.881 E0.01706
G1 X86.489 Y99.700 E0.01705
G1 X85.987 Y99.492 E0.01706
G1 X85.496 Y99.257 E0.01706
G1 X85.019 Y98.999 E0.01700
G1 X84.253 Y98.511 E0.02848
G1 X83.533 Y97.958 E0.02848
G1 X83.127 Y97.599 E0.01700
G1 X82.739 Y97.217 E0.01706
G1 X82.375 Y96.820 E0.01689
G1 X82.028 Y96.401 E0.01706
G1 X81.702 Y95.959 E0.01722
G1 X81.405 Y95.512 E0.01683
G1 X80.954 Y94.715 E0.02870
G1 X80.721 Y94.226 E0.01700
G1 X80.513 Y93.723 E0.01706
G1 X80.331 Y93.211 E0.01705
G1 X80.177 Y92.691 E0.01700
G1 X79.980 Y91.802 E0.02853
G1 X79.900 Y91.266 E0.01700
G1 X79.848 Y90.727 E0.01700
G1 X79.824 Y89.817 E0.02853
G1 X79.848 Y89.275 E0.01700
G1 X79.900 Y88.736 E0.01700
G1 X80.050 Y87.838 E0.02853
G1 X80.177 Y87.311 E0.01700
G1 X80.331 Y86.789 E0.01706
G1 X80.513 Y86.277 E0.01705
G1 X80.721 Y85.774 E0.01706
G1 X80.955 Y85.283 E0.01706
G1 X81.214 Y84.807 E0.01700
G1 X81.702 Y84.041 E0.02848
G1 X82.255 Y83.320 E0.02848
G1 X82.614 Y82.914 E0.01700
G1 X82.995 Y82.526 E0.01706
G1 X83.396 Y82.159 E0.01705
G1 X83.820 Y81.809 E0.01722
G1 X84.253 Y81.489 E0.01689
G1 X84.705 Y81.190 E0.01700
G1 X85.497 Y80.742 E0.02853
G1 X85.991 Y80.506 E0.01716
G1 X86.489 Y80.300 E0.01689
G1 X87.002 Y80.119 E0.01706
G1 X87.522 Y79.965 E0.01700
G1 X88.415 Y79.767 E0.02869
G1 X88.946 Y79.688 E0.01684
G1 X89.486 Y79.636 E0.01700
G1 X90.395 Y79.612 E0.02850
G1 X91.117 Y79.650 E0.02268
G1 X92.018 Y79.768 E0.02848
G1 X92.725 Y79.919 E0.02268
G1 X93.595 Y80.176 E0.02845
G1 X94.439 Y80.509 E0.02845
G1 X95.090 Y80.826 E0.02271
G1 X95.718 Y81.188 E0.02271
G1 X96.466 Y81.703 E0.02848
G1 X97.028 Y82.158 E0.02268
G1 X97.686 Y82.783 E0.02845
G1 X98.288 Y83.462 E0.02845
G1 X98.723 Y84.041 E0.02271
G1 X99.118 Y84.648 E0.02271
G1 X99.551 Y85.446 E0.02848
G1 X99.844 Y86.103 E0.02253
G1 X99.999 Y86.534 E0.01435
M204 S1250
G1 X99.650 Y86.436 F9000.000
G1 E-2.24000 F4200.00000
G1 F7200.000
G1 X98.353 Y86.558 E-0.91200
G1 E-0.04800 F4200.00000
G1 Z0.400 F9000.000
G1 X98.383 Y84.416
G1 Z0.200
G1 E3.20000 F2400.00000
M204 S800
G1 F1200.000
G1 X97.154 Y83.187 E0.05510
G1 X96.593 Y82.655 E0.02454
G1 X96.071 Y82.232 E0.02130
G1 X95.365 Y81.747 E0.02716
G1 X94.914 Y81.486 E0.01653
G1 X98.713 Y85.286 E0.17042
G1 X99.045 Y85.930 E0.02297
G1 X98.818 Y85.930 E0.00718
G1 X93.889 Y81.001 E0.22106
G1 X93.380 Y80.801 E0.01736
G1 X93.052 Y80.704 E0.01084
G1 X98.279 Y85.930 E0.23441
G1 X97.739 Y85.930 E0.01711
G1 X92.315 Y80.506 E0.24328
G1 X91.656 Y80.386 E0.02125
G1 X97.200 Y85.930 E0.24865
G1 X96.661 Y85.930 E0.01711
G1 X91.037 Y80.306 E0.25224
G1 X90.467 Y80.276 E0.01808
G1 X96.125 Y85.934 E0.25373
G1 X95.779 Y85.952 E0.01096
G1 X95.630 Y85.978 E0.00482
G1 X89.936 Y80.284 E0.25539
G1 X89.417 Y80.305 E0.01645
G1 X95.178 Y86.065 E0.25835
G1 X94.770 Y86.197 E0.01358
G1 X88.930 Y80.357 E0.26194
G1 X88.465 Y80.432 E0.01493
G1 X94.399 Y86.365 E0.26613
G1 X94.051 Y86.557 E0.01259
G1 X88.024 Y80.529 E0.27035
G1 X87.588 Y80.633 E0.01420
G1 X93.730 Y86.776 E0.27550
G1 X93.437 Y87.022 E0.01214
G1 X87.173 Y80.758 E0.28095
G1 X86.775 Y80.899 E0.01340
G1 X93.171 Y87.295 E0.28689
G1 X92.930 Y87.593 E0.01216
G1 X86.391 Y81.055 E0.29326
G1 X86.021 Y81.223 E0.01292
G1 X92.715 Y87.918 E0.30027
G1 X92.530 Y88.272 E0.01267
G1 X85.664 Y81.406 E0.30795
G1 X85.319 Y81.601 E0.01255
G1 X92.373 Y88.654 E0.31636
G1 X92.251 Y89.072 E0.01380
G1 X84.979 Y81.800 E0.32617
G1 X84.654 Y82.015 E0.01234
G1 X92.174 Y89.534 E0.33725
G1 X92.147 Y89.787 E0.00805
G1 X92.147 Y90.047 E0.00825
G1 X84.343 Y82.243 E0.35001
G1 X84.042 Y82.481 E0.01218
G1 X92.191 Y90.630 E0.36548
G1 X92.263 Y90.985 E0.01147
G1 X92.375 Y91.353 E0.01222
G1 X83.750 Y82.729 E0.38680
G1 X83.469 Y82.987 E0.01211
G1 X97.221 Y96.739 E0.61680
G1 X97.479 Y96.458 E0.01211
G1 X94.855 Y93.833 E0.11769
G1 X95.026 Y93.894 E0.00576
G1 X95.451 Y94.000 E0.01388
G1 X95.574 Y94.013 E0.00392
G1 X97.731 Y96.170 E0.09677
G1 X97.968 Y95.868 E0.01219
G1 X96.170 Y94.069 E0.08065
G1 X96.709 Y94.069 E0.01711
G1 X98.193 Y95.554 E0.06656
G1 X98.408 Y95.229 E0.01234
G1 X97.248 Y94.070 E0.05200
G1 X97.788 Y94.070 E0.01711
G1 X98.616 Y94.897 E0.03712
G1 X98.808 Y94.550 E0.01258
G1 X98.327 Y94.070 E0.02155
G1 X98.867 Y94.070 E0.01711
G1 X99.114 Y94.317 E0.01107
M204 S1250
G1 E-2.24000 F4200.00000
G1 F7200.000
G1 X98.867 Y94.070 E-0.19348
G1 X98.327 Y94.070 E-0.29895
G1 X98.808 Y94.550 E-0.37664
G1 X98.770 Y94.618 E-0.04293
G1 E-0.04800 F4200.00000
G1 Z0.400 F9000.000
G1 X97.071 Y97.129
G1 Z0.200
G1 E3.20000 F2400.00000
M204 S800
G1 F1200.000
G1 X83.201 Y83.258 E0.62211
G1 X82.942 Y83.539 E0.01211
G1 X96.670 Y97.267 E0.61570
G1 X96.383 Y97.519 E0.01212
G1 X82.695 Y83.831 E0.61392
G1 X82.460 Y84.136 E0.01220
G1 X96.080 Y97.755 E0.61084
G1 X95.766 Y97.981 E0.01226
G1 X82.228 Y84.443 E0.60719
G1 X82.018 Y84.772 E0.01239
G1 X95.441 Y98.196 E0.60205
G1 X95.108 Y98.402 E0.01242
G1 X81.808 Y85.102 E0.59653
G1 X81.616 Y85.449 E0.01259
G1 X94.759 Y98.592 E0.58947
G1 X94.404 Y98.777 E0.01268
G1 X81.436 Y85.808 E0.58164
G1 X81.267 Y86.179 E0.01292
G1 X94.028 Y98.940 E0.57234
G1 X93.649 Y99.101 E0.01305
G1 X81.111 Y86.563 E0.56233
G1 X80.970 Y86.961 E0.01340
G1 X93.248 Y99.239 E0.55066
G1 X92.832 Y99.362 E0.01376
G1 X80.846 Y87.376 E0.53761
G1 X80.736 Y87.806 E0.01408
G1 X92.404 Y99.473 E0.52328
G1 X91.957 Y99.566 E0.01446
G1 X80.649 Y88.258 E0.50718
G1 X80.572 Y88.720 E0.01486
G1 X91.494 Y99.643 E0.48989
G1 X91.006 Y99.694 E0.01556
G1 X80.518 Y89.205 E0.47042
G1 X80.489 Y89.716 E0.01623
G1 X90.489 Y99.716 E0.44850
G1 X89.958 Y99.725 E0.01684
G1 X80.496 Y90.263 E0.42438
G1 X80.521 Y90.827 E0.01790
G1 X89.386 Y99.692 E0.39761
G1 X88.768 Y99.613 E0.01975
G1 X80.593 Y91.438 E0.36666
G1 X80.724 Y92.109 E0.02166
G1 X88.114 Y99.499 E0.33146
G1 X87.381 Y99.306 E0.02404
G1 X80.907 Y92.831 E0.29039
G1 X81.204 Y93.667 E0.02814
G1 X86.545 Y99.009 E0.23957
G1 X85.795 Y98.669 E0.02611
G1 X85.513 Y98.516 E0.01018
G1 X81.713 Y94.716 E0.17044
G1 X81.968 Y95.167 E0.01642
G1 X82.242 Y95.581 E0.01575
G1 X82.548 Y95.994 E0.01632
G1 X82.873 Y96.387 E0.01616
G1 X83.180 Y96.723 E0.01444
G1 X84.623 Y98.165 E0.06468
